#define board_width 100
#define board_height 100
static char board_bits[] = {
  0x3C, 0xC7, 0x3B, 0xF8, 0x39, 0x3C, 0x0E, 0x83, 0x67, 0x70, 0x0C, 0x8F, 
  0x0F, 0x38, 0xC7, 0x3B, 0xB8, 0x09, 0x1C, 0x06, 0x8D, 0xE7, 0x30, 0x06, 
  0x87, 0x0F, 0x00, 0xC7, 0x3B, 0x2C, 0x39, 0x3C, 0x06, 0x85, 0x61, 0x38, 
  0x8E, 0x87, 0x0F, 0x08, 0xC7, 0x3B, 0x9C, 0x39, 0x3C, 0x0E, 0x83, 0xE7, 
  0x38, 0x8E, 0xC7, 0x0F, 0x18, 0xC7, 0x7B, 0x4C, 0x39, 0x1C, 0x16, 0x87, 
  0x67, 0x39, 0x9E, 0xCF, 0x0F, 0x08, 0xC1, 0x7B, 0xBC, 0x3D, 0x3C, 0x0E, 
  0x8F, 0xA3, 0x38, 0x84, 0xCF, 0x0F, 0x18, 0xC7, 0x39, 0xDC, 0x3C, 0x3C, 
  0x06, 0x85, 0xE7, 0x38, 0x1C, 0xCF, 0x0F, 0x18, 0xC3, 0x79, 0x9C, 0x4C, 
  0x3C, 0x0E, 0x87, 0xC7, 0x38, 0x0C, 0xC5, 0x0F, 0x18, 0xE1, 0x79, 0xDC, 
  0x7C, 0x1C, 0x06, 0x87, 0xE1, 0x78, 0x1C, 0xC3, 0x0F, 0x18, 0xE3, 0x78, 
  0xFC, 0x1C, 0x3C, 0x06, 0x8B, 0x23, 0x79, 0x08, 0xC7, 0x07, 0x98, 0xE3, 
  0x7C, 0x1C, 0x1C, 0x3C, 0x0E, 0x87, 0xE7, 0x30, 0x38, 0xC3, 0x07, 0x98, 
  0x63, 0x7C, 0x1C, 0x0C, 0x7C, 0x06, 0x8F, 0xE7, 0x71, 0x10, 0xC7, 0x07, 
  0x98, 0xE3, 0x38, 0xBC, 0x0C, 0x3C, 0x0E, 0x83, 0xE7, 0x71, 0x10, 0xC3, 
  0x05, 0x98, 0xE7, 0x5D, 0x3C, 0x3C, 0x3C, 0x0E, 0x87, 0xE7, 0xB1, 0x10, 
  0xC7, 0x07, 0x98, 0xE7, 0x5C, 0x5C, 0x3C, 0x1C, 0x0E, 0x81, 0xE3, 0xF1, 
  0x10, 0xC7, 0x07, 0x98, 0x67, 0x4D, 0x1C, 0x3C, 0x3C, 0x1E, 0x87, 0xE3, 
  0xF1, 0x30, 0xC7, 0x07, 0x98, 0xE7, 0x09, 0x1C, 0x1C, 0x3C, 0x0E, 0x83, 
  0xE7, 0x71, 0x70, 0xC7, 0x07, 0x98, 0xE7, 0x41, 0x4C, 0x1C, 0x3C, 0x0E, 
  0x83, 0xE3, 0x72, 0x78, 0xC7, 0x07, 0x98, 0xE7, 0x4D, 0x1C, 0x1C, 0x0C, 
  0x0E, 0x87, 0x43, 0x70, 0x78, 0xC3, 0x03, 0x98, 0xE7, 0x5D, 0x5C, 0x1C, 
  0x3C, 0x0E, 0x8F, 0xC3, 0x73, 0x38, 0xC3, 0x01, 0x90, 0xE7, 0x04, 0x1C, 
  0x0C, 0x3C, 0x0E, 0x83, 0xC1, 0x71, 0x38, 0xC6, 0x01, 0x90, 0xF7, 0x4C, 
  0x7C, 0x2C, 0x1C, 0x0E, 0x83, 0xC3, 0x71, 0x78, 0xCF, 0x07, 0x88, 0xF7, 
  0x1C, 0x1C, 0x3C, 0x3C, 0x0E, 0x83, 0xC7, 0x71, 0x38, 0xCE, 0x03, 0x90, 
  0xF7, 0x2C, 0x5C, 0x1C, 0x3E, 0x0E, 0x8F, 0xC3, 0x70, 0x38, 0xCF, 0x03, 
  0x88, 0x37, 0x3C, 0x1C, 0x1C, 0x1E, 0x0E, 0x8F, 0xC7, 0xF1, 0x38, 0xCF, 
  0x03, 0x98, 0x77, 0x3C, 0x3C, 0x3C, 0x2E, 0x06, 0x87, 0xC3, 0xF1, 0x38, 
  0xCF, 0x03, 0x98, 0x77, 0x3C, 0x3C, 0x2C, 0x1E, 0x06, 0x8F, 0xC5, 0x71, 
  0x38, 0xCB, 0x07, 0x98, 0xF3, 0x3C, 0x3C, 0x1C, 0x2E, 0x1E, 0x8F, 0xC3, 
  0xF2, 0x38, 0xC0, 0x07, 0x18, 0x71, 0x3E, 0x3E, 0x1C, 0x2E, 0x0E, 0x8F, 
  0xC7, 0x71, 0x38, 0xC2, 0x07, 0x9C, 0xF2, 0x06, 0x3E, 0x1C, 0x2E, 0x06, 
  0x8B, 0xC7, 0x73, 0x38, 0xC6, 0x07, 0x9C, 0xB0, 0x0E, 0x3F, 0x1A, 0x26, 
  0x0E, 0x87, 0xC7, 0xF0, 0x78, 0xC6, 0x03, 0x9C, 0xF0, 0x0C, 0x07, 0x06, 
  0x2E, 0x0A, 0x87, 0xC3, 0xF0, 0x30, 0xC4, 0x03, 0x9C, 0xF2, 0x1E, 0x2D, 
  0x1E, 0x26, 0x0A, 0x8F, 0xC3, 0xF1, 0x70, 0xCA, 0x01, 0x9C, 0xF0, 0x0E, 
  0x0F, 0x0E, 0x26, 0x0E, 0x8F, 0xC7, 0xF0, 0x70, 0xCE, 0x03, 0x9C, 0xF3, 
  0x3E, 0x2F, 0x0E, 0x3E, 0x16, 0x8F, 0xC7, 0x70, 0x70, 0xCE, 0x03, 0x9C, 
  0xF2, 0x0E, 0x27, 0x06, 0x26, 0x06, 0x8F, 0xC3, 0xF1, 0x70, 0xCE, 0x01, 
  0x9C, 0x70, 0x1E, 0x2F, 0x16, 0x2E, 0x0E, 0x8F, 0xC3, 0xF1, 0x71, 0xCE, 
  0x03, 0x9C, 0x72, 0x1E, 0x0F, 0x06, 0x0E, 0x0E, 0x16, 0xC3, 0xF1, 0x71, 
  0xCE, 0x03, 0x18, 0x72, 0x3E, 0x2F, 0x1F, 0x2E, 0x0E, 0x0E, 0xC7, 0xF0, 
  0x71, 0xCE, 0x03, 0xD8, 0x32, 0x1E, 0x27, 0x07, 0x1E, 0x0A, 0x06, 0xC3, 
  0x72, 0x71, 0xCE, 0x03, 0xD8, 0x13, 0x3E, 0x2F, 0x17, 0x0E, 0x0E, 0x0E, 
  0xC3, 0xF0, 0x71, 0xCE, 0x03, 0xD8, 0x13, 0x3E, 0x0F, 0x07, 0x1E, 0x0E, 
  0x1E, 0xC3, 0xE1, 0x30, 0xCE, 0x01, 0xD8, 0x73, 0x3E, 0x0F, 0x07, 0x2E, 
  0x0A, 0x0E, 0xC7, 0xE3, 0x71, 0xCE, 0x03, 0xD8, 0x33, 0x3E, 0x0F, 0x0F, 
  0x3E, 0x07, 0x0E, 0x87, 0xE1, 0x70, 0xC6, 0x03, 0xDC, 0x73, 0x26, 0x1F, 
  0x17, 0x06, 0x0F, 0x0E, 0x83, 0xC1, 0x31, 0xCE, 0x03, 0xDC, 0x73, 0x06, 
  0x1F, 0x0F, 0x2E, 0x0F, 0x0E, 0x87, 0xC3, 0xF0, 0x8E, 0x03, 0xC4, 0x73, 
  0x0A, 0x1F, 0x07, 0x2E, 0x07, 0x06, 0x83, 0x41, 0x50, 0xCE, 0x03, 0xC4, 
  0x73, 0x0E, 0x1F, 0x03, 0x2E, 0x0F, 0x0E, 0x87, 0x47, 0x30, 0xDE, 0x03, 
  0xD6, 0x73, 0x0E, 0x13, 0x07, 0x0E, 0x0F, 0x0E, 0x83, 0xC3, 0x70, 0xCE, 
  0x03, 0xD2, 0x71, 0x1E, 0x17, 0x0F, 0x0E, 0x0F, 0x0E, 0x87, 0xC3, 0x30, 
  0xDE, 0x03, 0xD6, 0x73, 0x1E, 0x13, 0x07, 0x1E, 0x0F, 0x0E, 0x87, 0xC3, 
  0x31, 0xC6, 0x01, 0xD6, 0x70, 0x1E, 0x17, 0x03, 0x1E, 0x07, 0x0E, 0x8B, 
  0xC1, 0x71, 0xCE, 0x01, 0xD6, 0x70, 0x1E, 0x17, 0x03, 0x1E, 0x07, 0x1E, 
  0x87, 0xC1, 0x31, 0xC6, 0x01, 0xD4, 0x71, 0x0E, 0x1F, 0x07, 0x1E, 0x03, 
  0x0E, 0x93, 0xC3, 0x71, 0xC6, 0x03, 0xD8, 0x71, 0x0E, 0x17, 0x0B, 0x1E, 
  0x07, 0x16, 0x83, 0xC3, 0x71, 0xCE, 0x00, 0xD4, 0x71, 0x06, 0x03, 0x07, 
  0x1E, 0x03, 0x1E, 0x87, 0xC7, 0x70, 0xCE, 0x07, 0xCC, 0x70, 0x0E, 0x1F, 
  0x07, 0x1E, 0x03, 0x1E, 0x9E, 0xC1, 0x30, 0xCE, 0x07, 0xDC, 0x33, 0x0E, 
  0x17, 0x07, 0x1E, 0x07, 0x1E, 0x83, 0xC3, 0x71, 0xC6, 0x07, 0xDC, 0x11, 
  0x0E, 0x3F, 0x07, 0x0E, 0x03, 0x1E, 0x93, 0xC3, 0x70, 0xCE, 0x07, 0xDC, 
  0x31, 0x06, 0x33, 0x03, 0x1E, 0x0F, 0x1E, 0x97, 0xCB, 0xF0, 0xCE, 0x03, 
  0xDC, 0x21, 0x0E, 0x27, 0x07, 0x0E, 0x07, 0x1E, 0x9F, 0x49, 0x70, 0xC6, 
  0x01, 0xDC, 0x71, 0x06, 0x3F, 0x07, 0x1E, 0x03, 0x1E, 0x9F, 0xCA, 0x33, 
  0x8E, 0x07, 0xDC, 0x71, 0x0E, 0x2F, 0x1F, 0x0E, 0x07, 0x1E, 0x8F, 0xCB, 
  0x70, 0xC6, 0x03, 0xDC, 0x71, 0x0E, 0x37, 0x03, 0x0E, 0x03, 0x06, 0x8F, 
  0xC9, 0x30, 0xDE, 0x07, 0xDC, 0x71, 0x04, 0x3F, 0x0F, 0x06, 0x0F, 0x1E, 
  0x87, 0xC9, 0x31, 0xCE, 0x01, 0xDC, 0x71, 0x0C, 0x3E, 0x0F, 0x16, 0x03, 
  0x16, 0x87, 0xC3, 0x31, 0xC6, 0x01, 0xDC, 0x71, 0x0C, 0x1C, 0x07, 0x1E, 
  0x07, 0x1E, 0x83, 0xC7, 0x70, 0xCE, 0x01, 0xDC, 0x71, 0x2C, 0x1C, 0x1E, 
  0x16, 0x03, 0x1E, 0xC7, 0xC3, 0x71, 0x9E, 0x07, 0xDC, 0x71, 0x3C, 0x1C, 
  0x0E, 0x06, 0x07, 0x1E, 0xC3, 0xC3, 0x70, 0x9E, 0x07, 0xDC, 0x71, 0x3C, 
  0x0C, 0x0E, 0x1E, 0x0F, 0x1E, 0xC7, 0xCB, 0x71, 0x9E, 0x07, 0xDC, 0xF3, 
  0x3C, 0x1C, 0x1E, 0x06, 0x0F, 0x0E, 0xC7, 0xC7, 0x70, 0xDE, 0x07, 0xDC, 
  0xF3, 0x3C, 0x3C, 0x1E, 0x06, 0x0F, 0x1E, 0xC7, 0xC7, 0x31, 0xCE, 0x07, 
  0xDC, 0x73, 0x3C, 0x04, 0x06, 0x06, 0x0F, 0x1E, 0xC7, 0xC3, 0x31, 0xC6, 
  0x03, 0xDC, 0x73, 0x3C, 0x3C, 0x0E, 0x0E, 0x1F, 0x1E, 0xC3, 0xC7, 0x73, 
  0xC6, 0x07, 0xDC, 0xF3, 0x3C, 0x4C, 0x0E, 0x1E, 0x1E, 0x16, 0xC7, 0xC7, 
  0x72, 0xC6, 0x07, 0x9C, 0x72, 0x7C, 0x7C, 0x1E, 0x1E, 0x0E, 0x0E, 0xC7, 
  0xC7, 0x70, 0xC2, 0x07, 0x9C, 0xF2, 0x7C, 0x1C, 0x1E, 0x3E, 0x1E, 0x1E, 
  0xC3, 0x43, 0x70, 0xDE, 0x07, 0x9C, 0x60, 0x7C, 0x4C, 0x0E, 0x0E, 0x1E, 
  0x1E, 0xCF, 0xC7, 0x31, 0xDE, 0x07, 0x1C, 0xE3, 0x7D, 0x5C, 0x06, 0x0E, 
  0x1E, 0x1E, 0xCF, 0xC7, 0x30, 0xDF, 0x07, 0x98, 0xE3, 0x7D, 0x4C, 0x16, 
  0x1E, 0x1E, 0x0E, 0xCF, 0xC7, 0x32, 0xCF, 0x07, 0x98, 0xC3, 0x1D, 0x3C, 
  0x0E, 0x1E, 0x06, 0x0E, 0xCF, 0xC7, 0x30, 0xCF, 0x07, 0xB8, 0xC3, 0x0D, 
  0x1C, 0x06, 0x0C, 0x0E, 0x1F, 0xCF, 0xC7, 0xB2, 0x87, 0x03, 0xB8, 0x43, 
  0x6C, 0x7C, 0x0E, 0x1C, 0x1E, 0x1F, 0xCF, 0xC3, 0xB0, 0xCF, 0x07, 0xB8, 
  0xC1, 0x6D, 0x4C, 0x06, 0x1C, 0x0E, 0x1F, 0xCF, 0x43, 0xB0, 0xCF, 0x07, 
  0xB8, 0xC1, 0x5C, 0x0C, 0x0E, 0x0C, 0x06, 0x1F, 0xC3, 0xC5, 0xB0, 0xCF, 
  0x07, 0xB8, 0xC3, 0x45, 0x5C, 0x1E, 0x1C, 0x0E, 0x0F, 0xC5, 0xC3, 0xB0, 
  0xC7, 0x07, 0x98, 0x41, 0x7C, 0x5C, 0x0E, 0x1C, 0x0E, 0x0F, 0xC3, 0x43, 
  0xB0, 0xCB, 0x07, 0xB8, 0xC7, 0x49, 0x7C, 0x0E, 0x1C, 0x1E, 0x07, 0xC3, 
  0x43, 0xB0, 0xCB, 0x03, 0x98, 0xC7, 0x09, 0x7C, 0x0E, 0x1C, 0x06, 0x07, 
  0xC3, 0xC1, 0xB0, 0x89, 0x07, 0x88, 0xC7, 0x59, 0x7C, 0x3E, 0x1C, 0x0E, 
  0x87, 0xC7, 0xE1, 0xB1, 0x81, 0x03, 0x18, 0xC7, 0x59, 0x5C, 0x1C, 0x14, 
  0x06, 0x83, 0xC7, 0xE0, 0xB0, 0x8D, 0x03, 0x18, 0xC7, 0x39, 0x5C, 0x3C, 
  0x1C, 0x1E, 0x87, 0xC7, 0x61, 0xB9, 0x8F, 0x03, 0x38, 0xC7, 0xD9, 0xBC, 
  0x3C, 0x0C, 0x1E, 0x8F, 0xC7, 0x21, 0xB8, 0x87, 0x03, 0x38, 0xC7, 0xA9, 
  0x9C, 0x1C, 0x1C, 0x0E, 0x8F, 0xC7, 0x61, 0xB8, 0x8B, 0x0B, 0x38, 0xC7, 
  0x9B, 0x7C, 0x1C, 0x5C, 0x06, 0x8F, 0xC7, 0x21, 0x38, 0x87, 0x09, 0x38, 
  0xC7, 0x39, 0x38, 0x2C, 0x1C, 0x0E, 0x8F, 0xC1, 0x60, 0x18, 0x87, 0x0B, 
  0x38, 0xC7, 0xBB, 0x38, 0x0C, 0x5C, 0x0E, 0x87, 0xC3, 0x60, 0x1C, 0x83, 
  0x0F, 0x38, 0xC7, 0xBB, 0xF8, 0x3C, 0x7C, 0x0E, 0x87, 0xE7, 0xF0, 0x0C, 
  0x87, 0x0F, 0x3C, 0xC7, 0xF9, 0xF8, 0x3C, 0x0C, 0x0E, 0x87, 0xE7, 0x71, 
  0x0C, 0x87, 0x07, 0x3C, 0xC7, 0xBB, 0xF8, 0x3C, 0x2C, 0x1E, 0x83, 0xE7, 
  0x70, 0x1C, 0x8F, 0x07, };
