/* XPM */
static char *board_256[] = {
/* columns rows colors chars-per-pixel */
"100 100 4 1 ",
"  c #EBAA41 s c2 ",
". c #FFB241 s c3 ",
"X c #FFBA59 s c0 ",
"o c #FFC365 s c1 ",
/* pixels */
"Xo ...Xo ..Xoo ...X ..XXXoo .....Xo ..XXoo ...XXo ..XXoo .XXXXo ...Xo .XXXoo ..Xoo .XXoo ...XXo ....",
"Xoo ..Xo ..Xoo ...X ..XXXoo ..X..Xo XXXXoo ..XXXo .XXXoo X..XXo ...XX ..XXoo .XXo .XXXXo ..XXXo ....",
"XooXXXXo ..Xoo ...X ..XXXo .X.XX.Xo ..XXoo ...XXo .XXXoo X.XXXo .XXXX .XXXo ..XXX ..XXo  ..XXXo ....",
"Xoo XXXo ..Xoo ...X ..XXXo ..XX..Xo ..XXoo ...XXo ..XXoo .XXXXo ...Xo ..XXo ..XXo ..XXo ...XXX .....",
"Xoo .XXo ..Xoo ...X ...XXX .XX.X.Xo ..XXoo ..XXXo .X.Xoo ..XXXo ...Xo .X.Xo ..XXo ...Xo ....XX .....",
"Xoo XXXo XXXoo ...X ...XXo ...X..X ...XXoo ...XXo ..XXoo ...XXo ..XXX X.XXo ..XXXo XXXo  ...XX .....",
"Xoo .XXo ..Xoo ..XX ..XXXX ..X..XX ...XXoo ...XXo .XXXXo X.XXXo ...Xo ..XXo ..XXoo ..XXo ...XX .....",
"Xoo .Xoo .XXoo ..XX ...XXo ..XX.XX .XX.Xoo ...XXX ..XXXo ..XXXo ...XXX..XXo ..XXXo .XXXo X.XXX .....",
"Xoo .Xoo XXXX  ..XX ...XXo ..X..XX ....Xoo ..XXXo .XXXXo ..XXXo .XXXo ..XXo ...XXo ..XXX .XXXX .....",
"Xoo .Xoo .XXo ..XXo ...XXo .....XX ..XXXoo ...XXX .XXXXo .X.Xoo ..XXo XX.XX ...XXoo XXXo ..XXX ....X",
"Xoo .Xo  .XXo ..XX ....XXo ..XXXXX ..XXXoo ...XXX ..XXXo ..XXoo ...Xo ..XXoo .XXXoo ..Xo .XXXX ....X",
"Xoo .Xo ..XXo .XXX ....XXo ..XXXXX .XXXXoo ....XX .XXXXo ...Xoo ...XX ...Xoo  .XXooo XXo ..XXX ....X",
"Xoo .Xo ..XXo ..XXX...XXXo ...X.XX .XXXXoo ...XXX ..XXXo .XXXoo ...XX ...Xoo  .XXXoo XXo .XXXX ..X.X",
"Xoo .Xo ...Xo ...X ..X.XXo ...XXXo ...Xooo ...XXo ..XXXo ..XXoo ...Xo ...Xoo .X.Xooo XXo ..XXo ....X",
"Xoo .Xo ...Xo ..XX ..X.XXo ..X.XXo ...Xooo ..XXXo ..XXXo XXXXoo ..XXX ...Xoo ...XXoo XXX ..XXo ....X",
"Xoo .Xo ...Xo .X.o .XX.XXo ..XXXXo ...Xooo ...XXo ...XXo ..XXoo ..XXo ...XXo ...Xooo .XX ..XXo ....X",
"Xoo .Xo ...Xo ...oo.XXXXXo ..XXXXo ..XXooo ...XXo ..XXXo .XXXoo ...XX ...XXo ..XXooo ..X ..XXo ....X",
"Xoo .Xo ...Xo ...ooXXX.XXo .XX.XXo ..XXooo ...XXo ..XXXo .XXXoo ..XXo  .X.Xo ..XXoo  ..X ..XXX ....X",
"Xoo .Xo ...Xo ...o .XX.XXo ..XXXXo ..XXooo .XXXXo ..XXXo ..XXoo ..XXXo XXXXo ..XXoo ...X .XXXo ...XX",
"Xoo .Xo ...Xo ...X ..X.XXo ..X.XXo ..XXooo ...XXo ..XXXo ...Xoo ..XXoo ...Xo ..XXoo ..XX .XXXo ..XXX",
"XooX.Xo ...Xo ..oX XXXXXXo ..XXXXo .XXXooo ...XXo ..XXXo .XXXoo .XXXoo ..XXo ..XXoo ..XXX..XXo ..XXX",
"XoXX.Xo ...X  ..oo .XX.XXo ....Xoo .X.Xooo ..XXXo ..XXXo .XXXoo ..XXoo ..XXo ..XXoo ...X ...Xo ....X",
"Xoo XXo ...X ...oX ..XXXoo ..XXXoo ...Xooo ...XXo ..XXXo .XXXoo ...XXo ..XXo ..XXXo ..XXX...Xo ...XX",
"XooX.Xo ...X ...oX .X.XXoo ..X.Xoo ..XXoo  ...XXo ..XXXo ...Xoo ..XXoo .XXXo ..XXoo ..XX ...Xo ...XX",
"Xoo XXo ...X .oXoX ...XXoo ..XXXoo ..XXoo ...XXXo ..XXXo ...Xoo ...Xoo ..XXo ...Xoo ..XX ...Xo ...XX",
"Xoo .Xo ...X ..oXo ...XXoo ...XXoo ...Xoo ..X.XXo .XXXXo ..XXXo ..XXXo ..XXo ...Xoo ..XX ...Xo ...XX",
"Xoo .Xo ...X ..Xoo ...XXoo ...XXoo .X.Xoo ...XXXo .XXXXo ...Xoo .X.XXo ..XXo ..XXXo ..XX .X.Xo ....X",
"Xoo .Xo ..XX ...oo ...XXoo ...XXoo ..XXoo ..X.XXo ...XXo ...Xoo ..XXXo .X.Xo ...Xoo ..XXoXXXXo ....X",
"Xoo .XoX.XXX ..oo ....XXo ....XXoo ..XXoo ..X.Xoo ..XXXo ...Xoo ...XXo ..XXo ..XXoo ..XXo XXXo ....X",
"Xo ..Xo X.XX ...o .XXXXXo ....XXoo ..Xooo ..X.Xoo .XXXXo .X.XXo ...XXo ...Xo ..XXoo ..XXo .XXo ....X",
"Xo ..Xo XXXo .o.o ..XXXX .....XXo X..Xooo .XX.Xoo ..XXXo ..XXXo ...XXo .XXXo ...Xoo  ..XX .XXo ...XX",
"Xo ..Xo XXXo ...oo..XXXX ..XXXXoo .XXXooo ..X.Xoo X.XXXo ..XXXo ..XXXo .XXXo ...Xooo .XXoX.XXo ...XX",
"Xo ..Xo X.Xo ...X ...XXo o..X.Xoo ...Xooo .XX.Xoo X.XXXo ...XXo ..XXXo ..XXo ...XXoo ..XX X.Xo ..XXX",
"Xo ..Xo XXXo ...X ..XXoo ...XXXoo ..XXooo .XX.Xoo ..XXXo ...XXo ...XXo .XXXo ...XXoo ..Xo ..Xo ...XX",
"oo ..Xo ..Xo ...X ....XX ...X.Xoo ..XXooo ....Xoo .X.XXo ...XXo ...XXo .XXXo ..XXXoo ..Xo ..Xo ...XX",
"oo ..Xo X.Xo ...X ..XXXX ..XX.Xoo .XXXooo .XX.Xoo .XXXXo ...XXo ..XXXX ..XXo ...XXXo ..Xo ..Xo ..XXX",
"oo ..Xo XXXo ..XX ...XXX ...X.Xoo .X.Xooo ..X.Xoo ..XXoo ...XXo ..XXXo ..XXo ....XXo ..XX ..Xo ...XX",
"oo ..Xo X.Xo ..XX ...XXX ...XXXoo .XXXooo ..XXXoo ..XXooo .X.Xoo .XXXo ..XXo ....XXo ..Xo ..Xo ...XX",
"ooo .XoXX.Xo ..Xo ....Xo ...X.Xo  ...Xooo ..X.XXo ..XXooo ..XXoo ..XXo .XXXo ....Xoo ..Xo ..Xo ...XX",
"ooo .X  X.Xo .XXo ...ooo ..XX.Xo ..XXXooo ...XXoo X.XXooo .XXXoo .XXXX .X.Xo ..X.XXo ..Xo ..Xo ...XX",
"ooo .X ...Xo XXXo ....Xo ...X.Xo ..X.Xooo ..XXXoo ..XXooo ..XXoo .XXXo .XXXo  ...Xoo ..Xo ..Xo ...XX",
"ooo .X ...Xo XXXo ....Xo ...XXXo ..XXXooo ...XXoo ..XXooo ...Xoo .XXXo ..XXoo ..XXoo .XXX ..XX ..XXX",
"ooo .X ...Xo ..Xo ....Xo ...XXXo ..XXXooo ..X.Xoo X.XXooo ..XXXo ..XXo  ..Xoo ...Xoo ..XX ..XX ...XX",
"ooo .X ...Xo .XXo ....Xo ...XXXo ...XXXoo ....Xo ..XXXooo ..XXoo ..XXoo .XXXo  .XXoo ..XX .XXX ...XX",
"oo ..X ...Xo ..Xo .XX.Xo ....Xoo ..X.Xooo .XXXXo ...XXooo ..XXoo .XXXoo .XXXoo ..XXo .XXX ..XX ...XX",
"oo ..X ...Xo ..Xo .XXXXo ....Xoo ...XXooo ..X.Xo ...XXooo ..XXoo ..XXoo ..XXoo .XXoo ...X ..XXX...XX",
"oo XXX ...Xo ..Xo X.XXXo ....Xoo ..XXXooo ..X.Xo ..XXXooo .XXXoo .XXXoo .XXXoo XXXoo o.oX ..XX ...XX",
"Xo XXX ...Xo ..Xo ..XXXo ....Xoo .XXXXooo ..X.Xo ...XXooo ..XXoo ..XXoo ...Xoo XXXXo .XoX ...X ...XX",
"X .X.X ...Xo ..Xo ..XXXo .XX.Xoo ..XXXooo ..XXXo ...XXooo ..XXoo .XXXoo ..XXoo .XXoo ..Xo ..XX ...XX",
"X XX.X ..XXo ..Xo ...XXo ..X.Xoo ...Xoooo ..XXXo ...XXooo ..XXoo ..XXoo ..XXoo .XXXo .ooX ...X ...XX",
"X .X.X ...Xo ..Xo ...XXo .XX.Xoo ..XXXooo ...XXX ...XXooo ..XXXo ..XXXo ..XXoo ..XXX .XXX .XXX ..XXX",
"X .X.X .XXXo ..Xo ...XXo ..X.Xoo .XXXoooo ...Xoo ..XXXXoo ..XXoo .X.XXo .XXXoo ..XXo ..oX ..XX ..XXX",
"X  X.X .XXXo ..Xo ...Xoo ..X.Xoo .XXXXooo ...Xoo ..XXXooo ...Xoo ..XXXo .XXXXo ..XXX .XoX .XXX ..XXX",
"Xo X.X ..XXo ..Xo ..XXoo ....Xoo ..XXXooo ...Xoo .XXXXooo ..XXoo .XX.Xo ..XXoo ..XXo ..oX .XXX ...XX",
"XoX..X ..XXo ..Xo ..XXoo ..X.Xoo .X.Xoooo ...XXX ..XXXooo .X.Xoo .XXXXo ..XXoo ..XXo ..oX ..XX .XXXX",
"Xo X.X ..XXo ..Xo .XXXoo .XXXXoo ..XXoooo ...XXo .XXXXooo ...Xoo ..XXXo ...XXo .XXXo ..XX ..oo ....X",
"Xo .XX .XXXo ..Xo ..XXoo ....XXo ..XXoooo ...XXo .XXXXooo ...XXoX....Xo .XXXXo .XXXo .XXX ..oX ....X",
"Xo ..X ...Xo .XXo ..XXoo ..X.XXo ..XXoooo ...XXo ..XXoooo ...XXX .XXXXo ..XXXo ..XXo ..XX .ooX ....X",
"oo ..X ..XXo XXXX ..XXoo .....Xo ..XXXooo ..XXXo .XXXoooo ...XXo .XX.Xo ..XXXo .XXXo ..XX ..oo ....X",
"oo ..X ..XXo .XXo .XXXXo .XX..Xo .XXXXooo ...XXo ...Xoooo ...XXo ..X.Xo ..X.Xo .XXXo ...X ..oX ...XX",
"oo ..X ..XXoX.XXo ..XXXo ..XX.Xo ..XXXooo ..XXXo ..XXoooo ...XXo ....Xo .XX.Xo XXXXo ..XX .ooX ..XXX",
"oo ..X ..Xoo ..Xo .XXXXo .....Xo ..XXXooo ...XXo .XXXoooo ...XXX ....Xo X.X.Xo ...Xo .ooX ..XXX....X",
"oo ..X ..Xoo ..Xo ..XXXo ...X.Xo ....Xooo ..XXXo ..XXoooo ...XXo ...XXo ..X.Xo .XXXo ..oo .XXX ...XX",
"oo ..X ..Xoo ..Xo ..XXXo ..X..Xo .XXXXooo ..XXXo .XXXoooo .XXXXo ...XXo .XX.Xo .XXXo .XoX ...X ....X",
"oo ..X ..Xoo ..Xoo XXXXo  ....Xo ...XXooo .XXXXo ...XXooo ...XXo ..XXoo .XX.Xo ..XXo .ooX ..XX ..XXX",
"oo ..X ..Xoo ..Xoo .XXXoo ....Xo ...XXooo .X.XXo .XXXXXoo .X.XXX ..XXoo ..XXXo ..XXo .XoX .XXX ..XXX",
"oo ..X ..Xoo ..Xoo .XXXooo ..XXo ..XXXooo ...XXo ..XXXooo ...XXo .XXXXo ...XXo .XXXo ..Xo ..XX ..XXX",
"oo ..X ..Xoo ..XXo .X.Xooo ..XXoo ...Xooo .X.XXo .XXXXooo ...XXo ..XXo ...XXXo ..XXo ..oX ...oo....X",
"oo ..X ..XXo ..XXo ...Xooo ..XXoo ..XXooo .XXXXo ..XXXXoo ...Xoo .XXXo ...XXXX .XXXo ..XX ...oo....X",
"oo ..X ..XXo ..XXo ...Xooo .XXXoo ..XXooo ...XXo ...XXooo ...Xoo ..XXo ...X.Xo ..XXo ..XX ...oo....X",
"oo ..X ...Xo ...Xo ...Xooo ..XXXo ...Xooo .XXXXo ...XXXoo ..XXXo ..XXo ....XXo .XXXo ..XX ...X ....X",
"oo ..X ...Xo ...Xo ...XXoo ...Xoo ...Xooo .XXXXo ...XXXoo ...Xoo ..XXo ....XXo ..XXo .XXX ..oo ....X",
"oo ..X ...Xo ..XXo ...XXoo XXXXXo .XXXooo .XXXXo ...XXooo ...XXX ..XXo ...XXXo ..XXo .XXX .XXo ...XX",
"oo ..X ...Xo ..XXo ...XXoo ...XXo ..XXooo ..XXXo ....Xooo ...XXo .XXXo ....XXo ...Xo ..XX .XXo ....X",
"Xo ..X  ..Xo ...Xo ...XXoo .XX.Xo ..XXooo ...XXoo ...Xooo .X.XXo ..XXo ....XXo .X.XX ..Xo .XXX ....X",
"Xo ..Xo X.Xo ..XXo ....Xoo ....Xo ...Xooo ...XXoo ..XXooo ..XXoo ..XXo ....XXo .XXXo ..Xo XXXX ....X",
"Xo ..XX X.Xo ...Xo ....Xoo ..XXXo ...Xooo ....Xoo ...Xooo ...Xoo .XXXo ...XXXo XXXXo ..XX ...X ....X",
"Xo ..Xo XXXoo .XXo ....Xoo .XX.Xo ..XXooo ..XXXoo ...Xooo ...Xoo ...Xo ....Xoo ..XXo .XXo ...X ....X",
"Xo  .XoX..Xoo ...X ....Xoo ..X.Xo .XXXooo ..XXXoo ...Xooo ...XXo ...Xo ....Xoo .XXXo .XX ....X ....X",
"Xoo .XX ..Xoo ...X ....Xoo .XX.Xo .X.Xooo ...XXoo ...Xooo ..XXXo ...Xo ....XXo .X.Xo .Xo ...XX ....X",
"Xoo .XX ..Xooo ..X ..XXXoo ...XXo ..XXooo ...XXoo .XXXooo ..XXXo ...Xo ....XXo .XXXo .Xo ...XX ....X",
"Xoo ..X ..Xooo ..X .XXXXoo ..XXXo .XXXoooo .XXXoo ..XXoo  ...Xoo ...Xo ....Xoo .X.Xo .X ...XXXX...XX",
"Xoo ..X ..Xooo XXX .X..Xoo ....Xo ..XXoooo ..XXoo ...Xoo ....Xoo ...Xo ...XXoo .XXXo .X ....XX ....X",
"Xoo ..X .XXXoo ..X .X..Xoo .XX.Xo .XXXXooo ..XXoo ..XXoo ....Xoo ...Xo ...XXoo XXXXo .X ....XX ....X",
"Xoo ..X .XXXoo .XX ..X.Xoo .XXXXo ..XXXooo .XXXoo .XXXoo ....XXX .XXXo ..X.Xoo .XXoo .X ....XX ....X",
"Xoo ..X ..XXoo ..X XXX.Xoo ..X.Xo ...XXooo ..XXoo ..XXoo ...XXoo X.XXo ...XXoo .XXoo .X ...XXo ....X",
"Xoo .XX .XXXoo XXX ....Xoo ..X.Xo ..XXXooo ..XXoo ..XXoo ...XXoo .XXXo ...XXoo XXXXo .X ..X.Xo ....X",
"Xoo ..X ...Xoo ..Xo XX.Xoo ....Xo ..XXXooo ..XXoo ...XXo ..XXXoo .XXXo ...XXoo XXXoo .X ..X.Xo ...XX",
"Xoo .XX ...Xoo ..Xo XXXXoo ....Xo ..XXXooo ..XXoo .XXXoo ..XXXoo .XXoo ..XXooo .XXXo .X .XX.Xoo ...X",
"Xoo XXX ...Xoo ..Xo .X.Xoo ....Xo  ...XXoo ..XXoo ..XXoo ..XXXX ...Xoo ..XXoo  ..Xoo .X .XXXXoo ..XX",
"Xoo .XXo ..Xoo ..Xo .X.XXo ..X.Xoo ..XXooo X.XXoo .XXXoo .XXXXo ...XXo .XXXoo ..XXoo .X .X..Xoo ..XX",
"Xoo .XXo ..Xoo ..Xo ..XXXo ..X.Xoo ...Xooo ..XXXo ...Xoo ..XXXo ...Xoo ..XXoo .X.Xo ..X ....Xoo ..XX",
"Xoo ..Xo ..Xoo ..XX .X..Xo ...X.Xo ...XoXo .XXXXo ...Xoo ...XXo ...Xoo ..XXXo XXXXo ..X ...XXoo ..XX",
"Xoo ..Xo ..Xoo ..XX X.X.Xo ..XX.Xo ..XXooo ..XXXo ..XXoo ...Xoo ...Xoo ..XXoo .XXXo ..X  .X.Xoo ..X.",
"Xoo ..Xo ..Xoo ...X .XX.Xo  ...XXo ..XXXoo ..X.Xo .XXXXo ...XXo ...XXo ..XXoo XXXXo ..Xo ..XXoo .XX.",
"Xoo ..Xo ..Xoo ..XX ..XXXoo ..XXXo .X.XXoo ..XXXo ..XXoo ...Xoo .XXXXo .XXXoo .XXoo .XXo ..XXoo ..X.",
"Xoo ..Xo ..Xoo ...X ..X.Xoo ..XXXo .XXXooo ..X.Xo ..XXXo ..XXoo ..XXoo .XXXoo .XXo  .XXo .XXXoo ....",
"Xoo ..Xo ..Xoo ...X ..X.Xoo ....Xo ...XXoo ....Xo ..XXoo ..XXoo ...Xo  .XXXo  ..Xo .XXXo ..XXoo ....",
"Xo  ..Xo ..Xoo ..XX ....Xoo ....Xo ...Xooo .XXXXo ..XXoo ..XXoo ...Xo ...XXo ..XXo .XXoo ..XXoo ...X",
"Xo ...Xo ..Xoo ...X ..X.XXo ....Xo ...XXoo .X.XXo ...XXo .XXXoo ...Xo ..XXoo ..XXo ..Xoo ...Xoo ...X"
};
