#define pagoda_width 512
#define pagoda_height 384
static char pagoda_bits[] = {
  0xFF, 0xFF, 0xFF, 0xFF, 0xFF, 0xFF, 0xFF, 0xFF, 0xFF, 0xFF, 0xFF, 0xFF, 
  0xFF, 0xFF, 0xFF, 0xFF, 0xFF, 0xFF, 0xFF, 0xFF, 0xFF, 0xFF, 0xFF, 0xFF, 
  0xFF, 0xFF, 0xFF, 0xFF, 0xFF, 0xFF, 0xFF, 0xFF, 0xFF, 0xFF, 0xFF, 0xFF, 
  0x9F, 0x99, 0x99, 0xFF, 0xFF, 0xFF, 0xFF, 0xFF, 0xFF, 0xFF, 0xFF, 0xFF, 
  0xFF, 0xFF, 0xFF, 0xFF, 0xFF, 0xFF, 0xFF, 0xFF, 0xFF, 0xFF, 0xFF, 0xFF, 
  0xFF, 0xFF, 0xFF, 0xFF, 0xFF, 0xFF, 0xFF, 0xFF, 0xFF, 0xFF, 0xFF, 0xFF, 
  0xFF, 0xFF, 0xFF, 0xFF, 0xFF, 0xFF, 0xFF, 0xFF, 0xFF, 0xFF, 0xFF, 0xFF, 
  0xFF, 0xFF, 0xFF, 0xFF, 0xFF, 0xFF, 0xFF, 0xFF, 0xFF, 0xFF, 0xFF, 0xFF, 
  0xFF, 0xFF, 0xFF, 0xFF, 0xCF, 0xCC, 0xCC, 0xFF, 0xFF, 0xFF, 0xFF, 0xFF, 
  0xFF, 0xFF, 0xFF, 0xFF, 0xFF, 0xFF, 0xFF, 0xFF, 0xFF, 0xFF, 0xFF, 0xFF, 
  0xFF, 0xFF, 0xFF, 0xFF, 0xFF, 0xFF, 0xFF, 0xFF, 0xFF, 0xFF, 0xFF, 0xFF, 
  0xFF, 0xFF, 0xFF, 0xFF, 0xFF, 0xFF, 0xFF, 0xFF, 0xFF, 0xFF, 0xFF, 0xFF, 
  0xFF, 0xFF, 0xFF, 0xFF, 0xFF, 0xFF, 0xFF, 0xFF, 0xFF, 0xFF, 0xFF, 0xFF, 
  0xFF, 0xFF, 0xFF, 0xFF, 0xFF, 0xFF, 0xFF, 0xFF, 0x9D, 0x55, 0x9D, 0xFF, 
  0xFF, 0xFF, 0xFF, 0xFF, 0xFF, 0xFF, 0xFF, 0xFF, 0xFF, 0xFF, 0xFF, 0xFF, 
  0xFF, 0xFF, 0xFF, 0xFF, 0xFF, 0xFF, 0xFF, 0xFF, 0xFF, 0xFF, 0xFF, 0xFF, 
  0xFF, 0xFF, 0xFF, 0xFF, 0xFF, 0xFF, 0xFF, 0xFF, 0xFF, 0xFF, 0xFF, 0xFF, 
  0xFF, 0xFF, 0xFF, 0xFF, 0xFF, 0xFF, 0xFF, 0xFF, 0xFF, 0xFF, 0xFF, 0xFF, 
  0xFF, 0xFF, 0xFF, 0xFF, 0xFF, 0xFF, 0xFF, 0xFF, 0xFF, 0xFF, 0xFF, 0xFF, 
  0xCC, 0x67, 0xCE, 0xF8, 0xFF, 0xFF, 0xFF, 0xFF, 0xFF, 0xFF, 0xFF, 0xFF, 
  0xFF, 0xFF, 0xFF, 0xFF, 0xFF, 0xFF, 0xFF, 0xFF, 0xFF, 0xFF, 0xFF, 0xFF, 
  0xFF, 0xFF, 0xFF, 0xFF, 0xFF, 0xFF, 0xFF, 0xFF, 0xFF, 0xFF, 0xFF, 0xFF, 
  0xFF, 0xFF, 0xFF, 0xFF, 0xFF, 0xFF, 0xFF, 0xFF, 0xFF, 0xFF, 0xFF, 0xFF, 
  0xFF, 0xFF, 0xFF, 0xFF, 0xFF, 0xFF, 0xFF, 0xFF, 0xFF, 0xFF, 0xFF, 0xFF, 
  0xFF, 0xFF, 0xFF, 0xFF, 0x59, 0x99, 0xD5, 0xFD, 0xFF, 0xFF, 0xFF, 0xFF, 
  0xFF, 0xFF, 0xFF, 0xFF, 0xFF, 0xFF, 0xFF, 0xFF, 0xFF, 0xFF, 0xFF, 0xFF, 
  0xFF, 0xFF, 0xFF, 0xFF, 0xFF, 0xFF, 0xFF, 0xFF, 0xFF, 0xFF, 0xFF, 0xFF, 
  0xFF, 0xFF, 0xFF, 0xFF, 0xFF, 0xFF, 0xFF, 0xFF, 0xFF, 0xFF, 0xFF, 0xFF, 
  0xFF, 0xFF, 0xFF, 0xFF, 0xFF, 0xFF, 0xFF, 0xFF, 0xFF, 0xFF, 0xFF, 0xFF, 
  0xFF, 0xFF, 0xFF, 0xFF, 0xFF, 0xFF, 0xFF, 0xFF, 0x3C, 0xCC, 0xE0, 0xF8, 
  0xFF, 0xFF, 0xFF, 0xFF, 0xFF, 0xFF, 0xFF, 0xFF, 0xFF, 0xFF, 0xFF, 0xFF, 
  0xFF, 0xFF, 0xFF, 0xFF, 0xFF, 0xFF, 0xFF, 0xFF, 0xFF, 0xFF, 0xFF, 0xFF, 
  0xFF, 0xFF, 0xFF, 0xFF, 0xFF, 0xFF, 0xFF, 0xFF, 0xFF, 0xFF, 0xFF, 0xFF, 
  0xFF, 0xFF, 0xFF, 0xFF, 0xFF, 0xFF, 0xFF, 0xFF, 0xFF, 0xFF, 0xFF, 0xFF, 
  0xFF, 0xFF, 0xFF, 0xFF, 0xFF, 0xFF, 0xFF, 0xFF, 0xFF, 0xFF, 0xFF, 0xFF, 
  0xB5, 0x5A, 0x5B, 0xFD, 0xFF, 0xFF, 0xFF, 0xFF, 0xFF, 0xFF, 0xFF, 0xFF, 
  0xFF, 0xFF, 0xFF, 0xFF, 0xFF, 0xFF, 0xFF, 0xFF, 0xFF, 0xFF, 0xFF, 0xFF, 
  0xFF, 0xFF, 0xFF, 0xFF, 0xFF, 0xFF, 0xFF, 0xFF, 0xFF, 0xFF, 0xFF, 0xFF, 
  0xFF, 0xFF, 0xFF, 0xFF, 0xFF, 0xFF, 0xFF, 0xFF, 0xFF, 0xFF, 0xFF, 0xFF, 
  0xFF, 0xFF, 0xFF, 0xFF, 0xFF, 0xFF, 0xFF, 0xFF, 0xFF, 0xFF, 0xFF, 0xFF, 
  0xFF, 0xFF, 0xFF, 0xFF, 0xC3, 0x27, 0x0E, 0xFF, 0xFF, 0xFF, 0xFF, 0xFF, 
  0xFF, 0xFF, 0xFF, 0xFF, 0xFF, 0xFF, 0xFF, 0xFF, 0xFF, 0xFF, 0xFF, 0xFF, 
  0xFF, 0xFF, 0xFF, 0xFF, 0xFF, 0xFF, 0xFF, 0xFF, 0xFF, 0xFF, 0xFF, 0xFF, 
  0xFF, 0xFF, 0xFF, 0xFF, 0xFF, 0xFF, 0xFF, 0xFF, 0xFF, 0xFF, 0xFF, 0xFF, 
  0xFF, 0xFF, 0xFF, 0xFF, 0xFF, 0xFF, 0xFF, 0xFF, 0xFF, 0xFF, 0xFF, 0xFF, 
  0xFF, 0xFF, 0xFF, 0xFF, 0xFF, 0xFF, 0xFF, 0xFF, 0xD7, 0xD9, 0xB5, 0xFE, 
  0xFF, 0xFF, 0xFF, 0xFF, 0xFF, 0xFF, 0xFF, 0xFF, 0xFF, 0xFF, 0xFF, 0xFF, 
  0xFF, 0xFF, 0xFF, 0xFF, 0xFF, 0xFF, 0xFF, 0xFF, 0xFF, 0xFF, 0xFF, 0xFF, 
  0xFF, 0xFF, 0xFF, 0xFF, 0xFF, 0xFF, 0xFF, 0xFF, 0xFF, 0xFF, 0xFF, 0xFF, 
  0xFF, 0xFF, 0xFF, 0xFF, 0xFF, 0xFF, 0xFF, 0xFF, 0xFF, 0xFF, 0xFF, 0xFF, 
  0xFF, 0xFF, 0xFF, 0xFF, 0xFF, 0xFF, 0xFF, 0xFF, 0xFF, 0xFF, 0xFF, 0xFF, 
  0xFF, 0x9C, 0xE0, 0xFF, 0xFF, 0xFF, 0xFF, 0xFF, 0xFF, 0xFF, 0xFF, 0xFF, 
  0xFF, 0xFF, 0xFF, 0xFF, 0xFF, 0xFF, 0xFF, 0xFF, 0xFF, 0xFF, 0xFF, 0xFF, 
  0xFF, 0xFF, 0xFF, 0xFF, 0xFF, 0xFF, 0xFF, 0xFF, 0xFF, 0xFF, 0xFF, 0xFF, 
  0xFF, 0xFF, 0xFF, 0xFF, 0xFF, 0xFF, 0xFF, 0xFF, 0xFF, 0xFF, 0xFF, 0xFF, 
  0xFF, 0xFF, 0xFF, 0xFF, 0xFF, 0xFF, 0xFF, 0xFF, 0xFF, 0xFF, 0xFF, 0xFF, 
  0xFF, 0xFF, 0xFF, 0xFF, 0x77, 0xED, 0xFB, 0x77, 0xF7, 0xFF, 0xFF, 0xFF, 
  0xFF, 0xFF, 0xFF, 0xFF, 0xFF, 0xFF, 0xFF, 0xFF, 0xFF, 0xFF, 0xFF, 0xFF, 
  0xFF, 0xFF, 0xFF, 0xFF, 0xFF, 0xFF, 0xFF, 0xFF, 0xFF, 0xFF, 0xFF, 0xFF, 
  0xFF, 0xFF, 0xFF, 0xFF, 0xFF, 0xFF, 0xFF, 0xFF, 0xFF, 0xFF, 0xFF, 0xFF, 
  0xFF, 0xFF, 0xFF, 0xFF, 0xFF, 0xFF, 0xFF, 0xFF, 0xFF, 0xFF, 0xFF, 0xFF, 
  0xFF, 0xFF, 0xFF, 0xFF, 0xFF, 0xFF, 0xFF, 0xFF, 0x33, 0xFE, 0xFF, 0x33, 
  0xF3, 0xFF, 0xFF, 0xFF, 0xFF, 0xFF, 0xFF, 0xFF, 0xFF, 0xFF, 0xFF, 0xFF, 
  0xFF, 0xFF, 0xFF, 0xFF, 0xFF, 0xFF, 0xFF, 0xFF, 0xFF, 0xFF, 0xFF, 0xFF, 
  0xFF, 0xFF, 0xFF, 0xFF, 0xFF, 0xFF, 0xFF, 0xFF, 0xFF, 0xFF, 0xFF, 0xFF, 
  0xFF, 0xFF, 0xFF, 0xFF, 0xFF, 0xFF, 0xFF, 0xFF, 0xFF, 0xFF, 0xFF, 0xFF, 
  0xFF, 0xFF, 0xFF, 0xFF, 0xFF, 0xFF, 0xFF, 0xFF, 0xFF, 0xFF, 0xFF, 0xFF, 
  0x67, 0xF7, 0x7F, 0x67, 0x66, 0xFF, 0x7F, 0xF7, 0xFF, 0xFF, 0xFF, 0xFF, 
  0xFF, 0xFF, 0xFF, 0xFF, 0xFF, 0xFF, 0xFF, 0xFF, 0xFF, 0xFF, 0xFF, 0xFF, 
  0xFF, 0xFF, 0xFF, 0xFF, 0xFF, 0xFF, 0xFF, 0xFF, 0xFF, 0xFF, 0xFF, 0xFF, 
  0xFF, 0xFF, 0xFF, 0xFF, 0xFF, 0xFF, 0xFF, 0xFF, 0xFF, 0xFF, 0xFF, 0xFF, 
  0xFF, 0xFF, 0xFF, 0xFF, 0xFF, 0xFF, 0xFF, 0xFF, 0xFF, 0xFF, 0xFF, 0xFF, 
  0xFF, 0xFF, 0xFF, 0x3F, 0x72, 0xF2, 0x3F, 0x33, 0x33, 0xFF, 0x3F, 0xF3, 
  0xFF, 0xFF, 0xFF, 0xFF, 0xFF, 0xFF, 0xFF, 0xFF, 0xFF, 0xFF, 0xFF, 0xFF, 
  0xFF, 0xFF, 0xFF, 0xFF, 0xFF, 0xFF, 0xFF, 0xFF, 0xFF, 0xFF, 0xFF, 0xFF, 
  0xFF, 0xFF, 0xFF, 0xFF, 0xFF, 0xFF, 0xFF, 0xFF, 0xFF, 0xFF, 0xD5, 0xFF, 
  0xFF, 0xFF, 0xFF, 0xFF, 0xFF, 0xFF, 0xFF, 0xFF, 0xFF, 0xFF, 0xFF, 0xFF, 
  0xFF, 0xFF, 0xFF, 0xFF, 0xFF, 0xFF, 0xFF, 0x7F, 0x27, 0x67, 0x7F, 0x66, 
  0x66, 0xFE, 0x77, 0x66, 0xFF, 0xFF, 0xFF, 0xFF, 0xFF, 0xFF, 0xFF, 0xFF, 
  0xFF, 0xFF, 0xFF, 0xFF, 0xFF, 0xFF, 0xFF, 0xFF, 0xFF, 0xFF, 0xFF, 0xFF, 
  0xFF, 0xFF, 0xFF, 0xFF, 0xFF, 0xFF, 0xFF, 0xFF, 0xFF, 0xFF, 0xFF, 0xFF, 
  0xFF, 0xFF, 0xC1, 0xFF, 0xFF, 0xFF, 0xFF, 0xFF, 0xFF, 0xFF, 0xFF, 0xFF, 
  0xFF, 0xFF, 0xFF, 0xFF, 0xFF, 0xFF, 0xFF, 0xFF, 0xFF, 0xFF, 0xFF, 0x23, 
  0x72, 0x33, 0x3F, 0x33, 0x33, 0xFF, 0x33, 0x33, 0xFF, 0xFF, 0xFF, 0xFF, 
  0xFF, 0xFF, 0xFF, 0xFF, 0xFF, 0xFF, 0xFF, 0xFF, 0xFF, 0xFF, 0xFF, 0xFF, 
  0xFF, 0xFF, 0xFF, 0xFF, 0xFF, 0xFF, 0xFF, 0xFF, 0xFF, 0xFF, 0xFF, 0xFF, 
  0xFF, 0xFF, 0xFF, 0xFF, 0xFF, 0x7F, 0xA2, 0xFF, 0xD5, 0xFF, 0xFF, 0xFF, 
  0xFF, 0xFF, 0xFF, 0xFF, 0xFF, 0xFF, 0xFF, 0xFF, 0xFF, 0xFF, 0xFF, 0xFF, 
  0xFF, 0xFF, 0xFF, 0x77, 0xA7, 0x66, 0x7E, 0x6E, 0x75, 0x7E, 0x67, 0x66, 
  0xFE, 0xFF, 0xFF, 0xFF, 0xFF, 0xFF, 0xFF, 0xFF, 0xFF, 0xFF, 0xFF, 0xFF, 
  0xFF, 0xFF, 0xFF, 0xFF, 0xFF, 0xFF, 0xFF, 0xFF, 0xFF, 0xFF, 0xFF, 0xFF, 
  0xFF, 0xFF, 0xFF, 0xFF, 0xFF, 0xFF, 0xFF, 0xFF, 0xFF, 0x3F, 0x67, 0xFE, 
  0xC1, 0xFF, 0xFF, 0xFF, 0xFF, 0xFF, 0xFF, 0xFF, 0xFF, 0xFF, 0xFF, 0xFF, 
  0xFF, 0xFF, 0xFF, 0xFF, 0xFF, 0xFF, 0xFF, 0x27, 0xDE, 0x33, 0x23, 0x9F, 
  0x3C, 0x23, 0x33, 0x33, 0xE3, 0xFF, 0xFF, 0xFF, 0xFF, 0xFF, 0xFF, 0xFF, 
  0xFF, 0xFF, 0xFF, 0xFF, 0xFF, 0xFF, 0xFF, 0xFF, 0xFF, 0xFF, 0xFF, 0xFF, 
  0xFF, 0xFF, 0xFF, 0xFF, 0xFF, 0xFF, 0xFF, 0xFF, 0xFF, 0xFF, 0xFF, 0xFF, 
  0xFF, 0x7A, 0x32, 0x7F, 0xA2, 0xFF, 0xEF, 0xFF, 0xFF, 0xFF, 0xFF, 0xFF, 
  0xFF, 0xFF, 0xFF, 0xFF, 0xFF, 0xFF, 0xFF, 0xFF, 0xFF, 0xFF, 0xFF, 0xF3, 
  0x8A, 0x75, 0x76, 0x65, 0xB5, 0x77, 0xE6, 0x76, 0xF6, 0xFF, 0xFF, 0xFF, 
  0xFF, 0xFF, 0xFF, 0xFF, 0xFF, 0xFF, 0xFF, 0xFF, 0xFF, 0xFF, 0xFF, 0xFF, 
  0xFF, 0xFF, 0xFF, 0xFF, 0xFF, 0xFF, 0xFF, 0xFF, 0xFF, 0xFF, 0xFF, 0xFF, 
  0xFF, 0xFF, 0xFF, 0xFF, 0x3F, 0x20, 0x67, 0x3E, 0x77, 0xFE, 0x83, 0xFF, 
  0xFF, 0xFF, 0xFF, 0xFF, 0xFF, 0xFF, 0xFF, 0xFF, 0xFF, 0xFF, 0xFF, 0xFF, 
  0xFF, 0xFF, 0xFF, 0xE7, 0x71, 0x3C, 0xE7, 0x30, 0xC3, 0x23, 0xF3, 0x39, 
  0xE7, 0xFF, 0xFF, 0xFF, 0xFF, 0xFF, 0xFF, 0xFF, 0xFF, 0xFF, 0xFF, 0xFF, 
  0xFF, 0xFF, 0xFF, 0xFF, 0xFF, 0xFF, 0xFF, 0xFF, 0xFF, 0xFF, 0xFF, 0xFF, 
  0xFF, 0xFF, 0xFF, 0xFF, 0xFF, 0xFF, 0xFF, 0xFF, 0x7F, 0x74, 0x73, 0x7F, 
  0x22, 0xFF, 0x97, 0xFF, 0xFF, 0xFF, 0xFF, 0xFF, 0xFF, 0xFF, 0xFF, 0xFF, 
  0xFF, 0xFF, 0xFF, 0xFF, 0xFF, 0xFF, 0xFF, 0x5F, 0x22, 0x69, 0xDB, 0x6A, 
  0x96, 0x76, 0xAE, 0xB6, 0xF2, 0xFF, 0xFF, 0xFF, 0xFF, 0xFF, 0xFF, 0xFF, 
  0xFF, 0xFF, 0xFF, 0xFF, 0xFF, 0xFF, 0xFF, 0xFF, 0xFF, 0xFF, 0xFF, 0xFF, 
  0xFF, 0xFF, 0xFF, 0xFF, 0xFF, 0xFF, 0xFF, 0xFF, 0xFF, 0xFF, 0xFF, 0xFF, 
  0x9F, 0xF9, 0xE7, 0x23, 0x77, 0xFE, 0x09, 0xFE, 0xFF, 0xFF, 0xFF, 0xFF, 
  0xFF, 0xFF, 0xFF, 0xFF, 0xFF, 0xFF, 0xFF, 0xFF, 0xFF, 0xFF, 0xFF, 0x0F, 
  0xDF, 0x87, 0x0F, 0x9F, 0x79, 0x38, 0x1F, 0xC3, 0xE7, 0xFF, 0xFF, 0xFF, 
  0xFF, 0xFF, 0xFF, 0xFF, 0xFF, 0xFF, 0xFF, 0xFF, 0xFF, 0xFF, 0xFF, 0xFF, 
  0xFF, 0xFF, 0xFF, 0xFF, 0xFF, 0xFF, 0xFF, 0xFF, 0xFF, 0xFF, 0xFF, 0xFF, 
  0xFF, 0xFF, 0xFF, 0xFF, 0x5F, 0xBF, 0xFA, 0x7F, 0xE3, 0x7F, 0x56, 0xFF, 
  0xFE, 0xFF, 0xFF, 0xFF, 0xFF, 0xFF, 0xFF, 0xFF, 0xFF, 0xFF, 0xFF, 0xFF, 
  0xFF, 0xFF, 0x7F, 0x5F, 0x4A, 0xD5, 0x5F, 0x52, 0x95, 0x7E, 0x25, 0xA6, 
  0xFA, 0xFF, 0xFF, 0xFF, 0xFF, 0xFF, 0xFF, 0xFF, 0xFF, 0xFF, 0xFF, 0xFF, 
  0xFF, 0xFF, 0xFF, 0xFF, 0xFF, 0xFF, 0xFF, 0xFF, 0xFF, 0xFF, 0xFF, 0xFF, 
  0xFF, 0xFF, 0xFF, 0xFF, 0xFF, 0xFF, 0xFF, 0xFF, 0x7F, 0x0E, 0xFC, 0xFF, 
  0xF7, 0x3F, 0x33, 0x3E, 0xF8, 0xFF, 0xFF, 0xFF, 0xFF, 0xFF, 0xFF, 0xFF, 
  0xFF, 0xFF, 0xFF, 0xFF, 0xFF, 0x7F, 0x62, 0xFE, 0x31, 0xF8, 0xFF, 0x61, 
  0xC6, 0xFF, 0xF0, 0x39, 0xFC, 0xFF, 0xFF, 0xFF, 0xFF, 0xFF, 0xFF, 0xFF, 
  0xFF, 0xFF, 0xFF, 0xFF, 0xFF, 0xFF, 0xFF, 0xFF, 0xFF, 0xFF, 0xFF, 0xFF, 
  0xFF, 0xFF, 0xFF, 0xFF, 0xFF, 0xFF, 0xFF, 0xFF, 0xFF, 0xFF, 0xFF, 0xFF, 
  0xBF, 0x17, 0xF4, 0xFD, 0xE9, 0xFF, 0x66, 0x3F, 0xF6, 0xFF, 0xFF, 0xFF, 
  0xFF, 0xFF, 0xFF, 0xFF, 0xFF, 0xFF, 0xFF, 0xFF, 0xFF, 0x3F, 0x37, 0xF7, 
  0xF5, 0xD6, 0xFF, 0xB5, 0xAB, 0xFF, 0x73, 0x6D, 0xFD, 0xFF, 0xFF, 0xFF, 
  0xFF, 0xFF, 0xFF, 0xFF, 0xFF, 0xFF, 0xFF, 0xFF, 0xFF, 0xFF, 0xFF, 0xFF, 
  0xFF, 0xFF, 0xFF, 0xFF, 0xFF, 0xFF, 0xFF, 0xFF, 0xFF, 0xFF, 0xFF, 0xFF, 
  0xFF, 0xFF, 0xFF, 0xFF, 0xFF, 0x67, 0xE3, 0xF9, 0xFC, 0xFF, 0x33, 0x0E, 
  0xF3, 0xFF, 0xFF, 0xFF, 0xFF, 0xFF, 0xFF, 0xFF, 0xFF, 0xFF, 0xFF, 0xFF, 
  0xFF, 0x63, 0x62, 0xE6, 0xFF, 0x83, 0xFF, 0xE3, 0xFF, 0xFF, 0x7F, 0x82, 
  0xFF, 0xFF, 0xFF, 0xFF, 0xFF, 0xFF, 0xFF, 0xFF, 0xFF, 0xFF, 0xFF, 0xFF, 
  0xFF, 0xFF, 0xFF, 0xFF, 0xFF, 0xFF, 0xFF, 0xFF, 0xFF, 0xFF, 0xFF, 0xFF, 
  0xFF, 0xFF, 0xFF, 0xFF, 0xFF, 0xFF, 0xFF, 0xFF, 0xFF, 0x33, 0x77, 0xF4, 
  0xF9, 0x7F, 0x77, 0x9F, 0xEA, 0xFF, 0xFF, 0xFF, 0xFF, 0xFF, 0xFF, 0xFF, 
  0xFF, 0xFF, 0xFF, 0xFF, 0xFF, 0x37, 0x27, 0xF3, 0xFF, 0x6F, 0xFF, 0xF5, 
  0xFF, 0xFF, 0x9D, 0xD7, 0xFF, 0xFF, 0xFF, 0xFF, 0xFF, 0xFF, 0xFF, 0xFF, 
  0xFF, 0xFF, 0xFF, 0xFF, 0xFF, 0xFF, 0xFF, 0xFF, 0xFF, 0xFF, 0xFF, 0xFF, 
  0xFF, 0xFF, 0xFF, 0xFF, 0xFF, 0xFF, 0xFF, 0xFF, 0xFF, 0xFF, 0xFF, 0xFF, 
  0xFF, 0x67, 0x22, 0xE0, 0xE7, 0x3F, 0x8F, 0xCF, 0x9C, 0xFF, 0xFF, 0xFF, 
  0xFF, 0xFF, 0xFF, 0xFF, 0xFF, 0xFF, 0xFF, 0xFF, 0xFF, 0x63, 0x72, 0xE6, 
  0xFF, 0x7F, 0xFE, 0xFC, 0xFF, 0x8F, 0xCC, 0xFF, 0xFF, 0xFF, 0xFF, 0xFF, 
  0xFF, 0xFF, 0xFF, 0xFF, 0xFF, 0xFF, 0xFF, 0xFF, 0xFF, 0xFF, 0xFF, 0xFF, 
  0xFF, 0xFF, 0xFF, 0xFF, 0xFF, 0xFF, 0xFF, 0xFF, 0xFF, 0xFF, 0xFF, 0xFF, 
  0xBF, 0xFF, 0xDB, 0xFF, 0xFF, 0x37, 0xDF, 0xD8, 0xD7, 0xB7, 0x8E, 0x9F, 
  0xD1, 0xFF, 0xFF, 0xFF, 0xFF, 0xFF, 0xFF, 0xFF, 0xFF, 0xFF, 0xFF, 0xFF, 
  0xFF, 0xE7, 0xA6, 0x73, 0xFD, 0xBF, 0x5D, 0xFD, 0xFF, 0xDD, 0x99, 0xFD, 
  0xFF, 0xFF, 0xFF, 0xFF, 0xFF, 0xFF, 0xFF, 0xFF, 0xFF, 0xFF, 0xFF, 0xFF, 
  0xFF, 0xFF, 0xFF, 0xFF, 0xFF, 0xFF, 0xFF, 0xFF, 0xFF, 0xFF, 0xFF, 0xFF, 
  0xFF, 0xFF, 0xFF, 0xFF, 0x0F, 0xFE, 0xC0, 0xFF, 0xFF, 0x7F, 0x8E, 0x8C, 
  0x9F, 0xC3, 0x03, 0x7E, 0xE6, 0xFF, 0xFF, 0xFF, 0xFF, 0xFF, 0xFF, 0xFF, 
  0xFF, 0xFF, 0xFF, 0xFF, 0x7F, 0xF2, 0xD9, 0x27, 0xF8, 0xFF, 0x0C, 0xFF, 
  0xFF, 0x8C, 0xCC, 0xFC, 0xFF, 0xFF, 0xFF, 0xFF, 0xFF, 0xFF, 0xFF, 0xFF, 
  0xFF, 0xFF, 0xFF, 0xFF, 0xFF, 0xFF, 0xFF, 0xFF, 0xFF, 0xFF, 0xFF, 0xFF, 
  0xFF, 0xFF, 0xFF, 0xFF, 0xFF, 0xFF, 0xFF, 0xEF, 0x8F, 0xFD, 0xA1, 0xFF, 
  0xFF, 0xFF, 0xDF, 0xD9, 0xCF, 0xCD, 0x47, 0x3D, 0xF3, 0xFF, 0xFF, 0xFF, 
  0xFF, 0xFF, 0xFF, 0xFF, 0xFF, 0xFF, 0xFF, 0xFF, 0x3F, 0x97, 0x8A, 0x74, 
  0xD6, 0xFF, 0x99, 0xFE, 0xFF, 0xD9, 0x98, 0xF9, 0xFF, 0xFF, 0xFF, 0xFF, 
  0xFF, 0xFF, 0xFF, 0xFF, 0xFF, 0xFF, 0xFF, 0xFF, 0xFF, 0xFF, 0xFF, 0xFF, 
  0xFF, 0xFF, 0xFF, 0xFF, 0xFF, 0xFF, 0xFF, 0xFF, 0xFF, 0xFF, 0xFF, 0x87, 
  0xC3, 0x7C, 0x66, 0xFE, 0xFF, 0xFF, 0x8F, 0x8C, 0x9F, 0xF9, 0x98, 0x79, 
  0xE6, 0xFF, 0xFF, 0xFF, 0xFF, 0xFF, 0xFF, 0xFF, 0xFF, 0xFF, 0xFF, 0xFF, 
  0x7F, 0x0E, 0x73, 0x38, 0x83, 0xFF, 0xCC, 0xFF, 0xFF, 0x8C, 0xCD, 0xFC, 
  0xFF, 0xFF, 0xFF, 0xFF, 0xFF, 0xFF, 0xFF, 0xFF, 0xFF, 0xFF, 0xFF, 0xFF, 
  0xFF, 0xFF, 0xFF, 0xFF, 0xFF, 0xFF, 0xFF, 0xFF, 0xFF, 0xFF, 0xFF, 0xFF, 
  0xFF, 0xFF, 0xFF, 0xC9, 0xA7, 0x3A, 0x33, 0xFF, 0xFE, 0xFF, 0xFF, 0xF9, 
  0x4F, 0xFE, 0xCD, 0x7C, 0xFF, 0xFF, 0xFF, 0xFF, 0xFF, 0xFF, 0xFF, 0xFF, 
  0xFF, 0xFF, 0xFF, 0xFF, 0x7F, 0x2D, 0xA5, 0x6E, 0xB7, 0xFF, 0x95, 0xFF, 
  0xDF, 0xB9, 0xDA, 0xD9, 0xFF, 0xFF, 0xFF, 0xFF, 0xFF, 0xFF, 0xFF, 0xFF, 
  0xFF, 0xFF, 0xFF, 0xFF, 0xFF, 0xFF, 0xFF, 0xFF, 0xFF, 0xFF, 0xFF, 0xFF, 
  0xFF, 0xFF, 0xFF, 0xFF, 0xFF, 0xFF, 0xFF, 0x9C, 0x33, 0x67, 0x66, 0x3E, 
  0xF8, 0xFF, 0xFF, 0xFC, 0x1F, 0xFF, 0x98, 0xF9, 0xFF, 0xFF, 0xFF, 0xFF, 
  0xFF, 0xFF, 0xFF, 0xFF, 0xFF, 0xFF, 0xFF, 0xFF, 0xFF, 0xF1, 0xD8, 0x83, 
  0x7F, 0xFE, 0xC3, 0xFF, 0xCF, 0x7C, 0xE6, 0x9C, 0xFF, 0xFF, 0xFF, 0xFF, 
  0xFF, 0xFF, 0xFF, 0xFF, 0xFF, 0xFF, 0xFF, 0xFF, 0xFF, 0xFF, 0xFF, 0xFF, 
  0xFF, 0xFF, 0xFF, 0xFF, 0xFF, 0xFF, 0xFF, 0xFF, 0xFF, 0xFF, 0xFF, 0x69, 
  0x67, 0xBA, 0xB3, 0x7F, 0xF8, 0xFF, 0xFF, 0xFD, 0x8F, 0xFE, 0xCF, 0xD5, 
  0xFF, 0xFF, 0xFF, 0xFF, 0xFF, 0xFF, 0xFF, 0xFF, 0xFF, 0xFF, 0xFF, 0xFF, 
  0xFF, 0xD2, 0xA5, 0xD6, 0xBF, 0xFE, 0x87, 0xFF, 0x9F, 0x95, 0xA9, 0xCA, 
  0xFF, 0xFF, 0xFF, 0xFF, 0xFF, 0xFF, 0xFF, 0xFF, 0xFF, 0xFF, 0xFF, 0xFF, 
  0xFF, 0xFF, 0xFF, 0xFF, 0xFF, 0xFF, 0xFF, 0xFF, 0xFF, 0xFF, 0xFF, 0xFF, 
  0xFF, 0xFF, 0x3F, 0x36, 0x33, 0xFF, 0xE7, 0x8F, 0xE1, 0xFF, 0xFF, 0xFF, 
  0xDF, 0xFF, 0x9F, 0x87, 0xFF, 0xFF, 0xFF, 0xFF, 0xFF, 0xFF, 0xFF, 0xFF, 
  0xFF, 0xFF, 0xFF, 0xFF, 0xFF, 0x0F, 0x32, 0xF8, 0xFF, 0xF9, 0xC3, 0xFF, 
  0xCF, 0xC3, 0x18, 0x9F, 0xFF, 0xFF, 0xFF, 0xFF, 0xFF, 0xFF, 0xFF, 0xFF, 
  0xFF, 0xFF, 0xFF, 0xFF, 0xFF, 0xFF, 0xFF, 0xFF, 0xFF, 0xFF, 0xFF, 0xFF, 
  0xFF, 0xFF, 0xFF, 0xFF, 0xFF, 0xFF, 0xFF, 0x63, 0x76, 0xEA, 0x57, 0xAF, 
  0xF2, 0xF7, 0xFF, 0xFF, 0x8B, 0xFA, 0xDF, 0x63, 0xFF, 0xFF, 0xFF, 0xFF, 
  0xFF, 0xFF, 0xFF, 0xFF, 0xFF, 0xFF, 0xFF, 0xFF, 0xFF, 0xBF, 0x6F, 0xFD, 
  0xFF, 0xFA, 0xC7, 0xFF, 0x5F, 0xAB, 0x25, 0xF5, 0xFF, 0xFF, 0xFF, 0xFF, 
  0xFF, 0xFF, 0xFF, 0xFF, 0xFF, 0xFF, 0xFF, 0xFF, 0xFF, 0xFF, 0xFF, 0xFF, 
  0xFF, 0xFF, 0xFF, 0xFF, 0xFF, 0xFF, 0xFF, 0xFF, 0xFF, 0xFF, 0xFF, 0x33, 
  0xFF, 0x81, 0x1F, 0x72, 0xE7, 0xE7, 0xFF, 0xFF, 0x77, 0xE0, 0xFF, 0x37, 
  0xFE, 0xFF, 0xFF, 0xFF, 0xFF, 0xFF, 0xFF, 0xFF, 0xFF, 0xFF, 0xFF, 0xFF, 
  0xFF, 0xFF, 0xFF, 0xFF, 0xFF, 0xE7, 0xF3, 0xFF, 0x3F, 0x7C, 0xF2, 0xE0, 
  0xFF, 0xFF, 0xFF, 0xFF, 0xFF, 0xFF, 0xFF, 0xFF, 0xFF, 0xFF, 0xFF, 0xFF, 
  0xFF, 0xFF, 0xFF, 0xFF, 0xFF, 0xFF, 0xFF, 0xFF, 0xFF, 0xFF, 0xFF, 0xFF, 
  0xFF, 0xFF, 0xFF, 0x77, 0x7F, 0xA2, 0x26, 0x35, 0x72, 0xE2, 0x57, 0xFF, 
  0x72, 0x55, 0xF7, 0x69, 0x7D, 0xFF, 0xFF, 0xFF, 0xFF, 0xFF, 0xFF, 0xFF, 
  0xFF, 0xFF, 0xFF, 0xFF, 0x77, 0xFF, 0xFF, 0xFF, 0x57, 0xE1, 0xE5, 0xFF, 
  0xFF, 0x94, 0xD7, 0xFA, 0xFF, 0xFF, 0xFF, 0xFF, 0xFF, 0xFF, 0xFF, 0xFF, 
  0xFF, 0xFF, 0xFF, 0xFF, 0xFF, 0xFF, 0xFF, 0xFF, 0xFF, 0xFF, 0xFF, 0xFF, 
  0xFF, 0xFF, 0xFF, 0xFF, 0xFF, 0xFF, 0xFF, 0xFF, 0x3F, 0x67, 0x73, 0x38, 
  0x27, 0x80, 0x03, 0xFE, 0xFD, 0x1F, 0xE2, 0x9C, 0x39, 0xFF, 0xFF, 0xFF, 
  0xFF, 0xFF, 0xFF, 0xFF, 0xFF, 0xFF, 0xFF, 0x7F, 0x32, 0xFF, 0xFF, 0xFF, 
  0x03, 0x80, 0xF0, 0xFF, 0xFF, 0xC3, 0x08, 0xFF, 0xFF, 0xFF, 0xFF, 0xFF, 
  0xFF, 0xFF, 0xFF, 0xFF, 0xFF, 0xFF, 0xFF, 0xFF, 0xFF, 0xFF, 0xFF, 0xFF, 
  0xFF, 0xFF, 0xFF, 0xFF, 0xFF, 0xFF, 0xFF, 0xFF, 0xFF, 0xFF, 0xFF, 0xFF, 
  0x7F, 0x32, 0x26, 0x76, 0xD7, 0xC8, 0x85, 0xBD, 0xF8, 0xAF, 0xA5, 0xA9, 
  0x5E, 0xFE, 0xFF, 0xFF, 0xFF, 0xFF, 0xFF, 0xFF, 0xFF, 0xFF, 0xFF, 0x3F, 
  0x67, 0xF6, 0xFF, 0x7F, 0xA5, 0x8A, 0xF0, 0xFF, 0xFF, 0x97, 0x5E, 0x7F, 
  0xF7, 0xFF, 0xFF, 0xFF, 0xFF, 0xFF, 0xFF, 0xFF, 0xFF, 0xFF, 0xFF, 0xFF, 
  0xFF, 0xFF, 0xFF, 0xFF, 0xFF, 0xFF, 0xFF, 0xFF, 0xFF, 0xFF, 0xFF, 0xFF, 
  0xFF, 0xFF, 0xFF, 0xFF, 0x3F, 0x27, 0x73, 0xE3, 0x9F, 0x99, 0xD8, 0x78, 
  0xFC, 0xFF, 0x00, 0x66, 0x0F, 0xF8, 0xFF, 0xFF, 0xFF, 0xFF, 0xFF, 0xFF, 
  0xFF, 0xFF, 0xFF, 0x63, 0x32, 0xE7, 0xFF, 0x3F, 0xE0, 0x1F, 0xFC, 0xFF, 
  0xFF, 0x7F, 0xFF, 0x3F, 0xE6, 0xFF, 0xFF, 0xFF, 0xFF, 0xFF, 0xFF, 0xFF, 
  0xFF, 0xFF, 0xFF, 0xFF, 0xFF, 0xFF, 0xFF, 0xFF, 0xFF, 0xFF, 0xFF, 0xFF, 
  0xFF, 0xFF, 0xFF, 0xFF, 0xFF, 0xFF, 0xFF, 0xD7, 0x7F, 0x73, 0x37, 0xF6, 
  0xCD, 0xCC, 0x8D, 0x2D, 0xF8, 0xFF, 0x22, 0xBB, 0x36, 0xFA, 0xFF, 0xFF, 
  0xFF, 0xFF, 0xFF, 0xFF, 0xFF, 0xFF, 0xFF, 0x37, 0x67, 0xF2, 0xFF, 0x3F, 
  0xFA, 0x5F, 0xE8, 0xFF, 0xFF, 0x3F, 0xFE, 0x77, 0x73, 0xFF, 0xFF, 0xFF, 
  0xFF, 0xFF, 0xFF, 0xFF, 0xFF, 0xFF, 0xFF, 0xFF, 0xFF, 0xFF, 0xFF, 0xFF, 
  0xFF, 0xFF, 0xFF, 0xFF, 0xFF, 0xFF, 0xFF, 0xFF, 0xFF, 0xFF, 0xFF, 0x87, 
  0xFF, 0xE7, 0x7F, 0xE7, 0x98, 0x99, 0xD8, 0x18, 0xE6, 0x3F, 0x73, 0xFE, 
  0x67, 0xE6, 0xFF, 0xFF, 0xFF, 0xFF, 0xFF, 0xFF, 0xFF, 0xFF, 0xFF, 0x63, 
  0x32, 0xE7, 0xFF, 0x0F, 0xFF, 0xFF, 0xF1, 0xFF, 0xFF, 0x7F, 0xFF, 0x33, 
  0x26, 0xFF, 0x7F, 0xE2, 0xFF, 0xFF, 0xFF, 0xFF, 0xFF, 0xFF, 0xFF, 0xFF, 
  0xFF, 0xFF, 0xFF, 0xFF, 0xFF, 0xFF, 0xFF, 0xFF, 0xFF, 0xFF, 0xFF, 0xFF, 
  0xFF, 0xBF, 0xFD, 0x61, 0x5F, 0xF9, 0xBF, 0xF6, 0xDF, 0xDC, 0x8F, 0x8F, 
  0xA9, 0x7F, 0x26, 0xDF, 0x33, 0xF3, 0xFF, 0xFF, 0xFF, 0xFF, 0xFF, 0xFF, 
  0xFF, 0xFF, 0xFF, 0x67, 0xAB, 0x76, 0xFF, 0x8F, 0xFE, 0xFF, 0xE1, 0xFF, 
  0xFF, 0x9F, 0x7E, 0x67, 0x73, 0xFE, 0x3F, 0x77, 0xFF, 0xFF, 0xFF, 0xFF, 
  0xFF, 0xFF, 0xFF, 0xFF, 0xFF, 0xFF, 0xFF, 0xFF, 0xFF, 0xFF, 0xFF, 0xFF, 
  0xFF, 0xFF, 0xFF, 0xFF, 0xFF, 0x0F, 0xFC, 0x70, 0x0E, 0xFC, 0xFF, 0xFF, 
  0xFF, 0xF9, 0xDF, 0xCF, 0xDC, 0x3F, 0x73, 0x8E, 0x67, 0xE6, 0xFF, 0xFF, 
  0xFF, 0xFF, 0xFF, 0xFF, 0xFF, 0xFF, 0x7F, 0xF2, 0xCC, 0x63, 0xFE, 0xC3, 
  0xFF, 0xFF, 0x87, 0xFF, 0xFF, 0xCF, 0x7F, 0x32, 0x36, 0xE3, 0x63, 0x22, 
  0xFF, 0xFF, 0xFF, 0xFF, 0xFF, 0xFF, 0xFF, 0xFF, 0xFF, 0xFF, 0xFF, 0xFF, 
  0xFF, 0xFF, 0xFF, 0xFF, 0xFF, 0xFF, 0xFF, 0xFF, 0xFF, 0x8F, 0x78, 0x23, 
  0x37, 0xFA, 0xD5, 0x7F, 0xE9, 0xFD, 0xAF, 0xDA, 0xA9, 0x7F, 0x67, 0x4F, 
  0x37, 0xFB, 0xFF, 0xFF, 0xFF, 0xFF, 0xFF, 0xFF, 0xFF, 0xFF, 0x3F, 0xD7, 
  0x94, 0x36, 0xFF, 0xA3, 0xFF, 0xFF, 0x87, 0xFF, 0xFF, 0xD5, 0x3F, 0xE7, 
  0x68, 0x76, 0x27, 0x77, 0xFE, 0xFF, 0xFF, 0xFF, 0xFF, 0xFF, 0xFF, 0xFF, 
  0xFF, 0xFF, 0xFF, 0xFF, 0xFF, 0xFF, 0xFF, 0xFF, 0xFF, 0xFF, 0xFF, 0xFF, 
  0xFF, 0xC3, 0x60, 0x72, 0x26, 0xE3, 0xC0, 0x3F, 0xF0, 0xFF, 0x7F, 0xE0, 
  0xFC, 0xFF, 0xF3, 0x03, 0x7E, 0xFE, 0xFF, 0xFF, 0xFF, 0xFF, 0xFF, 0xFF, 
  0xFF, 0xFF, 0x7F, 0x0E, 0x63, 0x78, 0xFE, 0xF0, 0xFF, 0xFF, 0x1F, 0xFE, 
  0xFF, 0xE1, 0x7F, 0xF2, 0x3D, 0x23, 0x73, 0x23, 0xE3, 0xFF, 0xFF, 0xFF, 
  0xFF, 0xFF, 0xFF, 0xFF, 0xFF, 0xFF, 0xFF, 0xFF, 0xFF, 0xFF, 0xFF, 0xFF, 
  0xFF, 0xFF, 0xFF, 0xFF, 0xFF, 0xA7, 0x31, 0x67, 0x73, 0x76, 0x89, 0x7F, 
  0xE8, 0x57, 0x9F, 0xA8, 0xFD, 0xFF, 0xF7, 0x8B, 0x7D, 0xFF, 0xFF, 0xFF, 
  0xFF, 0xFF, 0xFF, 0xFF, 0xFF, 0xFF, 0x7F, 0x9B, 0x56, 0xAD, 0xF5, 0xF1, 
  0xFF, 0xFF, 0x5F, 0xFE, 0x57, 0xFA, 0x3F, 0x27, 0x55, 0x77, 0x66, 0x76, 
  0xF6, 0xFF, 0xFF, 0xFF, 0xFF, 0xFF, 0xFF, 0xFF, 0xFF, 0xFF, 0xFF, 0xFF, 
  0xFF, 0xFF, 0xFF, 0xFF, 0xFF, 0xFF, 0xFF, 0xFF, 0xFF, 0x67, 0x66, 0xF2, 
  0x27, 0x23, 0x0C, 0x8E, 0x99, 0x03, 0xCE, 0xD9, 0xFF, 0xFF, 0xFF, 0xDC, 
  0xF8, 0xFF, 0xFF, 0xFF, 0xFF, 0xFF, 0xFF, 0xFF, 0xFF, 0xFF, 0xFF, 0xE0, 
  0x99, 0xC3, 0xF0, 0xFC, 0xFF, 0xFF, 0x3F, 0xF8, 0x07, 0xFF, 0x7F, 0x1E, 
  0xC2, 0x23, 0xF3, 0x39, 0xE7, 0xFF, 0xFF, 0xFF, 0xFF, 0xFF, 0xFF, 0xFF, 
  0xFF, 0xFF, 0xFF, 0xFF, 0xFF, 0xFF, 0xFF, 0xFF, 0xFF, 0xFF, 0xFF, 0xFF, 
  0xFF, 0x33, 0xB3, 0xF7, 0x7F, 0x7E, 0x18, 0xDF, 0xCC, 0x8D, 0x9D, 0x8C, 
  0xFF, 0xFF, 0xFF, 0x89, 0xFD, 0xFF, 0xFF, 0xFF, 0xFF, 0xFF, 0xFF, 0xFF, 
  0xFF, 0xFF, 0xFF, 0x35, 0xB5, 0xD6, 0xA5, 0xF8, 0xFF, 0xFF, 0x7F, 0xFE, 
  0xA1, 0xFE, 0xFF, 0xAA, 0xAB, 0x76, 0xA6, 0x56, 0xF3, 0xFF, 0xFF, 0xFF, 
  0xFF, 0xFF, 0xFF, 0xFF, 0xFF, 0xFF, 0xFF, 0xFF, 0xFF, 0xFF, 0xFF, 0xFF, 
  0xFF, 0xFF, 0xFF, 0xFF, 0xFF, 0x67, 0xE6, 0xFF, 0x3F, 0x3F, 0x67, 0x8E, 
  0x99, 0xC9, 0x88, 0xC9, 0xFF, 0xFF, 0xFF, 0xD8, 0xF8, 0xFF, 0xFF, 0xFF, 
  0xFF, 0xFF, 0xFF, 0xFF, 0xFF, 0xFF, 0xFF, 0x0F, 0x66, 0xF8, 0x1F, 0xFC, 
  0xFF, 0xFF, 0x3F, 0xFE, 0xF0, 0xFF, 0xFF, 0xF1, 0x7C, 0x38, 0x1F, 0x83, 
  0xE7, 0xFF, 0xFF, 0xFF, 0xFF, 0xFF, 0xFF, 0xFF, 0xFF, 0xFF, 0xFF, 0xFF, 
  0xFF, 0xFF, 0xFF, 0xFF, 0xFF, 0xFF, 0xFF, 0xFF, 0xFF, 0x37, 0x77, 0x75, 
  0x69, 0x7F, 0x73, 0xFF, 0xEC, 0x9C, 0xFD, 0xDC, 0xFF, 0xFF, 0xFF, 0x8D, 
  0xFF, 0xFF, 0xFF, 0xFF, 0xFF, 0xFF, 0xFF, 0xFF, 0xFF, 0xFF, 0xFF, 0xBF, 
  0xBB, 0xFD, 0x5F, 0xFD, 0xFF, 0xFF, 0xFF, 0x52, 0x41, 0xFF, 0xFF, 0x62, 
  0x89, 0x7E, 0x4A, 0x76, 0xFA, 0xFF, 0xFF, 0xFF, 0xFF, 0xFF, 0xFF, 0xFF, 
  0xFF, 0xFF, 0xFF, 0xFF, 0xFF, 0xFF, 0xFF, 0xFF, 0xFF, 0xFF, 0xFF, 0xFF, 
  0xFF, 0x7F, 0x7E, 0x20, 0xF0, 0xFF, 0xE7, 0xFF, 0xF9, 0xCD, 0xF9, 0xF9, 
  0xFF, 0xFF, 0xFF, 0xDF, 0xFF, 0xFF, 0xFF, 0xFF, 0xFF, 0xFF, 0xFF, 0xFF, 
  0xFF, 0xFF, 0xFF, 0xFF, 0xFF, 0xFF, 0xFF, 0xFF, 0xFF, 0xFF, 0xFF, 0x01, 
  0x00, 0xF8, 0xFF, 0x1F, 0xC6, 0xFF, 0xF1, 0x39, 0xF8, 0xFF, 0xFF, 0xFF, 
  0xFF, 0xFF, 0xFF, 0xFF, 0xFF, 0xFF, 0xFF, 0xFF, 0xFF, 0xFF, 0xFF, 0xFF, 
  0xFF, 0xFF, 0xFF, 0xFF, 0xFF, 0x7F, 0x9F, 0x58, 0xE8, 0xD7, 0xF7, 0xFF, 
  0xFD, 0x9A, 0xFD, 0xFD, 0xDF, 0xFF, 0xF7, 0xDF, 0xFF, 0xFF, 0xFF, 0xFF, 
  0xFF, 0xFF, 0xFF, 0xFF, 0xFF, 0xFF, 0xFF, 0xFF, 0xFF, 0xFF, 0xFF, 0xFF, 
  0x7F, 0xFF, 0x7F, 0x88, 0xAA, 0xE8, 0xFF, 0x5F, 0xD7, 0xFF, 0xA5, 0x6A, 
  0xFD, 0xFF, 0xFF, 0xFF, 0xFF, 0xFF, 0xFF, 0xFF, 0xFF, 0xFF, 0xFF, 0xFF, 
  0xFF, 0xFF, 0xFF, 0xFF, 0xFF, 0xFF, 0xFF, 0xFF, 0xFF, 0xFF, 0xCF, 0xCC, 
  0x99, 0x83, 0xFF, 0xFF, 0xFF, 0xCF, 0xFF, 0xFF, 0xCF, 0xFF, 0xE7, 0xFF, 
  0xFF, 0xFF, 0xFF, 0xFF, 0xFF, 0xFF, 0xFF, 0xFF, 0xFF, 0xFF, 0xFF, 0xFF, 
  0xFF, 0xFF, 0xFF, 0xFF, 0x7F, 0xFE, 0x3F, 0xCC, 0xFF, 0x81, 0xFF, 0xFF, 
  0xFF, 0xFF, 0x1F, 0x86, 0xFF, 0xFF, 0xFF, 0xFF, 0xFF, 0xFF, 0xFF, 0xFF, 
  0xFF, 0xFF, 0xFF, 0xFF, 0xFF, 0xFF, 0xFF, 0xFF, 0xFF, 0xFF, 0xFF, 0xFF, 
  0xFF, 0xFF, 0x57, 0x9D, 0xCD, 0x45, 0x57, 0xFF, 0xFF, 0xDD, 0xF5, 0xFF, 
  0x8F, 0x7F, 0xD1, 0x7F, 0xFD, 0xFF, 0xFF, 0xFF, 0xFF, 0xFF, 0xFF, 0xFF, 
  0xFF, 0xFF, 0xFF, 0xFF, 0xFF, 0xFF, 0xFF, 0xFF, 0xBF, 0xF5, 0xD7, 0xD8, 
  0xFF, 0x8A, 0xFE, 0x5F, 0xFF, 0x57, 0x5F, 0xD7, 0xFF, 0xFF, 0xFF, 0xFF, 
  0xFF, 0xFF, 0xFF, 0xFF, 0xFF, 0xFF, 0xFF, 0xFF, 0xFF, 0xFF, 0xFF, 0xFF, 
  0xFF, 0xFF, 0xFF, 0xFF, 0xFF, 0xFF, 0x33, 0xCF, 0x98, 0x18, 0x02, 0xFE, 
  0xFF, 0xFC, 0xE0, 0xFF, 0x03, 0x3E, 0x80, 0x3F, 0xF8, 0xFF, 0xFF, 0xFF, 
  0xFF, 0xFF, 0xFF, 0xFF, 0xFF, 0xFF, 0xFF, 0xFF, 0xFF, 0xFF, 0xFF, 0xFF, 
  0xFF, 0xE0, 0x83, 0xE0, 0xFF, 0x1F, 0xFF, 0x0F, 0xFE, 0x03, 0xFE, 0xFF, 
  0xFF, 0xFF, 0xFF, 0xFF, 0xFF, 0xFF, 0xFF, 0xFF, 0xFF, 0xFF, 0xFF, 0xFF, 
  0xFF, 0xFF, 0xFF, 0xFF, 0xFF, 0xFF, 0xFF, 0xFF, 0xFF, 0xFF, 0xE7, 0xDE, 
  0x6D, 0x17, 0xAF, 0xF5, 0x7F, 0x7D, 0xF9, 0xFF, 0x8B, 0x7E, 0x62, 0x5F, 
  0xF6, 0xFF, 0xFF, 0xFF, 0xFF, 0xFF, 0xFF, 0xFF, 0xFF, 0xFF, 0xFF, 0xFF, 
  0xFF, 0xFF, 0xFF, 0xFF, 0xFF, 0x5B, 0x63, 0xF5, 0xFF, 0x2F, 0xFA, 0xB5, 
  0x7F, 0xAD, 0xFF, 0xFF, 0xDF, 0xFF, 0xFF, 0xFF, 0xFF, 0xFF, 0xFF, 0xFF, 
  0xFF, 0xFF, 0xFF, 0xFF, 0xFF, 0xFF, 0xFF, 0xFF, 0xFF, 0xFF, 0xFF, 0xFF, 
  0xFF, 0xFF, 0xF3, 0xFF, 0x38, 0x62, 0xFE, 0xE0, 0x3F, 0x3F, 0xFC, 0xFF, 
  0x9C, 0x79, 0x76, 0x0E, 0xE3, 0xFF, 0xFF, 0xFF, 0xFF, 0xFF, 0xFF, 0xFF, 
  0xFF, 0xFF, 0xFF, 0xFF, 0xFF, 0xFF, 0xFF, 0xFF, 0xFF, 0x0F, 0x30, 0xFF, 
  0xFF, 0x7F, 0xE0, 0xE0, 0x3F, 0xF8, 0xFF, 0xFF, 0xC8, 0xFF, 0xFF, 0xFF, 
  0xFF, 0xFF, 0xFF, 0xFF, 0xFF, 0xFF, 0xFF, 0xFF, 0xFF, 0xFF, 0xFF, 0xFF, 
  0xFF, 0xFF, 0xFF, 0xFF, 0xFF, 0xFF, 0xF7, 0xFF, 0x7F, 0x37, 0xFF, 0x5B, 
  0x7F, 0x7E, 0xFC, 0xD5, 0x59, 0x35, 0x23, 0x1F, 0xED, 0xFF, 0xFF, 0xFF, 
  0xFF, 0xFF, 0xFF, 0xFF, 0xFF, 0xFF, 0xFF, 0xFF, 0xFF, 0xFF, 0xFF, 0xFF, 
  0xFF, 0x3F, 0x68, 0xFF, 0xFF, 0xBF, 0xA2, 0xFD, 0x77, 0xFF, 0xFF, 0xDF, 
  0x9D, 0xFD, 0xFF, 0xFF, 0xFF, 0xFF, 0xFF, 0xFF, 0xFF, 0xFF, 0xFF, 0xFF, 
  0xFF, 0xFF, 0xFF, 0xFF, 0xFF, 0xFF, 0xFF, 0xFF, 0xFF, 0xFF, 0xFF, 0xFF, 
  0x3F, 0x63, 0xFE, 0x0F, 0x3E, 0x3F, 0xFF, 0xC0, 0x78, 0x66, 0x72, 0xCE, 
  0x98, 0xFF, 0xFF, 0xFF, 0xFF, 0xFF, 0xFF, 0xFF, 0xFF, 0xFF, 0xFF, 0xFF, 
  0xFF, 0xFF, 0xFF, 0xFF, 0xFF, 0x3F, 0x98, 0xFF, 0xFF, 0xFF, 0x07, 0xFE, 
  0x83, 0xFF, 0xFF, 0xCF, 0xC8, 0xFC, 0xFF, 0xFF, 0xFF, 0xFF, 0xFF, 0xFF, 
  0xFF, 0xFF, 0xFF, 0xFF, 0xFF, 0xFF, 0xFF, 0xFF, 0xFF, 0xFF, 0xFF, 0xFF, 
  0xFF, 0xFF, 0xFF, 0xFF, 0x7F, 0xFF, 0xFF, 0x3F, 0x7D, 0x3E, 0x5E, 0xAB, 
  0x95, 0x73, 0xF7, 0x9F, 0xED, 0xFF, 0xFF, 0xFF, 0xFF, 0xFF, 0xFF, 0xFF, 
  0xFF, 0xFF, 0xFF, 0xFF, 0xFF, 0x7F, 0x77, 0xFF, 0xFF, 0x7F, 0xE6, 0xFF, 
  0xFF, 0xFF, 0x2B, 0xA5, 0xD6, 0xFF, 0xFF, 0x9D, 0x8D, 0xF9, 0xFF, 0xFF, 
  0xFF, 0xFF, 0xFF, 0xFF, 0xFF, 0xFF, 0xFF, 0xFF, 0xFF, 0xFF, 0xFF, 0xFF, 
  0xFF, 0xFF, 0xFF, 0xFF, 0xFF, 0xFF, 0xFF, 0xFF, 0xFF, 0xFF, 0xFF, 0x3F, 
  0x3C, 0x0F, 0x0F, 0x3E, 0xC3, 0xE7, 0xFF, 0xCF, 0xF9, 0xFF, 0xFF, 0xFF, 
  0xFF, 0xFF, 0xFF, 0xFF, 0xFF, 0xFF, 0xFF, 0xFF, 0xFF, 0x3F, 0x63, 0xFE, 
  0xFF, 0x3F, 0xF3, 0xFF, 0xFF, 0xFF, 0x7F, 0x00, 0xF8, 0xFF, 0xFF, 0xCC, 
  0xD9, 0x9C, 0xFF, 0xFF, 0xFF, 0xFF, 0xFF, 0xFF, 0xFF, 0xFF, 0xFF, 0xFF, 
  0xFF, 0xFF, 0xFF, 0xFF, 0xFF, 0xFF, 0xFF, 0xFF, 0xFF, 0xFF, 0xD7, 0xFF, 
  0xD7, 0xFF, 0xFF, 0x7F, 0x78, 0x9E, 0xDA, 0x7F, 0x06, 0xF9, 0xFA, 0xDF, 
  0xFD, 0xFF, 0xFF, 0xFF, 0xFF, 0xFF, 0xFF, 0xFF, 0xFF, 0xFF, 0xFF, 0xFF, 
  0xFF, 0x77, 0x36, 0xF7, 0xFF, 0x7F, 0xE6, 0xFF, 0xFF, 0xFF, 0xBF, 0xAA, 
  0xFE, 0xFF, 0xFF, 0x99, 0xD5, 0xC9, 0xFF, 0xFF, 0xFF, 0xFF, 0xFF, 0xFF, 
  0xFF, 0xFF, 0xFF, 0xFF, 0xFF, 0xFF, 0xFF, 0xFF, 0xFF, 0xFF, 0xFF, 0xFF, 
  0xFF, 0xFF, 0xC7, 0xFF, 0x83, 0xFF, 0xFF, 0xFF, 0x21, 0x8F, 0xE1, 0xFF, 
  0x19, 0x3C, 0xE0, 0xFF, 0xFF, 0xFF, 0xFF, 0xFF, 0xFF, 0xFF, 0xFF, 0xFF, 
  0xFF, 0xFF, 0xFF, 0xFF, 0xFF, 0x33, 0x67, 0xE6, 0xFF, 0x3F, 0xF3, 0xFF, 
  0xFF, 0xFF, 0xFF, 0xFF, 0xFF, 0xFF, 0xFF, 0xCC, 0xE7, 0x9C, 0xFF, 0xFF, 
  0xFF, 0xFF, 0xFF, 0xFF, 0xFF, 0xFF, 0xFF, 0xFF, 0xFF, 0xFF, 0xFF, 0xFF, 
  0xFF, 0xFF, 0xFF, 0xFF, 0xFF, 0xD7, 0x89, 0xD7, 0x4B, 0xFF, 0xFF, 0xFF, 
  0x71, 0x4E, 0xFA, 0xFF, 0x8C, 0x58, 0xC9, 0x77, 0xFF, 0xFF, 0xFF, 0xFF, 
  0xFF, 0xFF, 0xFF, 0xFF, 0xFF, 0xFF, 0xFF, 0xFF, 0xFF, 0x67, 0x32, 0xF3, 
  0xFF, 0xBF, 0xF2, 0xFF, 0xFF, 0xFF, 0xFF, 0xFF, 0xFF, 0xFF, 0xFF, 0x99, 
  0x5A, 0xCD, 0xFF, 0xFF, 0xFF, 0xFF, 0xFF, 0xFF, 0xFF, 0xFF, 0xFF, 0xFF, 
  0xFF, 0xFF, 0xFF, 0xFF, 0xFF, 0xFF, 0xFF, 0xFF, 0xFF, 0xC7, 0xCC, 0xC7, 
  0x1C, 0xFE, 0xFF, 0xFF, 0x27, 0x07, 0xFF, 0xFF, 0xD9, 0xCD, 0x98, 0x67, 
  0xFE, 0xFF, 0xFF, 0xFF, 0xFF, 0xFF, 0xFF, 0xFF, 0xFF, 0xFF, 0xFF, 0xFF, 
  0xFF, 0x33, 0x67, 0xE6, 0xFF, 0xCF, 0xFC, 0xFF, 0xFF, 0xFF, 0xFF, 0xFF, 
  0xFF, 0xFF, 0xFF, 0x7C, 0x0C, 0x9E, 0xFF, 0x89, 0xF8, 0xFF, 0xFF, 0xFF, 
  0xFF, 0xFF, 0xFF, 0xFF, 0xFF, 0xFF, 0xFF, 0xFF, 0xFF, 0xFF, 0xFF, 0xFF, 
  0xFF, 0x89, 0xDB, 0x89, 0x89, 0xAD, 0xFF, 0xFF, 0x73, 0x02, 0xFF, 0xFF, 
  0x8F, 0x9C, 0xCD, 0x93, 0xFD, 0xFF, 0xFF, 0xFF, 0xFF, 0xFF, 0xFF, 0xFF, 
  0xFF, 0xFF, 0xFF, 0xFF, 0x7F, 0x67, 0xAA, 0x73, 0xFF, 0x1F, 0xF9, 0xFF, 
  0xFF, 0xFF, 0xFF, 0xFF, 0xFF, 0xFF, 0xFF, 0x55, 0xD9, 0xEA, 0xFF, 0xDC, 
  0xDD, 0xFF, 0xFF, 0xFF, 0xFF, 0xFF, 0xFF, 0xFF, 0xFF, 0xFF, 0xFF, 0xFF, 
  0xFF, 0xFF, 0xFF, 0xFF, 0xFF, 0xCC, 0xE7, 0xDC, 0xD8, 0xD8, 0xFF, 0xFF, 
  0x37, 0xC6, 0xFF, 0xFF, 0xDF, 0xC9, 0x99, 0xC7, 0xF9, 0xFF, 0xFF, 0xFF, 
  0xFF, 0xFF, 0xFF, 0xFF, 0xFF, 0xFF, 0xFF, 0xFF, 0x3F, 0xF3, 0x99, 0x67, 
  0xFE, 0x0F, 0xFC, 0xFF, 0xFF, 0xFF, 0xFF, 0xFF, 0xFF, 0xFF, 0xFF, 0x83, 
  0xE7, 0xE1, 0x8F, 0x8C, 0xC8, 0xFF, 0xFF, 0xFF, 0xFF, 0xFF, 0xFF, 0xFF, 
  0xFF, 0xFF, 0xFF, 0xFF, 0xFF, 0xFF, 0xFF, 0xFF, 0xFF, 0x55, 0x73, 0xED, 
  0x8F, 0x8D, 0xFF, 0xFF, 0x67, 0xA1, 0xFF, 0xFF, 0xAF, 0xDD, 0xCC, 0x89, 
  0xFC, 0xFF, 0xFF, 0xFF, 0xFF, 0xFF, 0xFF, 0xFF, 0xFF, 0xFF, 0xFF, 0xFF, 
  0x7F, 0x56, 0x55, 0x39, 0xFF, 0x9F, 0xF8, 0xFF, 0xFF, 0xFF, 0xFF, 0xFF, 
  0xFF, 0xFF, 0xFF, 0x6F, 0x2A, 0xF5, 0xDF, 0xD9, 0x9D, 0xFF, 0xFF, 0xFF, 
  0xFF, 0xFF, 0xFF, 0xFF, 0xFF, 0xFF, 0xFF, 0xFF, 0xFF, 0xFF, 0xFF, 0xFF, 
  0x7F, 0x32, 0x66, 0xFE, 0xDF, 0x19, 0xFE, 0xFF, 0x9F, 0xF1, 0xFF, 0xFF, 
  0xFF, 0xFF, 0x99, 0xCC, 0xF9, 0xFF, 0xFF, 0xFF, 0xFF, 0xFF, 0xFF, 0xFF, 
  0xFF, 0xFF, 0xFF, 0xFF, 0x3F, 0x0F, 0x33, 0x7C, 0xFE, 0xCF, 0xFC, 0xFF, 
  0xFF, 0xFF, 0xFF, 0xFF, 0xFF, 0xFF, 0xFF, 0x3F, 0x18, 0xFE, 0x8F, 0x98, 
  0xC8, 0xFF, 0xFF, 0xFF, 0xFF, 0xFF, 0xFF, 0xFF, 0xFF, 0xFF, 0xFF, 0xFF, 
  0xFF, 0xFF, 0xFF, 0xFF, 0x7F, 0x67, 0xBB, 0xF5, 0xAF, 0x8D, 0xFA, 0xFF, 
  0x5F, 0xEA, 0xFF, 0xFF, 0xFF, 0xF6, 0xFD, 0x9D, 0xFF, 0xFF, 0xFF, 0xFF, 
  0xFF, 0xFF, 0xFF, 0xFF, 0xFF, 0xFF, 0xFF, 0xFF, 0x7F, 0x5D, 0x66, 0xA9, 
  0xFF, 0x9F, 0xF9, 0xFF, 0xFF, 0xFF, 0xFF, 0xFF, 0xFF, 0x7F, 0xF7, 0xFF, 
  0x8E, 0xFF, 0xDF, 0x67, 0x9F, 0xFF, 0xFF, 0xFF, 0xFF, 0xFF, 0xFF, 0xFF, 
  0xFF, 0xFF, 0xFF, 0xFF, 0xFF, 0xFF, 0xFF, 0xFF, 0xFF, 0x73, 0xFE, 0xE0, 
  0xFF, 0x9F, 0xFD, 0xFF, 0x3F, 0xFF, 0xFF, 0xFF, 0x3F, 0xE0, 0xFF, 0x8F, 
  0xFF, 0xFF, 0xFF, 0xFF, 0xFF, 0xFF, 0xFF, 0xFF, 0xFF, 0xFF, 0xFF, 0xFF, 
  0xFF, 0xE0, 0x99, 0x87, 0xFF, 0xCF, 0xFC, 0xFF, 0xFF, 0xFF, 0xFF, 0xFF, 
  0xFF, 0x3F, 0x33, 0xFE, 0xDF, 0xFF, 0x88, 0x33, 0xCE, 0xF9, 0xFF, 0xFF, 
  0xFF, 0xFF, 0xFF, 0xFF, 0xFF, 0xFF, 0xFF, 0xFF, 0xFF, 0xFF, 0xFF, 0xFF, 
  0xFF, 0x67, 0xFF, 0xD1, 0x57, 0xCF, 0x78, 0xFD, 0x37, 0xFE, 0xFF, 0xD5, 
  0xBF, 0xD8, 0xFF, 0xFF, 0xFF, 0xFF, 0xFF, 0xFF, 0xFF, 0xFF, 0xFF, 0xFF, 
  0xFF, 0xFF, 0xFF, 0xDF, 0xFD, 0xAB, 0xD6, 0xEA, 0xFD, 0x9F, 0xFA, 0xFF, 
  0xFF, 0x7F, 0x77, 0xFF, 0xFF, 0x77, 0x66, 0xF7, 0xAF, 0xFE, 0xBD, 0x6A, 
  0xD5, 0xFC, 0xFF, 0xFF, 0xFF, 0xFF, 0xFF, 0xFF, 0xFF, 0xFF, 0xFF, 0xFF, 
  0xFF, 0xFF, 0xFF, 0xFF, 0xFF, 0xF3, 0x3F, 0x86, 0x03, 0x9E, 0x7D, 0xF8, 
  0x03, 0xF8, 0xFF, 0x80, 0xCF, 0x8C, 0xFF, 0xFF, 0xFF, 0xFF, 0xFF, 0xFF, 
  0xFF, 0xFF, 0xFF, 0xFF, 0xFF, 0xFF, 0xFF, 0xC8, 0xFC, 0x1F, 0x33, 0xFC, 
  0xF8, 0x0F, 0xFF, 0xFF, 0xFF, 0x3F, 0x33, 0xFF, 0xFF, 0x33, 0x33, 0xE6, 
  0x7F, 0xF8, 0x78, 0xCC, 0xE0, 0xF9, 0xFF, 0xFF, 0xFF, 0xFF, 0xFF, 0xFF, 
  0xFF, 0xFF, 0xFF, 0xFF, 0xFF, 0xFF, 0xFF, 0xFF, 0xFF, 0xF7, 0x7F, 0xC5, 
  0x8D, 0xDD, 0x5A, 0xF4, 0x8B, 0x7C, 0xFD, 0x62, 0x9F, 0xD9, 0xFF, 0xFF, 
  0xFF, 0xFF, 0xFF, 0xFF, 0xFF, 0xFF, 0xFF, 0xFF, 0xFF, 0xFF, 0xFF, 0x9D, 
  0xF9, 0x2F, 0x77, 0xFD, 0xD7, 0x1F, 0xFC, 0xFF, 0xFF, 0x77, 0x66, 0xF6, 
  0xFF, 0x67, 0x66, 0xF3, 0xBF, 0xF8, 0x95, 0x94, 0x55, 0xFE, 0xFF, 0xFF, 
  0xFF, 0xFF, 0xFF, 0xFF, 0xFF, 0xFF, 0xFF, 0xFF, 0xFF, 0xFF, 0xFF, 0xFF, 
  0xFF, 0xFF, 0x8F, 0xD9, 0xC8, 0xF9, 0x9F, 0xE1, 0x9C, 0x79, 0x38, 0x37, 
  0xCE, 0x9C, 0xFF, 0xFF, 0xFF, 0xFF, 0xFF, 0xFF, 0xFF, 0xFF, 0xFF, 0xFF, 
  0xFF, 0xFF, 0x8F, 0xC8, 0x8C, 0xFF, 0xFF, 0xFF, 0xC3, 0x0F, 0xFC, 0xFF, 
  0xFF, 0x33, 0x33, 0xF3, 0xFF, 0x33, 0x73, 0xE6, 0xFF, 0x21, 0xC3, 0x63, 
  0x0F, 0xFF, 0xFF, 0xFF, 0xFF, 0xFF, 0xFF, 0xFF, 0xFF, 0xFF, 0xFF, 0xFF, 
  0xFF, 0xFF, 0xFF, 0xFF, 0xFF, 0xFF, 0xFF, 0xDC, 0x9D, 0xFC, 0x6F, 0xF1, 
  0xC9, 0x1C, 0x74, 0x62, 0x9F, 0xD9, 0xFF, 0xFF, 0xFF, 0xFF, 0xFF, 0xFF, 
  0xFF, 0xFF, 0xFF, 0xFF, 0xFF, 0xFF, 0xDF, 0x9D, 0xD9, 0xFF, 0xFF, 0xFF, 
  0xAF, 0x16, 0xFA, 0xFF, 0xFF, 0x67, 0x66, 0xE6, 0x7F, 0x67, 0xAB, 0x73, 
  0xFF, 0x52, 0xAF, 0x57, 0x5E, 0xFF, 0xFF, 0xFF, 0xFF, 0xFF, 0xFF, 0xFF, 
  0xFF, 0xFF, 0xFF, 0xFF, 0xFF, 0xFF, 0xFF, 0xFF, 0xFF, 0xFF, 0xFF, 0xF9, 
  0xC8, 0xF9, 0x33, 0xF6, 0x98, 0x09, 0x30, 0x76, 0xCE, 0xFC, 0xFF, 0xFF, 
  0xFF, 0xFF, 0xFF, 0xFF, 0xFF, 0xFF, 0xFF, 0xFF, 0xFF, 0xFF, 0x9F, 0xC8, 
  0x9C, 0xFF, 0xFF, 0xFF, 0x3F, 0x60, 0xE6, 0xFF, 0xFF, 0x33, 0x33, 0xF3, 
  0x3F, 0xF3, 0x9C, 0x37, 0xFE, 0x87, 0x3F, 0x98, 0xE1, 0xFF, 0xFF, 0xFF, 
  0xFF, 0xFF, 0xFF, 0xFF, 0xFF, 0xFF, 0xFF, 0xFF, 0xFF, 0xFF, 0xFF, 0xFF, 
  0xFF, 0xFF, 0xFF, 0xFE, 0xD7, 0xFD, 0x77, 0xE3, 0xCF, 0x2D, 0xE2, 0x63, 
  0xDF, 0x7D, 0xFD, 0xF7, 0xFF, 0xFF, 0xFF, 0xFF, 0xFF, 0xFF, 0xFF, 0xFF, 
  0xFF, 0xFF, 0xCF, 0xAB, 0xCD, 0xFD, 0xFF, 0xFF, 0x7F, 0x7D, 0xE1, 0xFF, 
  0x7F, 0xE7, 0x76, 0xE7, 0x7F, 0xD6, 0x48, 0x68, 0xFF, 0xC7, 0x7F, 0xDD, 
  0xF9, 0xFF, 0xFF, 0xFF, 0xFF, 0xFF, 0xFF, 0xFF, 0xFF, 0xFF, 0xFF, 0xFF, 
  0xFF, 0xFF, 0xFF, 0xFF, 0xFF, 0xFF, 0xFF, 0xFF, 0xE3, 0xFF, 0x3F, 0xF6, 
  0x9F, 0x73, 0xF3, 0xF7, 0xFF, 0x7F, 0xF8, 0xE7, 0xFF, 0xFF, 0xFF, 0xFF, 
  0xFF, 0xFF, 0xFF, 0xFF, 0xFF, 0xFF, 0x98, 0x77, 0x9E, 0xF8, 0xFF, 0xFF, 
  0xFF, 0xFF, 0x81, 0xFF, 0x3F, 0xF3, 0x89, 0x33, 0x3E, 0x0F, 0x73, 0x7C, 
  0xFE, 0x9F, 0xFF, 0xFF, 0xFF, 0xFF, 0xFF, 0xFF, 0xFF, 0xFF, 0xFF, 0xFF, 
  0xFF, 0xFF, 0xFF, 0xFF, 0xFF, 0xFF, 0xFF, 0xFF, 0xFF, 0xFF, 0xFF, 0xFF, 
  0xFF, 0xFF, 0xFF, 0xFB, 0xDF, 0x27, 0xE6, 0xEB, 0x57, 0x1F, 0xF4, 0x51, 
  0xFF, 0xFF, 0xFF, 0xFF, 0xFF, 0xFF, 0xFF, 0xFF, 0xFF, 0xFF, 0x6D, 0x42, 
  0xE5, 0xFD, 0xFF, 0xFF, 0xFF, 0xFF, 0x8A, 0xFF, 0x7F, 0x56, 0xD6, 0x76, 
  0x7F, 0x5D, 0xA7, 0xAA, 0xFF, 0x4F, 0xFF, 0xFF, 0xFF, 0xFF, 0xFF, 0xFF, 
  0xFF, 0xFF, 0xFF, 0xFF, 0xFF, 0xFF, 0xFF, 0xFF, 0xFF, 0xFF, 0xFF, 0xFF, 
  0xFF, 0xFF, 0xFF, 0xFF, 0xFF, 0x8F, 0xFF, 0xFF, 0xFF, 0x63, 0xF3, 0xFF, 
  0x07, 0x0E, 0xE0, 0x00, 0xFE, 0xFF, 0xFF, 0xFF, 0xFF, 0xFF, 0xFF, 0xFF, 
  0xFF, 0xFF, 0x38, 0xDC, 0xF0, 0xF8, 0xFF, 0xFF, 0xFF, 0xFF, 0x1F, 0xFE, 
  0x3F, 0x0F, 0x33, 0x38, 0xFE, 0xE0, 0xC8, 0x87, 0xFF, 0x1F, 0xFE, 0xFF, 
  0xFF, 0xFF, 0xFF, 0xFF, 0xFF, 0xFF, 0xFF, 0xFF, 0xFF, 0xFF, 0xFF, 0xFF, 
  0xFF, 0xFF, 0xFF, 0xFF, 0xFF, 0xFF, 0x7F, 0xF5, 0xFF, 0xFF, 0xFF, 0x7F, 
  0xF5, 0xBF, 0xF7, 0xFF, 0x09, 0x9D, 0xD8, 0x89, 0xFA, 0xFF, 0xFF, 0xFF, 
  0xFF, 0xFF, 0xFF, 0xFF, 0xFF, 0xFF, 0xDB, 0xA8, 0xA5, 0xFD, 0xFF, 0xFF, 
  0x7F, 0xA5, 0xA5, 0xFA, 0xFF, 0xAE, 0x6A, 0xB5, 0xFF, 0xAB, 0x9D, 0xEA, 
  0xF5, 0x0F, 0xFF, 0xDD, 0xFD, 0xFF, 0xFF, 0xFF, 0xFF, 0xFF, 0xFF, 0xFF, 
  0xFF, 0xFF, 0xFF, 0xFF, 0xFF, 0xFF, 0xFF, 0xFF, 0xFF, 0xFF, 0x3F, 0xE0, 
  0xFF, 0xFF, 0xFF, 0x3F, 0x30, 0xFE, 0xFF, 0x9F, 0x1C, 0xCC, 0xCC, 0x98, 
  0xFD, 0xFF, 0xFF, 0xFF, 0xFF, 0xFF, 0xFF, 0xFF, 0xFF, 0xFF, 0x87, 0x67, 
  0x1E, 0xFF, 0xFF, 0xFF, 0x3F, 0x00, 0xF0, 0xFD, 0xFF, 0xF0, 0x9C, 0xC3, 
  0xFF, 0x1F, 0x62, 0xF8, 0xE0, 0x1F, 0xFE, 0x99, 0xF9, 0xFF, 0xFF, 0xFF, 
  0xFF, 0xFF, 0xFF, 0xFF, 0xFF, 0xFF, 0xFF, 0xFF, 0xFF, 0xFF, 0xFF, 0x6F, 
  0xFF, 0xFF, 0x7F, 0xD8, 0x5F, 0xFD, 0xD5, 0x5F, 0xE2, 0xA7, 0x7E, 0xED, 
  0x89, 0x98, 0x99, 0xCD, 0xF8, 0xFF, 0xFF, 0xFF, 0xFF, 0xFF, 0xFF, 0xFF, 
  0xFF, 0xFF, 0x57, 0x95, 0xA5, 0xFE, 0xFF, 0xFF, 0x77, 0x55, 0xE1, 0xFA, 
  0xFF, 0xA9, 0xA9, 0xD6, 0xFF, 0x5F, 0x77, 0xFD, 0x5B, 0x0F, 0xDF, 0xCC, 
  0xDC, 0xFF, 0xFF, 0xFF, 0xFF, 0xFF, 0xFF, 0xFF, 0xFF, 0xFF, 0xFF, 0xFF, 
  0xFF, 0xFF, 0xFF, 0x03, 0xFF, 0xFF, 0x8F, 0x9D, 0x0F, 0xFC, 0x80, 0x0F, 
  0xF2, 0x03, 0x3F, 0xF8, 0xD8, 0xCC, 0xCC, 0x99, 0xFD, 0xFF, 0xFF, 0xFF, 
  0xFF, 0xFF, 0xFF, 0xFF, 0xFF, 0xFF, 0x7F, 0xCC, 0xF0, 0xFF, 0xFF, 0xFF, 
  0x83, 0xFF, 0x87, 0xE7, 0xFF, 0x0F, 0x66, 0xF8, 0xFF, 0xFF, 0xFF, 0xFF, 
  0x0F, 0x1E, 0x8E, 0x99, 0x8D, 0xFF, 0xFF, 0xFF, 0xFF, 0xFF, 0xFF, 0xFF, 
  0xFF, 0xFF, 0xFF, 0xFF, 0xFF, 0xFF, 0xBF, 0x83, 0xFE, 0xFF, 0x5F, 0xE9, 
  0x17, 0xE8, 0x42, 0x9F, 0xE5, 0x8D, 0xBE, 0xD4, 0x8D, 0xD9, 0xDD, 0xCE, 
  0xFA, 0xFF, 0xFF, 0xFF, 0xFF, 0xFF, 0xFF, 0xFF, 0xFF, 0xFF, 0xBF, 0xBA, 
  0xEA, 0xFF, 0xFF, 0x7F, 0x63, 0x55, 0x87, 0xF3, 0xFF, 0x5F, 0x77, 0xE9, 
  0xFF, 0xFF, 0xFF, 0xFF, 0xBF, 0x0D, 0xDF, 0xCC, 0xD8, 0xFF, 0xFF, 0xFF, 
  0xFF, 0xFF, 0xFF, 0xFF, 0xFF, 0xFF, 0xFF, 0xFF, 0xFF, 0x7F, 0x0E, 0xC0, 
  0xFF, 0xFF, 0x63, 0xE6, 0x73, 0x30, 0x07, 0xCE, 0x98, 0x98, 0xC9, 0xC1, 
  0xD8, 0xFC, 0xFF, 0x9F, 0xFF, 0xFF, 0xFF, 0xFF, 0xFF, 0xFF, 0xFF, 0xFF, 
  0xFF, 0xFF, 0xFF, 0x3F, 0xFF, 0xFF, 0xFF, 0x3F, 0x30, 0x00, 0x1E, 0xE6, 
  0xFF, 0xFF, 0xFF, 0xF0, 0xFF, 0xFF, 0xFF, 0xFF, 0xFF, 0x18, 0x8E, 0x99, 
  0x9C, 0xFF, 0xFF, 0xFF, 0xFF, 0xFF, 0xFF, 0xFF, 0xFF, 0xFF, 0xFF, 0xFF, 
  0xFF, 0x9F, 0x0D, 0xC0, 0xFF, 0xFF, 0x3F, 0xF3, 0x2B, 0x62, 0x22, 0xAF, 
  0xD5, 0xCD, 0x9C, 0x88, 0x8F, 0xFB, 0xEB, 0xEF, 0xFF, 0xFF, 0xFF, 0xFF, 
  0xFF, 0xFF, 0xFF, 0xFF, 0xFF, 0xFF, 0xFF, 0x7F, 0xB7, 0xFE, 0xFF, 0x75, 
  0xEA, 0xAA, 0x55, 0xD6, 0xFF, 0xFF, 0xFF, 0xE5, 0xFF, 0xDD, 0xFF, 0xFF, 
  0xFF, 0x0B, 0xDD, 0x66, 0xCD, 0xFD, 0xFF, 0xFF, 0xFF, 0xFF, 0xFF, 0xFF, 
  0xFF, 0xFF, 0xFF, 0xFF, 0xFF, 0xDF, 0x00, 0xF0, 0xFF, 0xFF, 0x7F, 0xE6, 
  0x0C, 0x33, 0x76, 0x72, 0xE6, 0x98, 0x89, 0xCD, 0xDF, 0xFF, 0x80, 0xFF, 
  0xFF, 0xFF, 0xFF, 0xFF, 0xFF, 0xFF, 0xFF, 0x7F, 0xE2, 0xFF, 0xFF, 0xFF, 
  0x03, 0xF8, 0xFF, 0x60, 0xFE, 0xFF, 0x20, 0x9F, 0xFF, 0xFF, 0xFF, 0xF3, 
  0xFF, 0xCC, 0xFF, 0xFF, 0xFF, 0x07, 0x98, 0x33, 0xDF, 0xF8, 0xFF, 0xFF, 
  0xFF, 0xFF, 0xFF, 0xFF, 0xFF, 0xFF, 0xFF, 0xFF, 0xFF, 0x8F, 0x80, 0xF0, 
  0xFF, 0xFF, 0xBF, 0xF7, 0x1D, 0xF5, 0x23, 0x37, 0xFF, 0xCF, 0xDE, 0x98, 
  0xEF, 0xFF, 0xA1, 0xFF, 0xFF, 0xFF, 0xFF, 0xFF, 0xFF, 0xFF, 0xFF, 0x3F, 
  0x77, 0xFF, 0xFF, 0xFF, 0xAF, 0x55, 0xDD, 0x18, 0xFF, 0xFF, 0x3B, 0xCC, 
  0xFF, 0xFF, 0xFF, 0xE7, 0xDF, 0x99, 0xFF, 0xFF, 0xFF, 0x83, 0x6C, 0x6B, 
  0xA2, 0xFD, 0xFF, 0xFF, 0xFF, 0xFF, 0xFF, 0xFF, 0xFF, 0xFF, 0xFF, 0xFF, 
  0xFF, 0x1F, 0xC0, 0xFC, 0xFF, 0xFF, 0xFF, 0xFF, 0xCF, 0xFC, 0x73, 0x7E, 
  0xFE, 0x9F, 0x8F, 0xCD, 0xFF, 0x3F, 0x76, 0xFE, 0xFF, 0xFF, 0xFF, 0xFF, 
  0xFF, 0xFF, 0xFF, 0x23, 0x23, 0xFF, 0xFF, 0xFF, 0xFF, 0x07, 0x0C, 0x0C, 
  0xFE, 0xFF, 0x0F, 0x98, 0xFF, 0xFF, 0xFF, 0xF3, 0xCF, 0xCC, 0xF8, 0xFF, 
  0xFF, 0xC7, 0x39, 0x9C, 0xF1, 0xF9, 0xFF, 0xFF, 0xFF, 0xFF, 0xFF, 0xFF, 
  0xFF, 0xFF, 0xFF, 0xFF, 0xFF, 0x07, 0xA8, 0xF5, 0xFF, 0xFF, 0x7F, 0xFD, 
  0x9F, 0xFD, 0xF7, 0xB7, 0x5F, 0xEF, 0xDF, 0xD8, 0xFF, 0x7F, 0x23, 0xFF, 
  0xFF, 0xFF, 0xFF, 0xFF, 0xFF, 0xFF, 0xFF, 0x77, 0x76, 0xFE, 0xFF, 0xFF, 
  0xFF, 0xAB, 0x8A, 0x9E, 0xFF, 0xFF, 0x1F, 0xCC, 0xFF, 0xFF, 0xFF, 0xE3, 
  0x9D, 0x99, 0xDD, 0xFF, 0xFF, 0xA1, 0x57, 0x51, 0x55, 0xFE, 0xFF, 0xFF, 
  0xFF, 0xFF, 0xFF, 0xFF, 0xFF, 0xFF, 0xFF, 0xFF, 0xFF, 0x07, 0xFC, 0xE3, 
  0xFF, 0xFF, 0x7F, 0xF8, 0xCF, 0xFF, 0xFF, 0xE3, 0x0F, 0xFE, 0xFF, 0xFD, 
  0xFF, 0x7F, 0x72, 0xFE, 0xFF, 0xFF, 0xFF, 0xFF, 0xFF, 0xFF, 0x3F, 0x23, 
  0x23, 0xE3, 0xFF, 0xFF, 0xFF, 0xFF, 0xC7, 0xCF, 0xFF, 0xFF, 0x7F, 0x98, 
  0xFF, 0xFF, 0xFF, 0xF0, 0xCC, 0xCC, 0x98, 0xFF, 0xFF, 0xF0, 0xC3, 0x67, 
  0x0E, 0xFF, 0xFF, 0xFF, 0xFF, 0xFF, 0xFF, 0xFF, 0xFF, 0xFF, 0xFF, 0xFF, 
  0xFF, 0x59, 0xDD, 0xFF, 0xFF, 0xFF, 0x9F, 0xF4, 0xDF, 0x5F, 0xFD, 0xE5, 
  0x97, 0xFD, 0xFF, 0xFE, 0xFF, 0x7F, 0x67, 0xFF, 0xFF, 0xFF, 0xFF, 0xFF, 
  0xFF, 0xFF, 0x7F, 0x76, 0x7D, 0xF6, 0xFF, 0xFF, 0x55, 0x55, 0xA1, 0x9F, 
  0xFF, 0xFF, 0x3F, 0xCC, 0xFF, 0xFF, 0xFF, 0xF0, 0x99, 0xD5, 0xCC, 0xFF, 
  0xFF, 0xE1, 0xAF, 0x9A, 0x5D, 0xFF, 0xFF, 0xFF, 0xFF, 0xFF, 0xFF, 0xFF, 
  0xFF, 0xFF, 0xFF, 0xFF, 0xFF, 0xFC, 0xCF, 0xF8, 0xFF, 0xFF, 0x8F, 0xF1, 
  0xFF, 0x0F, 0xFC, 0x80, 0xC3, 0xF8, 0xFF, 0xFF, 0xFF, 0xFF, 0xF3, 0xFF, 
  0xFF, 0xFF, 0xFF, 0xFF, 0xFF, 0xFF, 0x3F, 0xE3, 0x38, 0xE7, 0xFF, 0xFF, 
  0x00, 0x00, 0xF0, 0xCF, 0xFF, 0xFF, 0x7F, 0x98, 0xFF, 0xFF, 0x3F, 0xFC, 
  0x0C, 0x32, 0x98, 0xFF, 0xFF, 0xF0, 0x3F, 0xCC, 0xE0, 0xFF, 0xFF, 0xFF, 
  0xFF, 0xFF, 0xFF, 0xFF, 0xFF, 0xFF, 0xFF, 0xFF, 0xFF, 0x73, 0x9F, 0xFD, 
  0xFF, 0x5F, 0x5F, 0xE2, 0xFA, 0x1F, 0xEA, 0xA2, 0x87, 0xFD, 0xFF, 0xFF, 
  0xFF, 0xFF, 0xF7, 0xFF, 0xFF, 0xFF, 0xFF, 0xFF, 0xFF, 0xFF, 0x7F, 0xAE, 
  0xAB, 0xF2, 0xFF, 0x6B, 0xA9, 0xAA, 0xEA, 0x9F, 0xFF, 0xFF, 0x3F, 0xDD, 
  0xFF, 0xAA, 0x2A, 0xFA, 0x5B, 0x6B, 0xE5, 0xFF, 0xFF, 0xE3, 0x7F, 0xDD, 
  0xFB, 0xFF, 0xFF, 0xFF, 0xFF, 0xFF, 0xFF, 0xFF, 0xFF, 0xFF, 0xFF, 0xFF, 
  0xFF, 0x67, 0xCE, 0xF8, 0xFF, 0x1F, 0x63, 0x33, 0xE0, 0x63, 0x33, 0x73, 
  0xDE, 0xF9, 0xFF, 0xFF, 0xFF, 0xFF, 0xFF, 0xFF, 0xFF, 0xFF, 0xFF, 0xFF, 
  0xFF, 0xFF, 0x3F, 0x1F, 0xC6, 0xE7, 0xFF, 0x00, 0xF8, 0xFF, 0xFF, 0xCF, 
  0xFF, 0xFF, 0x7F, 0x8F, 0x3F, 0x00, 0x00, 0xFF, 0xE7, 0x9C, 0xF3, 0xFF, 
  0xFF, 0x83, 0xFF, 0xFF, 0xFF, 0xFF, 0xFF, 0xFF, 0xFF, 0xFF, 0xFF, 0xFF, 
  0xFF, 0xFF, 0xFF, 0xFF, 0xFF, 0x94, 0x9F, 0xFF, 0xFF, 0xA7, 0x3E, 0x66, 
  0xE2, 0x3F, 0x66, 0x26, 0xA7, 0xFE, 0xFF, 0xFF, 0x5F, 0xFD, 0xFF, 0xFF, 
  0xFF, 0xFF, 0xFF, 0xFF, 0xFF, 0xFF, 0x7F, 0xA5, 0x92, 0xFA, 0xDF, 0xA8, 
  0xFE, 0xFF, 0xFF, 0x9F, 0xFF, 0xFF, 0x3F, 0xFE, 0x35, 0xA8, 0xAA, 0x56, 
  0xDB, 0x64, 0xF7, 0xFF, 0xFF, 0x87, 0xFE, 0xFF, 0xFF, 0xFF, 0xFF, 0xFF, 
  0xFF, 0xFF, 0xFF, 0xFF, 0xFF, 0xFF, 0xFF, 0xFF, 0x3F, 0xCC, 0xCF, 0xFF, 
  0xFF, 0xF3, 0x7F, 0x73, 0x86, 0x7F, 0x33, 0x73, 0x72, 0xFE, 0xFF, 0xFF, 
  0x0F, 0xF8, 0xFF, 0xFF, 0xFF, 0xFF, 0xFF, 0xFF, 0xFF, 0xFF, 0xFF, 0xF0, 
  0x7D, 0xFC, 0x1F, 0xFC, 0xFF, 0xFF, 0xFF, 0x7F, 0xFE, 0xFF, 0x7F, 0xF8, 
  0x00, 0xFC, 0xFF, 0x00, 0x0E, 0x33, 0xF8, 0xFF, 0xFF, 0x1F, 0xFF, 0xFF, 
  0xFF, 0xFF, 0xFF, 0xFF, 0xFF, 0xFF, 0xFF, 0xFF, 0xFF, 0xFF, 0xFF, 0xFF, 
  0x7F, 0x99, 0x9D, 0xFF, 0xFF, 0xEF, 0x32, 0x97, 0xC9, 0xB5, 0x77, 0xA5, 
  0xB7, 0x7F, 0x5D, 0xD7, 0x0F, 0xF6, 0xF5, 0xFF, 0xFF, 0xFF, 0xFF, 0xFF, 
  0xFF, 0xFF, 0xFF, 0x2B, 0x2A, 0xFD, 0x87, 0xFA, 0xFF, 0xFF, 0xFF, 0x7F, 
  0xFF, 0xFF, 0x1F, 0x76, 0xA9, 0xFA, 0xFF, 0xB5, 0x3F, 0xF7, 0xFE, 0xFF, 
  0xFF, 0x0F, 0xFE, 0xFF, 0xFF, 0xFF, 0xFF, 0xFF, 0xFF, 0xFF, 0xFF, 0xFF, 
  0xFF, 0xFF, 0xFF, 0xFF, 0xFF, 0xCC, 0xCC, 0xFF, 0xFF, 0x3F, 0x60, 0xCE, 
  0x9C, 0xE0, 0xFF, 0x99, 0xFF, 0x3F, 0x0C, 0x83, 0x03, 0xE7, 0xE1, 0xFF, 
  0xFF, 0xFF, 0xFF, 0xFF, 0xFF, 0xFF, 0xFF, 0x0F, 0xC3, 0xFF, 0xC3, 0xFF, 
  0xFF, 0xFF, 0xFF, 0xFF, 0xFF, 0xFF, 0x0F, 0x23, 0xF8, 0xFF, 0xFF, 0xFF, 
  0xFF, 0xFF, 0xFF, 0xFF, 0xFF, 0x03, 0xFF, 0xFF, 0xFF, 0xFF, 0xFF, 0xFF, 
  0xFF, 0xFF, 0xFF, 0xFF, 0xFF, 0xFF, 0xFF, 0xFF, 0xFF, 0xB9, 0x99, 0xFF, 
  0xFF, 0x7F, 0xB9, 0xAF, 0xD2, 0xE8, 0xD7, 0xDC, 0xFD, 0xBF, 0x88, 0x46, 
  0x87, 0xD8, 0xD8, 0xFD, 0xFF, 0xFF, 0xFF, 0xFF, 0xFF, 0xFF, 0xFF, 0x5F, 
  0x97, 0xFA, 0xA3, 0xFF, 0xFF, 0xFF, 0xFF, 0xFF, 0xFF, 0xFF, 0x1F, 0x5E, 
  0xFE, 0xFF, 0xFF, 0xFF, 0xFF, 0xFF, 0xFF, 0xFF, 0xFF, 0xA2, 0xFE, 0xDF, 
  0xFD, 0xFF, 0xFF, 0xFF, 0xFF, 0xFF, 0xFF, 0xFF, 0xFF, 0xFF, 0xFF, 0xFF, 
  0x9F, 0xFC, 0xCC, 0xFF, 0xFF, 0x9F, 0xFC, 0x33, 0x37, 0x98, 0x83, 0xF9, 
  0xF9, 0xCF, 0x81, 0x19, 0x9F, 0x9D, 0xCD, 0xFC, 0xFF, 0xFF, 0xFF, 0xFF, 
  0xFF, 0x9F, 0x88, 0xFF, 0x7F, 0xFC, 0xF0, 0xFF, 0xFF, 0xFF, 0xFF, 0xFF, 
  0xFF, 0xFF, 0x0F, 0x0F, 0xFE, 0xFF, 0xFF, 0xFF, 0xFF, 0xFF, 0xFF, 0xFF, 
  0x3F, 0xF0, 0xFF, 0xCF, 0xF8, 0xFF, 0xFF, 0xFF, 0xFF, 0xFF, 0xFF, 0xFF, 
  0xFF, 0xFF, 0xFF, 0xFF, 0xDF, 0xFA, 0xD9, 0xFF, 0xFF, 0x6F, 0x5D, 0x77, 
  0x74, 0xA6, 0xCF, 0x5F, 0xFE, 0xDD, 0xC8, 0x8C, 0xCE, 0xC8, 0x98, 0xF9, 
  0xFF, 0xFF, 0xFF, 0xFF, 0xFF, 0xCF, 0xDD, 0xFD, 0xBF, 0x54, 0xE1, 0xFF, 
  0xFF, 0xFF, 0xFF, 0xFF, 0xFF, 0xFF, 0x1F, 0x8E, 0xFF, 0xFF, 0xF7, 0xFF, 
  0xFF, 0xDD, 0xFD, 0xFF, 0x7F, 0xE8, 0xFF, 0x9D, 0xDD, 0xFF, 0xFF, 0xFF, 
  0xFF, 0xFF, 0xFF, 0xFF, 0xFF, 0xFF, 0xFF, 0xFF, 0x3F, 0xE6, 0xFC, 0xFF, 
  0xFF, 0x3F, 0x0E, 0xFE, 0x39, 0x73, 0x9E, 0x0F, 0xFF, 0xF8, 0x9C, 0xD9, 
  0xD8, 0x9C, 0x0D, 0xE6, 0xFF, 0xFF, 0xFF, 0xFF, 0xFF, 0xC8, 0x88, 0xF8, 
  0xFF, 0x03, 0xF6, 0xFF, 0xFF, 0xFF, 0xFF, 0xFF, 0xFF, 0xFF, 0x0F, 0xC3, 
  0xFF, 0x23, 0xF2, 0xFF, 0xFF, 0x99, 0xF8, 0xFF, 0x8F, 0xFD, 0xFF, 0xCC, 
  0x89, 0xFF, 0xFF, 0xFF, 0xFF, 0xFF, 0xFF, 0xFF, 0xFF, 0xFF, 0xFF, 0xFF, 
  0x77, 0xF3, 0xFD, 0xFF, 0xFF, 0xFF, 0x37, 0x7D, 0x74, 0xB5, 0xCF, 0x1F, 
  0xDE, 0xE9, 0xC9, 0xDE, 0xAD, 0xFB, 0x1A, 0xF7, 0xFF, 0x5F, 0xFD, 0xFF, 
  0xFF, 0x9D, 0xDD, 0xFD, 0xFF, 0xAF, 0xF5, 0xFF, 0xFF, 0xFF, 0xFF, 0xFF, 
  0xFF, 0xFF, 0x9F, 0x86, 0x7F, 0x77, 0xE7, 0xFF, 0xDF, 0xCC, 0xDD, 0xFF, 
  0x5D, 0xFD, 0xFF, 0x99, 0xDC, 0xFD, 0xFF, 0xFF, 0xFF, 0xFF, 0xFF, 0xFF, 
  0xFF, 0xFF, 0xFF, 0xFF, 0x33, 0x26, 0xFE, 0xFF, 0xFF, 0xFF, 0x63, 0x78, 
  0xF0, 0xF8, 0x9F, 0x0F, 0xCF, 0x80, 0x9C, 0xFF, 0xF8, 0xFF, 0x67, 0xFE, 
  0xFF, 0x1F, 0xE0, 0xFF, 0xFF, 0x89, 0x89, 0xF8, 0xFF, 0xFF, 0xF8, 0xFF, 
  0xFF, 0xFF, 0xFF, 0xFF, 0xFF, 0xFF, 0x9F, 0xD9, 0x3F, 0x23, 0x32, 0xFE, 
  0x9F, 0xD9, 0x88, 0xFF, 0x61, 0xFE, 0x8F, 0xCC, 0x99, 0xF8, 0xFF, 0xFF, 
  0xFF, 0xFF, 0xFF, 0xFF, 0xFF, 0xFF, 0xFF, 0xFF, 0x67, 0x79, 0xFF, 0xFF, 
  0xFF, 0xFF, 0x97, 0x9C, 0xE8, 0x7F, 0x4F, 0x17, 0x5E, 0xC9, 0xDD, 0xF5, 
  0xFF, 0xF7, 0x73, 0xFF, 0xFF, 0x27, 0xE8, 0xFF, 0xFF, 0x7C, 0xF6, 0xDD, 
  0xFF, 0xFF, 0xFC, 0xFF, 0xFF, 0xFF, 0xFF, 0x7F, 0x77, 0xFF, 0xCF, 0xA6, 
  0x7F, 0x76, 0x67, 0xFF, 0xCF, 0x8C, 0xDD, 0xFF, 0xA8, 0xFF, 0xDF, 0x99, 
  0xCC, 0xFD, 0xFF, 0xFF, 0xFF, 0xFF, 0xFF, 0xFF, 0xFF, 0xFF, 0xFF, 0xFF, 
  0xC3, 0xFC, 0xFF, 0xFF, 0xFF, 0xFF, 0xCC, 0xC9, 0x99, 0x7F, 0x1E, 0x66, 
  0x33, 0x98, 0xFF, 0xE1, 0x3F, 0xE6, 0xE7, 0xFF, 0xFF, 0x73, 0x98, 0xFF, 
  0x8F, 0x39, 0xE3, 0x98, 0xFF, 0x7F, 0xF8, 0xFF, 0xFF, 0xFF, 0xFF, 0x3F, 
  0x33, 0xFF, 0x9F, 0xF3, 0x3F, 0x27, 0x32, 0xFE, 0x9F, 0xD9, 0x8C, 0xFF, 
  0x99, 0xFF, 0x9F, 0xCC, 0xD9, 0xF8, 0xFF, 0xFF, 0xFF, 0xFF, 0xFF, 0xFF, 
  0xFF, 0xFF, 0xFF, 0xFF, 0x8F, 0xDD, 0xF7, 0xFF, 0xFF, 0xFF, 0x99, 0xDC, 
  0xCC, 0xBF, 0x2F, 0x33, 0x77, 0xA6, 0x7E, 0x72, 0x3D, 0x98, 0xF7, 0xFF, 
  0xFF, 0x4F, 0xE7, 0xFF, 0xDF, 0x56, 0xAD, 0xCD, 0xFF, 0x3F, 0xFC, 0xFF, 
  0xFF, 0xFF, 0xFF, 0x77, 0x66, 0xF6, 0xCF, 0xE7, 0x77, 0xB6, 0x75, 0xF7, 
  0xCD, 0xA5, 0xDD, 0xFD, 0xC4, 0xFF, 0xCF, 0xA9, 0x86, 0xFD, 0xFF, 0xFF, 
  0xFF, 0xFF, 0xFF, 0xFF, 0xFF, 0xFF, 0xFF, 0xFF, 0x7F, 0xCE, 0xE7, 0xFF, 
  0xFF, 0xFF, 0xCC, 0xF9, 0x99, 0xFF, 0x7F, 0x66, 0x3E, 0x73, 0x3F, 0x37, 
  0x08, 0x0C, 0xFE, 0xFF, 0xFF, 0x9F, 0xF3, 0xFF, 0x8F, 0xC3, 0x18, 0x9E, 
  0xFF, 0x7F, 0xF8, 0xFF, 0xFF, 0xFF, 0xFF, 0x33, 0x33, 0xF3, 0x9F, 0xF3, 
  0x33, 0xCF, 0x38, 0xE2, 0x98, 0x73, 0x8E, 0xF8, 0x81, 0xFF, 0x9F, 0x30, 
  0xC3, 0xF9, 0xFF, 0x89, 0xF8, 0xFF, 0xFF, 0xFF, 0xFF, 0xFF, 0xFF, 0xFF, 
  0x7B, 0x8B, 0xDA, 0xFF, 0xFF, 0xFF, 0x9D, 0xFF, 0xEC, 0xFF, 0x3F, 0x9A, 
  0x7F, 0x26, 0x7E, 0xA2, 0x9E, 0x58, 0xFA, 0xFF, 0xFF, 0x47, 0xC1, 0xFF, 
  0xBF, 0x95, 0x4B, 0xEB, 0xFF, 0x17, 0xFD, 0xFF, 0xFF, 0xFF, 0xFF, 0x67, 
  0x66, 0xE6, 0x4F, 0xE7, 0x67, 0xAD, 0x6D, 0xF7, 0x5D, 0xA7, 0xDA, 0xFD, 
  0xC8, 0xFF, 0x5F, 0xA5, 0xAA, 0xFE, 0xFF, 0xDC, 0xDD, 0xFF, 0xFF, 0xFF, 
  0xFF, 0xFF, 0xFF, 0xFF, 0xE0, 0x00, 0x8C, 0xFF, 0xFF, 0xFF, 0xCF, 0xFF, 
  0xF9, 0xFF, 0x7F, 0xCC, 0x3F, 0x63, 0x8F, 0xC1, 0x8F, 0x31, 0xFC, 0xFF, 
  0xFF, 0x03, 0x80, 0xFF, 0x7F, 0x78, 0xF6, 0xE0, 0xFF, 0x07, 0xFE, 0xFF, 
  0xFF, 0xFF, 0xFF, 0x33, 0x33, 0xF3, 0x1F, 0xF3, 0xF3, 0x30, 0xC3, 0xE3, 
  0x79, 0x98, 0xE1, 0xF9, 0x9D, 0xFF, 0x7F, 0xDE, 0x7C, 0xFE, 0x8F, 0x8C, 
  0xC8, 0xFF, 0xFF, 0xFF, 0xFF, 0xFF, 0xFF, 0xFF, 0xA0, 0x05, 0x48, 0xFD, 
  0xFF, 0xFF, 0xDF, 0xFF, 0xFD, 0xFF, 0xBF, 0x98, 0x7F, 0xB7, 0xFF, 0x80, 
  0xDD, 0x62, 0xFC, 0xFF, 0xFF, 0x07, 0xC0, 0xFF, 0x7F, 0xAD, 0xE8, 0xFA, 
  0x5F, 0x61, 0xFF, 0xFF, 0xFF, 0xFF, 0xFF, 0xE7, 0xB6, 0xE7, 0x0F, 0xE6, 
  0xD7, 0x52, 0x96, 0xFB, 0xA6, 0xAA, 0x5A, 0xFE, 0xC8, 0xFF, 0xFF, 0x4A, 
  0x89, 0xFF, 0xDF, 0xD9, 0x9D, 0xFF, 0xFF, 0xFF, 0xFF, 0xFF, 0xFF, 0xFF, 
  0x00, 0x1E, 0x00, 0xF8, 0xFF, 0xFF, 0xFF, 0xFF, 0xFF, 0xFF, 0xFF, 0xCC, 
  0xFF, 0xE3, 0xFF, 0xDC, 0x8D, 0xF3, 0xF9, 0xFF, 0xFF, 0x03, 0x80, 0xFF, 
  0xFF, 0x83, 0x0D, 0xFF, 0x1F, 0xF0, 0xFF, 0xFF, 0xFF, 0xFF, 0x3F, 0xF2, 
  0xC9, 0x33, 0x1E, 0x83, 0x0F, 0x8F, 0x79, 0xFC, 0x83, 0x67, 0x0F, 0xFF, 
  0x9C, 0xFF, 0xFF, 0x31, 0xC6, 0xFF, 0x88, 0x8C, 0xC8, 0xF9, 0xFF, 0xFF, 
  0xFF, 0xFF, 0xFF, 0xFF, 0x00, 0x1F, 0x00, 0x54, 0xFF, 0xFF, 0xFF, 0xFF, 
  0xFF, 0xDF, 0xFF, 0x99, 0xF7, 0xFF, 0x7F, 0x8D, 0xDD, 0xE7, 0xFD, 0xFF, 
  0xFF, 0x27, 0xC8, 0xFF, 0xFF, 0xD7, 0x9D, 0xFE, 0x05, 0xEA, 0xFF, 0xFF, 
  0xFF, 0xFF, 0x7F, 0x57, 0x96, 0x6A, 0x8F, 0xC6, 0x3F, 0x5D, 0x95, 0xFC, 
  0x6F, 0x19, 0xB6, 0xFE, 0x51, 0xFF, 0xFF, 0xF2, 0xD7, 0xFF, 0xDD, 0xD9, 
  0x9E, 0xFC, 0xFF, 0xFF, 0xFF, 0xFF, 0xFF, 0xFF, 0x00, 0x7E, 0x00, 0x00, 
  0xFE, 0xFF, 0xFF, 0xFF, 0xFF, 0x9F, 0xFF, 0xCC, 0xF3, 0xFF, 0x7F, 0xDE, 
  0x8F, 0xF3, 0xFF, 0xFF, 0xFF, 0x67, 0x9C, 0xFF, 0xFF, 0xFF, 0xFF, 0xFF, 
  0x00, 0xFF, 0xFF, 0xFF, 0xFF, 0xFF, 0x3F, 0x0E, 0x63, 0x7C, 0x9E, 0x99, 
  0xFF, 0x30, 0xC3, 0xFF, 0x3F, 0xCC, 0xE1, 0xFF, 0x60, 0xFE, 0xFF, 0xFF, 
  0xFF, 0xFF, 0x88, 0x37, 0xCF, 0xF9, 0xFF, 0xFF, 0xFF, 0xFF, 0xFF, 0xFF, 
  0xA8, 0x5F, 0x01, 0x00, 0xD5, 0xFF, 0xFF, 0xFF, 0xFF, 0xED, 0xDF, 0x8D, 
  0xEF, 0xFE, 0xBF, 0xAF, 0xFF, 0xF7, 0xFF, 0xFF, 0xFF, 0xB7, 0xFA, 0xFF, 
  0xFF, 0x7F, 0xB5, 0xAA, 0xA8, 0xFE, 0xFF, 0xFF, 0xFF, 0xFF, 0xFF, 0xAD, 
  0x96, 0xAA, 0xDF, 0xD5, 0xFF, 0xF3, 0x8E, 0xFF, 0x7F, 0xDC, 0xF5, 0xFF, 
  0x93, 0x55, 0x55, 0xED, 0xFF, 0xFF, 0x5D, 0x69, 0xCA, 0xFC, 0xFF, 0xFF, 
  0xFF, 0xFF, 0xFF, 0xFF, 0xFC, 0x8F, 0x07, 0x00, 0xC0, 0xFF, 0xFF, 0xFF, 
  0xFF, 0xF8, 0xCF, 0xC3, 0x3F, 0xF8, 0xFF, 0xFF, 0xFF, 0xFF, 0xFF, 0xFF, 
  0xFF, 0xFF, 0xFF, 0xFF, 0xFF, 0x7F, 0x00, 0x00, 0xFC, 0xFF, 0xFF, 0xFF, 
  0xFF, 0xFF, 0xFF, 0xF0, 0xCC, 0x83, 0xFF, 0x33, 0xE2, 0xFF, 0xCF, 0xFF, 
  0x3F, 0xFF, 0xFF, 0xFF, 0xC7, 0x00, 0x00, 0x80, 0xFF, 0xFF, 0x39, 0x9C, 
  0xF1, 0xF9, 0xFF, 0xFF, 0xFF, 0xFF, 0xFF, 0xFF, 0xFA, 0xFF, 0x05, 0x00, 
  0x80, 0xFA, 0xFF, 0xFF, 0xF5, 0x5F, 0xBD, 0x82, 0x3F, 0xAA, 0xFF, 0xFF, 
  0xFF, 0xFF, 0xFF, 0xFF, 0xFF, 0xFF, 0xF7, 0xFF, 0xFF, 0xAF, 0xAA, 0xAA, 
  0xFA, 0xFF, 0xFF, 0xFF, 0xFF, 0xFF, 0xFF, 0xA5, 0x59, 0xD5, 0x7F, 0x67, 
  0xE7, 0xFE, 0x5F, 0xFD, 0xBF, 0xFE, 0xFF, 0xFF, 0x83, 0x23, 0x22, 0xA2, 
  0xFA, 0x5F, 0x76, 0x51, 0xD2, 0xF5, 0xFF, 0xFF, 0xFF, 0xFF, 0xFF, 0xFF, 
  0xFF, 0xFF, 0x18, 0x00, 0x00, 0xE0, 0xFF, 0xFF, 0xF0, 0x1F, 0x78, 0x00, 
  0x0E, 0xC6, 0xFF, 0xFF, 0xFF, 0xFF, 0xFF, 0xFF, 0xFF, 0x8F, 0xE7, 0xFF, 
  0xFF, 0x83, 0xFF, 0xFF, 0xFF, 0xFF, 0xFF, 0xFF, 0xFF, 0xFF, 0xFF, 0x1F, 
  0x36, 0xFC, 0x3F, 0x73, 0x32, 0xFF, 0x3F, 0xF8, 0xCF, 0xFF, 0xFF, 0xFF, 
  0xC7, 0x67, 0x66, 0x66, 0xE0, 0x0F, 0x83, 0x27, 0x8F, 0x37, 0xFE, 0xFF, 
  0xFF, 0xFF, 0xFF, 0xFF, 0x77, 0xFD, 0x06, 0x00, 0x00, 0xA0, 0xFF, 0xDF, 
  0xE1, 0x27, 0x34, 0x22, 0x9F, 0x49, 0xFF, 0xFF, 0xFF, 0xFF, 0xFF, 0xFF, 
  0xFF, 0x5F, 0xD9, 0xFF, 0xFF, 0xD7, 0xFF, 0xFF, 0xFF, 0xFF, 0xFF, 0xFF, 
  0xFF, 0xFF, 0xFF, 0xAD, 0xEB, 0xFA, 0x77, 0x26, 0x67, 0xFE, 0xFF, 0x56, 
  0x8D, 0xFF, 0xFF, 0xFF, 0x8B, 0x77, 0xB7, 0x3B, 0x44, 0x8F, 0xAE, 0xBA, 
  0x7E, 0x63, 0xF7, 0xFF, 0xFF, 0xFF, 0xFF, 0xFF, 0x33, 0x38, 0x03, 0x00, 
  0x00, 0x00, 0xFE, 0x0F, 0x86, 0x73, 0x20, 0x67, 0xCE, 0x7C, 0xFE, 0xFF, 
  0xFF, 0xFF, 0xFF, 0xFF, 0xFF, 0x23, 0x8C, 0xFF, 0xFF, 0xF8, 0xFF, 0xFF, 
  0xFF, 0xFF, 0xFF, 0xFF, 0xFF, 0xFF, 0x8F, 0xF8, 0xFF, 0xFF, 0x33, 0x73, 
  0x32, 0xE3, 0xFF, 0x03, 0x00, 0xFE, 0xFF, 0xFF, 0xDF, 0xFF, 0xFF, 0x7F, 
  0x03, 0xC2, 0x7F, 0xCC, 0x3C, 0x76, 0xF2, 0xFF, 0xFF, 0xFF, 0xFF, 0xFF, 
  0x67, 0x7E, 0x2E, 0x00, 0x00, 0x80, 0xFF, 0x8F, 0xCA, 0x35, 0x72, 0xB2, 
  0x15, 0x39, 0xFF, 0xFF, 0xFF, 0xFF, 0xFF, 0xFF, 0xFF, 0xFF, 0xFE, 0xFF, 
  0xFF, 0xFF, 0xFF, 0xFF, 0xFF, 0xFF, 0xFF, 0xFF, 0xFF, 0xFF, 0xDF, 0xDD, 
  0xFD, 0xFF, 0x67, 0xA6, 0x75, 0xF6, 0xFF, 0x23, 0x82, 0xFD, 0xFF, 0xFF, 
  0x8F, 0xFD, 0xFF, 0xBF, 0x27, 0xA5, 0xBF, 0xDC, 0x79, 0x23, 0xE7, 0xFF, 
  0xFF, 0xFF, 0xFF, 0xFF, 0x33, 0x3F, 0x7F, 0x00, 0x00, 0xC0, 0xFF, 0x83, 
  0x99, 0x39, 0x27, 0xF7, 0x00, 0x66, 0xFE, 0xFF, 0xFF, 0xFF, 0xFF, 0xFF, 
  0xFF, 0xFF, 0xFF, 0xFF, 0xFF, 0xFF, 0xFF, 0xFF, 0xFF, 0xFF, 0xFF, 0xFF, 
  0xFF, 0xFF, 0x88, 0xC8, 0xF8, 0xFF, 0x33, 0xDF, 0x38, 0xE3, 0xFF, 0x30, 
  0xC3, 0xF8, 0xFF, 0xFF, 0xDF, 0xFC, 0xFF, 0xFF, 0x63, 0xF0, 0xFF, 0xFF, 
  0x27, 0x72, 0x72, 0xFE, 0xFF, 0xFF, 0xFF, 0xFF, 0xE7, 0x7C, 0x7E, 0x01, 
  0x00, 0x2A, 0xFF, 0x67, 0xE6, 0x5E, 0x5A, 0xE3, 0x08, 0x73, 0xFF, 0xFF, 
  0xFF, 0xFF, 0xFF, 0xFF, 0xFF, 0x73, 0x5D, 0xFF, 0xFF, 0xFF, 0xFF, 0xFF, 
  0xFF, 0xFF, 0xFF, 0xFF, 0xFF, 0xFF, 0xDD, 0x9D, 0xFD, 0xFF, 0x67, 0xA5, 
  0xAD, 0xF7, 0xFF, 0xE8, 0x8E, 0xF6, 0xFF, 0xFF, 0xC7, 0xF9, 0xFF, 0xFF, 
  0x3F, 0xE2, 0xFF, 0xFF, 0x73, 0x57, 0x27, 0xFF, 0xFF, 0xFF, 0xFF, 0xFF, 
  0xF3, 0x3D, 0xFF, 0x07, 0x00, 0x7F, 0xFE, 0x33, 0xF3, 0x9F, 0x8D, 0x37, 
  0x18, 0xE6, 0xFF, 0xFF, 0xFF, 0xFF, 0xFF, 0xFF, 0xFF, 0x30, 0x08, 0xFE, 
  0xFF, 0xFF, 0xFF, 0xFF, 0xFF, 0xFF, 0xFF, 0xFF, 0xFF, 0xFF, 0x89, 0xC8, 
  0xF9, 0xFF, 0xF3, 0x30, 0xC3, 0xE3, 0x3F, 0xFC, 0x0F, 0xE7, 0xFF, 0xFF, 
  0x83, 0xFC, 0xFF, 0xFF, 0x3F, 0xF3, 0xFF, 0xFF, 0x37, 0xCE, 0x73, 0xFE, 
  0xFF, 0xFF, 0xFF, 0xFF, 0x6B, 0xB8, 0xF6, 0x15, 0x28, 0x9C, 0xFF, 0x77, 
  0x76, 0xCD, 0x49, 0x7B, 0x26, 0xF7, 0xFF, 0xFF, 0xFF, 0xFF, 0xFF, 0xFF, 
  0xFF, 0x69, 0x15, 0xF7, 0xFF, 0xFF, 0xFF, 0xFF, 0xFF, 0xFF, 0xFF, 0xFF, 
  0xFF, 0xDF, 0x7C, 0xAB, 0xDC, 0xFF, 0xD7, 0x55, 0x96, 0xF6, 0x3F, 0xFA, 
  0x1F, 0xF2, 0xFF, 0xFF, 0x63, 0xF9, 0xFF, 0xFF, 0x7F, 0xE5, 0xFF, 0xFF, 
  0xE3, 0x9A, 0x35, 0xFF, 0xFF, 0xFF, 0xFF, 0xFF, 0x3C, 0xCC, 0xE7, 0x79, 
  0x3C, 0xCC, 0xFF, 0x3F, 0x3F, 0x98, 0x07, 0x3E, 0x73, 0xFE, 0xFF, 0xFF, 
  0xFF, 0xFF, 0xFF, 0xFF, 0x8F, 0x98, 0x73, 0xF3, 0xFF, 0xFF, 0xFF, 0xFF, 
  0xFF, 0xFF, 0xFF, 0xFF, 0xFF, 0x9F, 0x39, 0xF6, 0x99, 0xFF, 0x0F, 0x8E, 
  0x79, 0xF8, 0x0F, 0xFF, 0x7F, 0xE7, 0xFF, 0xFF, 0x30, 0xFC, 0xFF, 0xFF, 
  0xFF, 0x98, 0xFF, 0xFF, 0xF7, 0x61, 0x78, 0xFE, 0xFF, 0xFF, 0xFF, 0xFF, 
  0x74, 0x9A, 0xF3, 0x5E, 0x69, 0xD9, 0xFF, 0x7F, 0xDF, 0xDC, 0x89, 0x77, 
  0x66, 0xFF, 0xF7, 0xFF, 0x7D, 0xFF, 0xFF, 0xFF, 0xDF, 0x66, 0xA7, 0xE6, 
  0xFF, 0xFF, 0xFF, 0xFD, 0xFF, 0xFF, 0xFF, 0xFF, 0xFF, 0xCF, 0xD5, 0x52, 
  0xCD, 0xFF, 0xBF, 0x5D, 0x95, 0xFE, 0x8F, 0xFE, 0x3F, 0xF6, 0xFF, 0xFF, 
  0xA8, 0xFC, 0xFF, 0xFF, 0xFF, 0x57, 0xFF, 0xFF, 0x2B, 0x55, 0xCB, 0xFF, 
  0xFF, 0xFF, 0xFF, 0xFF, 0x33, 0xCF, 0xE7, 0x9F, 0x87, 0xE7, 0xFF, 0xFF, 
  0x9F, 0xF9, 0xDC, 0x23, 0xF3, 0xE3, 0xF3, 0xFF, 0x7C, 0xFE, 0xFF, 0xFF, 
  0x23, 0x33, 0x98, 0x99, 0xFF, 0xFF, 0xFF, 0x3C, 0xFE, 0x8F, 0x8F, 0xFF, 
  0xFF, 0x9F, 0x87, 0x0D, 0x9E, 0xFF, 0xFF, 0x30, 0xC3, 0xFF, 0xC3, 0xFF, 
  0x7F, 0xE3, 0xFF, 0x3F, 0xCC, 0xFF, 0xFF, 0xFF, 0xFF, 0x33, 0xFF, 0xFF, 
  0x1F, 0x9E, 0x87, 0xFF, 0xFF, 0xFF, 0xFF, 0xFF, 0x6F, 0x9E, 0x7D, 0xCF, 
  0x69, 0xF7, 0xFF, 0xFF, 0x67, 0xF6, 0x89, 0x7F, 0xF6, 0xD7, 0x77, 0xFF, 
  0x39, 0xF7, 0xFF, 0xFF, 0xB7, 0xE6, 0xCE, 0xAA, 0xFF, 0xFF, 0xDF, 0x79, 
  0xFF, 0xBF, 0xDF, 0xFD, 0xFF, 0xBF, 0x6A, 0xAC, 0xEB, 0xFF, 0xFF, 0xF5, 
  0xAE, 0xFF, 0xA3, 0xFF, 0x3F, 0xF6, 0xFF, 0x37, 0xDA, 0xFF, 0xFF, 0xFF, 
  0xFF, 0x27, 0xFE, 0xFF, 0xEF, 0xAA, 0xF4, 0xFF, 0xFF, 0xFF, 0xFF, 0xFF, 
  0x3F, 0x8F, 0x39, 0xDF, 0x3C, 0xFE, 0xFF, 0xFF, 0x33, 0xF3, 0xDC, 0x3F, 
  0x3F, 0xCE, 0x38, 0x8F, 0x67, 0xF3, 0xFF, 0xFF, 0xC9, 0xF3, 0x9F, 0x67, 
  0xFE, 0xFF, 0xCF, 0x9C, 0xE3, 0x78, 0xE2, 0xF9, 0xFF, 0x7F, 0x3C, 0xF3, 
  0xF0, 0xFF, 0xFF, 0xFF, 0xFF, 0xFF, 0xF0, 0xFF, 0x7F, 0xE7, 0xFF, 0x03, 
  0xE6, 0xFF, 0xFF, 0xFF, 0xFF, 0x1F, 0xFF, 0xFF, 0xFF, 0x61, 0xF8, 0xFF, 
  0xFF, 0xFF, 0xFF, 0xFF, 0x7F, 0x5E, 0x7C, 0xA6, 0x79, 0xFF, 0xFF, 0xFF, 
  0x67, 0xE6, 0xAD, 0x77, 0x7F, 0x9F, 0x54, 0x5F, 0x03, 0xE2, 0xFF, 0x7F, 
  0xD4, 0xAB, 0x57, 0x17, 0xFE, 0xFF, 0x9D, 0xC0, 0xFB, 0x0B, 0x75, 0xFE, 
  0xFF, 0xBF, 0x58, 0xAB, 0xE0, 0xFF, 0xFA, 0xFF, 0xFB, 0xFF, 0xE8, 0xFF, 
  0x1F, 0xF2, 0x5F, 0x23, 0xFB, 0xFF, 0xFF, 0xFF, 0xFF, 0x0F, 0xAA, 0xEA, 
  0xFF, 0x9A, 0xFE, 0xF7, 0xFF, 0xFF, 0xFF, 0xFF, 0x3F, 0x67, 0x38, 0xF3, 
  0x9C, 0xFF, 0xFF, 0xFF, 0x33, 0xF3, 0xFF, 0xE7, 0xFF, 0x08, 0xC0, 0x7F, 
  0x06, 0x30, 0xFE, 0x7F, 0xE0, 0xCC, 0x63, 0x1E, 0xF8, 0xFF, 0x0C, 0x80, 
  0xFC, 0x07, 0x20, 0xFF, 0xFF, 0xFF, 0xC7, 0x18, 0xF0, 0x3F, 0xE0, 0xFF, 
  0xE0, 0x3F, 0xFC, 0xFF, 0x0F, 0xE7, 0x0F, 0x60, 0xFE, 0xFF, 0xFF, 0xFF, 
  0xFF, 0x1F, 0x00, 0x80, 0xFF, 0xCF, 0xFF, 0x33, 0xFE, 0xFF, 0xFF, 0xFF, 
  0x7F, 0x32, 0x7C, 0xE7, 0xED, 0xFF, 0xFF, 0xFF, 0x77, 0xF6, 0xFF, 0xD9, 
  0xDF, 0x89, 0x8A, 0xAE, 0x51, 0x61, 0xFF, 0x9F, 0x78, 0x91, 0x12, 0x2D, 
  0xF6, 0xFF, 0x8B, 0x4A, 0xE9, 0x61, 0x21, 0xF6, 0xFF, 0xFF, 0xA7, 0xAF, 
  0xE2, 0x3F, 0x7A, 0x55, 0xA1, 0x5E, 0xFC, 0xFF, 0x9F, 0x7A, 0x0D, 0xB2, 
  0xFF, 0xFF, 0xFF, 0xFF, 0xFF, 0x5F, 0xA8, 0x82, 0xFA, 0xAF, 0x7F, 0x67, 
  0xF7, 0xFF, 0xFF, 0xFF, 0x3F, 0x67, 0xF8, 0x73, 0xFE, 0xFF, 0xFF, 0xFF, 
  0x3F, 0xFF, 0xFF, 0x8D, 0xCF, 0xC0, 0x0F, 0xC3, 0xE0, 0x87, 0xFF, 0xCF, 
  0x3D, 0x00, 0x00, 0x78, 0xE3, 0xFF, 0xC7, 0x1F, 0x86, 0xF0, 0x07, 0xE7, 
  0xFF, 0xFF, 0xFF, 0xFF, 0xF3, 0x0F, 0x3F, 0x00, 0x00, 0x08, 0xFF, 0xFF, 
  0xCF, 0x3C, 0x00, 0xE6, 0xFF, 0xFF, 0xFF, 0xFF, 0xFF, 0x3F, 0xFC, 0x07, 
  0xFC, 0xF3, 0x3F, 0x72, 0xF2, 0xFF, 0xFF, 0xFF, 0x7F, 0x32, 0xDD, 0x67, 
  0x7D, 0xD5, 0xFF, 0xFF, 0x7F, 0xFF, 0xFF, 0xDC, 0xBF, 0xA1, 0x1F, 0x96, 
  0xF4, 0x97, 0xFF, 0x0F, 0xBA, 0x48, 0x55, 0x76, 0xE5, 0xFF, 0xA1, 0x1F, 
  0xE9, 0xE1, 0x17, 0xFE, 0xFF, 0xFF, 0xFF, 0xFF, 0xE7, 0x5F, 0x57, 0xAA, 
  0xAA, 0x08, 0xFF, 0xFF, 0x8F, 0x29, 0x20, 0xF7, 0xFF, 0xFF, 0xFF, 0xFF, 
  0xFF, 0x7F, 0xFD, 0x2B, 0xA8, 0xF6, 0x77, 0x27, 0xE7, 0xFF, 0xFF, 0xFF, 
  0x3F, 0x67, 0xCE, 0xF3, 0x39, 0x80, 0xFF, 0xFF, 0xFF, 0xFF, 0xFF, 0x89, 
  0xFF, 0xF1, 0x0F, 0x7F, 0xFC, 0x0F, 0xFE, 0x03, 0xCF, 0xFC, 0x3F, 0xE3, 
  0x80, 0xFF, 0xF0, 0x7F, 0xFC, 0xF0, 0x0F, 0xFF, 0xFF, 0xFF, 0xFF, 0xFF, 
  0x9F, 0xFF, 0x03, 0xFE, 0xFF, 0xC1, 0xFF, 0xFF, 0xC3, 0x07, 0x70, 0xFE, 
  0xFF, 0xFF, 0xFF, 0xFF, 0xFF, 0xFF, 0xFF, 0x7F, 0x00, 0xF8, 0x33, 0x72, 
  0x72, 0xFE, 0xFF, 0xFF, 0xBF, 0x3A, 0x9F, 0xA7, 0x3F, 0x40, 0xFD, 0xFF, 
  0xFF, 0xFF, 0xFF, 0xDC, 0x7F, 0xE2, 0x1F, 0x3E, 0xFA, 0x9F, 0xFF, 0x87, 
  0x8E, 0xB0, 0x2A, 0xD2, 0xA3, 0xFF, 0xE3, 0x7F, 0xF8, 0xE1, 0x1F, 0xFA, 
  0xFF, 0xFF, 0xFF, 0xFF, 0x5F, 0xF5, 0xAD, 0xFF, 0xFF, 0xD6, 0xFF, 0xFF, 
  0xA7, 0x22, 0x62, 0xFF, 0xFF, 0xFF, 0xFF, 0xFF, 0xFF, 0xFF, 0xFF, 0xBF, 
  0x0A, 0xFE, 0x67, 0xA7, 0x27, 0xFF, 0xFF, 0xFF, 0x9F, 0x79, 0xCF, 0xDF, 
  0x0F, 0x00, 0xF8, 0xFF, 0xFF, 0xFF, 0xFF, 0x8D, 0x7F, 0xF3, 0x0F, 0x7F, 
  0xFF, 0xCF, 0xFF, 0xD8, 0x07, 0x00, 0x00, 0xC0, 0x73, 0xFE, 0xF3, 0xFF, 
  0xFD, 0xF0, 0xCF, 0xFD, 0xFF, 0xFF, 0xFF, 0xFF, 0x7F, 0xF0, 0xF9, 0xFF, 
  0xFF, 0xFF, 0xFF, 0xFF, 0x33, 0x60, 0xF3, 0xFF, 0xFF, 0xFF, 0xFF, 0xFF, 
  0xFF, 0xFF, 0xFF, 0xFF, 0x1F, 0xFF, 0x73, 0xCE, 0x73, 0xFE, 0xFF, 0xFF, 
  0x5F, 0x1E, 0xDE, 0xAD, 0x16, 0x28, 0xF4, 0xFF, 0xFF, 0xFF, 0xFF, 0xD8, 
  0x3F, 0xE6, 0x8F, 0x3E, 0xFE, 0xAF, 0xDF, 0xA8, 0x89, 0xAA, 0x5A, 0x85, 
  0x27, 0xFA, 0xD7, 0xFF, 0xF8, 0xE1, 0x9F, 0xF8, 0xFF, 0xFF, 0xFF, 0xFF, 
  0xBF, 0xAA, 0xF6, 0xFF, 0xFF, 0xFF, 0xFF, 0xFF, 0x22, 0x98, 0xF6, 0xFF, 
  0xFF, 0xFF, 0xFF, 0xFF, 0xFF, 0xFF, 0xFF, 0xFF, 0x2F, 0xFC, 0x67, 0x9D, 
  0x32, 0xFF, 0xFF, 0xFF, 0x3F, 0x0F, 0xFF, 0x39, 0x03, 0x7C, 0xE0, 0xFF, 
  0xFF, 0xFF, 0xFF, 0x9D, 0x7F, 0xF3, 0xC3, 0x7F, 0xFF, 0xF3, 0x0F, 0xF0, 
  0xCD, 0xFF, 0xFF, 0x73, 0x1E, 0xE0, 0xCF, 0xFF, 0xFD, 0x87, 0x8F, 0xFD, 
  0xFF, 0xFF, 0xFF, 0xFF, 0xFF, 0x0F, 0xE3, 0xFF, 0xFF, 0xFF, 0xFF, 0x3F, 
  0x00, 0xCC, 0xFF, 0xFF, 0xFF, 0xFF, 0xFF, 0xFF, 0xFF, 0xFF, 0xFF, 0xFF, 
  0x7F, 0xF8, 0xF3, 0x61, 0x7C, 0xFE, 0xFF, 0xFF, 0x7F, 0x9E, 0xF6, 0x54, 
  0x56, 0xB8, 0xFA, 0xFF, 0xFF, 0xFF, 0xFF, 0xC8, 0xBF, 0xD6, 0xD7, 0x7F, 
  0xFD, 0xF7, 0x8D, 0x70, 0x08, 0x55, 0x55, 0x23, 0x2E, 0xA2, 0xDF, 0x7F, 
  0xFE, 0xD7, 0x6F, 0xFA, 0xFF, 0xFF, 0xFF, 0xFF, 0xFF, 0x1E, 0xF6, 0xFF, 
  0xFF, 0xFF, 0xFF, 0x2F, 0x88, 0xDA, 0xFF, 0xFF, 0xFF, 0xFF, 0xFF, 0xFF, 
  0xFF, 0xFF, 0xFF, 0xFF, 0xBF, 0x54, 0xA7, 0x2A, 0x55, 0xFF, 0xFF, 0xFF, 
  0x3F, 0x8F, 0xE1, 0x01, 0xF8, 0xE1, 0xFF, 0xFF, 0xFF, 0xFF, 0xFF, 0x9D, 
  0xFF, 0xC9, 0xFF, 0xFF, 0xFC, 0xFF, 0x80, 0x3D, 0x00, 0x00, 0x00, 0x00, 
  0x78, 0x06, 0xFE, 0x3F, 0xFF, 0xFF, 0x33, 0xFF, 0xFF, 0xFF, 0xFF, 0xFF, 
  0x3F, 0xC8, 0xFD, 0xFF, 0xFF, 0xFF, 0xFF, 0x03, 0xCC, 0xFF, 0xFF, 0xFF, 
  0xFF, 0xFF, 0xFF, 0xFF, 0xFF, 0xFF, 0xFF, 0xFF, 0xFF, 0x01, 0x1F, 0xDE, 
  0x83, 0xFF, 0xFF, 0xFF, 0xBF, 0xCE, 0xF0, 0x08, 0x7A, 0xF5, 0xFF, 0xFF, 
  0xFF, 0xFF, 0xFF, 0x48, 0xFF, 0x54, 0xFF, 0xFF, 0xF9, 0xDF, 0x48, 0x3A, 
  0xA2, 0xAA, 0xAA, 0x84, 0xB8, 0x21, 0xFA, 0x7F, 0xFE, 0xFF, 0x55, 0xFE, 
  0xFF, 0xFF, 0xFF, 0xFF, 0xFF, 0xD6, 0xF8, 0xFF, 0xFF, 0xFF, 0xFF, 0x83, 
  0xD8, 0xFF, 0xFF, 0xFF, 0xFF, 0xFF, 0xFF, 0xFF, 0xFF, 0xFF, 0xFF, 0xFF, 
  0xFF, 0xA0, 0x5E, 0x45, 0xEB, 0xFF, 0xFF, 0xFF, 0xCF, 0x83, 0xE1, 0x19, 
  0x26, 0xFE, 0xFF, 0xFF, 0xFF, 0xFF, 0xFF, 0x1D, 0xFE, 0x31, 0xFF, 0xFF, 
  0xFC, 0x0F, 0x18, 0x0F, 0xF7, 0xFF, 0xFF, 0x9F, 0xE1, 0x70, 0xE0, 0x3F, 
  0xFF, 0xFF, 0x0C, 0xFF, 0xFF, 0xFF, 0xFF, 0xFF, 0xFF, 0xE3, 0xFC, 0xFF, 
  0xFF, 0xFF, 0xFF, 0xC0, 0xFD, 0xFF, 0xFF, 0xFF, 0xFF, 0xFF, 0xFF, 0xFF, 
  0xFF, 0xFF, 0xFF, 0xFF, 0xFF, 0xF1, 0xFF, 0x30, 0xFC, 0xFF, 0xFF, 0xFF, 
  0xDF, 0x63, 0x58, 0x86, 0xD9, 0xFF, 0xFF, 0xFF, 0xFF, 0xFF, 0xFF, 0x28, 
  0xFF, 0x61, 0xFE, 0xFF, 0xFD, 0x96, 0xA4, 0x0E, 0xA0, 0x55, 0x55, 0x4B, 
  0xE0, 0x05, 0xA2, 0x5E, 0xFF, 0xFF, 0x09, 0xFF, 0xFF, 0xFF, 0xFF, 0xFF, 
  0x55, 0x7D, 0xFD, 0xFF, 0xFF, 0xFF, 0xD5, 0x88, 0xFD, 0xFF, 0xFF, 0xFF, 
  0xFF, 0xFF, 0xFF, 0xFF, 0xFF, 0xFF, 0xFF, 0xFF, 0xFF, 0x41, 0xFF, 0xFB, 
  0xFC, 0xFF, 0xFF, 0xFF, 0xFF, 0x30, 0x0C, 0xC3, 0x8C, 0xFF, 0xFF, 0xFF, 
  0xFF, 0xFF, 0xFF, 0x61, 0xFE, 0x87, 0xF9, 0xFF, 0x23, 0x80, 0xF1, 0x07, 
  0x00, 0x00, 0x00, 0x00, 0x80, 0x1F, 0x07, 0x98, 0xFF, 0x3F, 0xC6, 0xFF, 
  0xFF, 0xFF, 0xFF, 0xFF, 0x01, 0x38, 0xFF, 0xFF, 0xFF, 0xFF, 0x00, 0xCC, 
  0xFF, 0xFF, 0xFF, 0xFF, 0xFF, 0xFF, 0xFF, 0xFF, 0xFF, 0xFF, 0xFF, 0xFF, 
  0xFF, 0x07, 0xFF, 0xFF, 0xFF, 0xFF, 0xFF, 0xFF, 0xFF, 0x28, 0x18, 0xAE, 
  0xF9, 0xFF, 0xFF, 0xFF, 0xFF, 0xFD, 0xFF, 0x32, 0xFF, 0x87, 0xAA, 0xEA, 
  0x6F, 0x88, 0x72, 0x21, 0xAA, 0xAA, 0xAA, 0xAA, 0x48, 0xBB, 0x20, 0xEA, 
  0x57, 0xB5, 0xA2, 0xFF, 0xFF, 0xFF, 0xFF, 0x57, 0xAA, 0x7E, 0xFE, 0x7F, 
  0x55, 0xD5, 0x80, 0xD8, 0xFF, 0xFF, 0xFF, 0xFF, 0xFF, 0xFF, 0xFF, 0xFF, 
  0xFF, 0xFF, 0xFF, 0xFF, 0xFF, 0x17, 0xEA, 0xFF, 0xFF, 0xFF, 0xFF, 0xFF, 
  0x3F, 0x18, 0x0C, 0xFF, 0xFC, 0xFF, 0xFF, 0xFF, 0xE3, 0xFC, 0xFF, 0x67, 
  0xFE, 0x1F, 0x06, 0x80, 0x9F, 0x19, 0x3E, 0x70, 0xFF, 0xFF, 0xFF, 0xFF, 
  0x1C, 0xFC, 0x71, 0xE6, 0x03, 0xC0, 0xF1, 0xFF, 0xFF, 0xFF, 0xFF, 0x03, 
  0xFF, 0x3F, 0xFF, 0x3F, 0x00, 0x00, 0x80, 0xFD, 0xFF, 0xFF, 0xFF, 0xFF, 
  0xFF, 0xFF, 0xFF, 0xFF, 0xFF, 0xFF, 0xFF, 0xFF, 0xFF, 0x7F, 0x80, 0xFF, 
  0xFF, 0xFF, 0xFF, 0xFF, 0x7F, 0x07, 0x98, 0xFE, 0xAA, 0xFF, 0xFF, 0xFF, 
  0xF7, 0xF8, 0xFF, 0x23, 0xFF, 0x5F, 0x8A, 0xC8, 0x5F, 0x5D, 0x2F, 0x02, 
  0xAA, 0xAA, 0xAA, 0xAA, 0x80, 0xE8, 0x6A, 0xF5, 0x27, 0x82, 0xF0, 0xFF, 
  0xFF, 0xFF, 0x7F, 0x57, 0xDF, 0x5F, 0xFE, 0xB7, 0x08, 0x88, 0x68, 0xFA, 
  0xFF, 0xFF, 0xFF, 0xFF, 0xFF, 0xFF, 0xFF, 0xFF, 0xFF, 0xFF, 0xFF, 0xFF, 
  0xFF, 0x7F, 0x55, 0xF5, 0xFF, 0xFF, 0xFF, 0xFF, 0xFF, 0x03, 0x8C, 0x39, 
  0xC7, 0xFF, 0xFF, 0x3F, 0x3E, 0xE0, 0xFF, 0x07, 0xFE, 0x3F, 0xCC, 0x9C, 
  0x7F, 0xFE, 0x03, 0x07, 0x00, 0x00, 0x00, 0x00, 0xC0, 0x80, 0xFF, 0xF9, 
  0x33, 0x73, 0xFC, 0xFF, 0xFF, 0xFF, 0x7F, 0xF8, 0xCF, 0x0F, 0xFF, 0xC3, 
  0x19, 0x98, 0x3D, 0xFF, 0xFF, 0xFF, 0xFF, 0xFF, 0xFF, 0xFF, 0xFF, 0xFF, 
  0xFF, 0xFF, 0xFF, 0xFF, 0xFF, 0xFF, 0x7F, 0xE0, 0xFF, 0xFF, 0xFF, 0xFF, 
  0xFF, 0x07, 0xDE, 0x7A, 0x48, 0xFF, 0xFF, 0x3F, 0x3E, 0xE2, 0xFF, 0x23, 
  0xFF, 0x7F, 0x90, 0x40, 0x7F, 0xDF, 0x22, 0xA0, 0xAA, 0xAA, 0xAA, 0xAA, 
  0x85, 0x88, 0x75, 0xFD, 0x23, 0x22, 0xFC, 0xFF, 0xFF, 0xFF, 0x9F, 0xFE, 
  0x9F, 0x1F, 0xFF, 0x87, 0xA6, 0x66, 0x6A, 0xFF, 0xFF, 0xFF, 0xFF, 0xFF, 
  0xFF, 0xFF, 0xFF, 0xFF, 0xFF, 0xFF, 0xFF, 0xFF, 0xFF, 0xFF, 0x7F, 0xD5, 
  0xFF, 0xFF, 0xFF, 0xFF, 0xE3, 0x03, 0x8F, 0x27, 0x7C, 0xFE, 0xFF, 0x0F, 
  0x08, 0x87, 0xFF, 0x67, 0xFE, 0xFF, 0x01, 0x00, 0xFE, 0x09, 0x60, 0xF0, 
  0xFF, 0xFF, 0xFF, 0xFF, 0x1F, 0x18, 0x60, 0xFE, 0x00, 0x00, 0xFF, 0xFF, 
  0xFF, 0xFF, 0xCF, 0xFF, 0xCF, 0xC8, 0xFF, 0x67, 0xF3, 0x33, 0x86, 0xFF, 
  0xFF, 0xFF, 0xFF, 0xFF, 0xFF, 0xFF, 0xFF, 0xFF, 0xFF, 0xFF, 0xFF, 0xFF, 
  0xFF, 0xFF, 0xFF, 0x9F, 0xFF, 0xFF, 0xFF, 0xFF, 0xEF, 0x07, 0xDE, 0x19, 
  0x9A, 0xFF, 0x7F, 0x8F, 0x14, 0xE0, 0xFF, 0x13, 0xFF, 0xFF, 0x81, 0x5A, 
  0xFD, 0x56, 0x11, 0xA0, 0xAA, 0x5A, 0x55, 0x55, 0x05, 0x04, 0x9A, 0xFF, 
  0xAA, 0x02, 0xFF, 0xFF, 0xFF, 0xFF, 0xDF, 0xFF, 0x9F, 0x9D, 0xFD, 0x31, 
  0x74, 0xEB, 0xEB, 0xFF, 0xFF, 0xFF, 0xFF, 0xFF, 0xFF, 0xFF, 0xFF, 0xFF, 
  0xFF, 0xFF, 0xFF, 0xFF, 0xFF, 0xFF, 0xFF, 0xDF, 0xFF, 0xFF, 0xFF, 0xFF, 
  0x9F, 0x1F, 0x8F, 0x0C, 0xDF, 0xFF, 0x3F, 0xC3, 0x61, 0xF0, 0xFF, 0x07, 
  0xFE, 0xFF, 0xC7, 0xFF, 0xF9, 0xF3, 0x00, 0x00, 0x00, 0x00, 0x00, 0x00, 
  0x00, 0x00, 0xCF, 0x3F, 0xFF, 0xC3, 0xFF, 0xFF, 0xFF, 0xFF, 0xFF, 0xFF, 
  0xCF, 0x89, 0xF9, 0x61, 0x3C, 0xFC, 0xFF, 0xFF, 0xFF, 0xFF, 0xFF, 0xFF, 
  0xFF, 0xFF, 0xFF, 0xFF, 0xFF, 0xFF, 0xFF, 0xFF, 0xFF, 0xFF, 0xFF, 0xFF, 
  0xFF, 0xFF, 0xFF, 0xFF, 0xCF, 0x87, 0xFE, 0xB9, 0xA6, 0xFF, 0x7F, 0x07, 
  0x78, 0xB5, 0xFF, 0x23, 0xFF, 0xFF, 0x07, 0x55, 0xFC, 0xA7, 0x05, 0xAA, 
  0xAA, 0xAA, 0xAA, 0xAA, 0x5A, 0xA0, 0xDA, 0x7F, 0x54, 0xC5, 0xFF, 0xFF, 
  0xFF, 0xFF, 0xFF, 0xFF, 0x9F, 0xD4, 0xF6, 0x18, 0x7A, 0xFD, 0xFF, 0xFF, 
  0xFF, 0xFF, 0xFF, 0xFF, 0xFF, 0xFF, 0xFF, 0xFF, 0xFF, 0xFF, 0xFF, 0xFF, 
  0xFF, 0xFF, 0xFF, 0xFF, 0xFF, 0xFF, 0xFF, 0xFF, 0x9F, 0xC3, 0xFF, 0xFC, 
  0xF3, 0xFF, 0x8F, 0x1F, 0xFC, 0x7F, 0xFE, 0x67, 0xFE, 0xFF, 0x1F, 0x00, 
  0xF8, 0x1F, 0x1E, 0xFF, 0xFF, 0xFF, 0xFF, 0xFF, 0xFF, 0xF1, 0xE0, 0x3F, 
  0x00, 0xF0, 0xFF, 0xFF, 0xFF, 0xFF, 0xFF, 0xFF, 0xCF, 0x81, 0xE7, 0x0D, 
  0x8F, 0xFF, 0xFF, 0xFF, 0xFF, 0xFF, 0xFF, 0xFF, 0xFF, 0xFF, 0xFF, 0xFF, 
  0xFF, 0xFF, 0xFF, 0xFF, 0xFF, 0xFF, 0xFF, 0xFF, 0xFF, 0xFF, 0xFF, 0xFF, 
  0x57, 0xAF, 0xFE, 0x79, 0xF7, 0xFF, 0xDF, 0x5D, 0x5A, 0x7B, 0xFF, 0x33, 
  0xFF, 0xFF, 0xDF, 0x22, 0xF5, 0x5F, 0x55, 0xD7, 0xDD, 0xDD, 0x7F, 0x77, 
  0xD7, 0xA5, 0xF5, 0x7F, 0x88, 0xF2, 0xFF, 0xFF, 0xFF, 0xFF, 0xFF, 0xFF, 
  0x1F, 0x81, 0x7B, 0x98, 0xDE, 0xFF, 0xFF, 0xFF, 0xFF, 0xFF, 0xFF, 0xFF, 
  0xFF, 0xFF, 0xFF, 0xFF, 0xFF, 0xFF, 0xFF, 0xFF, 0xFF, 0xFF, 0xFF, 0xFF, 
  0xFF, 0xFF, 0xFF, 0xFF, 0x33, 0x3F, 0xF8, 0x7C, 0xF8, 0xFF, 0xFF, 0x39, 
  0x0F, 0xFC, 0xFF, 0x67, 0xFE, 0xFF, 0xFF, 0x67, 0xE6, 0xFF, 0xE1, 0xC3, 
  0xCC, 0xCC, 0x63, 0x66, 0x86, 0x1F, 0xFE, 0x8F, 0xDD, 0xFF, 0xFF, 0xFF, 
  0xFF, 0xFF, 0xFF, 0xFF, 0x0F, 0x06, 0x3E, 0xCC, 0xE7, 0xFF, 0xFF, 0xFF, 
  0xFF, 0xFF, 0xFF, 0xFF, 0xFF, 0xFF, 0xFF, 0xFF, 0xFF, 0xFF, 0xFF, 0xFF, 
  0xFF, 0xFF, 0xFF, 0xFF, 0xFF, 0xFF, 0xFF, 0xFF, 0x77, 0x5E, 0x7D, 0xB9, 
  0xFE, 0xFF, 0x7F, 0x74, 0x8F, 0xF8, 0xFF, 0x33, 0xFF, 0xFF, 0xFF, 0x77, 
  0xFF, 0xFF, 0xF5, 0xAF, 0xBB, 0xBB, 0xB7, 0x77, 0xF7, 0x5F, 0xFF, 0xFF, 
  0xAA, 0xFF, 0xFF, 0xFF, 0xFF, 0xFF, 0xFF, 0xFF, 0x5F, 0x8A, 0x7D, 0x98, 
  0xF1, 0xFF, 0xFF, 0xFF, 0xFF, 0xFF, 0xFF, 0xFF, 0xFF, 0xFF, 0xFF, 0xFF, 
  0xFF, 0xFF, 0xFF, 0xFF, 0xFF, 0xFF, 0xFF, 0xFF, 0xFF, 0xFF, 0xFF, 0xFF, 
  0x8F, 0xC9, 0x38, 0xE6, 0xFF, 0xFF, 0x7F, 0xF0, 0xC3, 0xE0, 0xFF, 0x67, 
  0xFE, 0xFF, 0xFF, 0xFF, 0xFF, 0xFF, 0xFF, 0xFF, 0xFF, 0xFF, 0xFF, 0xFF, 
  0xFF, 0xFF, 0xFF, 0xFF, 0xFF, 0xFF, 0xFF, 0xFF, 0xFF, 0xFF, 0xFF, 0xFF, 
  0x3F, 0xD8, 0x3C, 0xCC, 0xE1, 0xFF, 0xFF, 0xFF, 0xFF, 0xFF, 0xFF, 0xFF, 
  0xFF, 0xFF, 0xFF, 0xFF, 0xFF, 0xFF, 0xFF, 0xFF, 0xFF, 0xFF, 0xFF, 0xFF, 
  0xFF, 0xFF, 0xFF, 0xFF, 0x5F, 0xAD, 0x75, 0xFA, 0xFF, 0xFF, 0x1F, 0xE2, 
  0x95, 0xA8, 0x7E, 0xAF, 0xFA, 0xFF, 0xFF, 0xFF, 0xFF, 0xFF, 0xFF, 0xFF, 
  0xFF, 0xFF, 0xFF, 0xFF, 0xFF, 0xFF, 0xFF, 0xFF, 0xFF, 0xFF, 0xFF, 0xFF, 
  0xFF, 0xFF, 0xFF, 0xFF, 0xFF, 0x86, 0x7D, 0x8A, 0xF4, 0xFF, 0xFF, 0xFF, 
  0xFF, 0xFF, 0xFF, 0xFF, 0xFF, 0xFF, 0xFF, 0xFF, 0xFF, 0xFF, 0xFF, 0xFF, 
  0xFF, 0xFF, 0xFF, 0xFF, 0xFF, 0xFF, 0xFF, 0xFF, 0x3F, 0x33, 0x33, 0xF8, 
  0xFF, 0xFF, 0x1F, 0x87, 0x0C, 0x18, 0x3F, 0x9E, 0xFD, 0xFF, 0xFF, 0xFF, 
  0xFF, 0xFF, 0xFF, 0xFF, 0xFF, 0xFF, 0xFF, 0xFF, 0xFF, 0xFF, 0xFF, 0xFF, 
  0xFF, 0xFF, 0xFF, 0xFF, 0xFF, 0xFF, 0xFF, 0xFF, 0xFF, 0xC3, 0x3F, 0xC6, 
  0xF9, 0xFF, 0xFF, 0xFF, 0xFF, 0xFF, 0xFF, 0xFF, 0xFF, 0xFF, 0xFF, 0xFF, 
  0xFF, 0xFF, 0xFF, 0xFF, 0xFF, 0xFF, 0xFF, 0xFF, 0xFF, 0xFF, 0xFF, 0xFF, 
  0x7F, 0x67, 0xD7, 0xFE, 0xFF, 0xFF, 0x2D, 0xA0, 0xA8, 0x0E, 0x3D, 0x6D, 
  0xF8, 0xFF, 0xFF, 0xFF, 0x5D, 0x77, 0xBD, 0xF7, 0xF7, 0xDE, 0x7F, 0xDD, 
  0xDD, 0x75, 0xFD, 0x75, 0xFF, 0xFF, 0xFF, 0xFF, 0xFF, 0xFF, 0xFF, 0xFF, 
  0xFF, 0x57, 0x7F, 0xA3, 0xFD, 0xFF, 0xFF, 0xFF, 0xFF, 0xFF, 0xFF, 0xFF, 
  0xFF, 0xFF, 0xFF, 0xFF, 0xFF, 0xFF, 0xFF, 0xFF, 0xFF, 0xFF, 0xFF, 0xFF, 
  0xFF, 0xFF, 0xFF, 0xFF, 0x9F, 0x83, 0x8F, 0xFF, 0xFF, 0xFF, 0x79, 0x60, 
  0xF0, 0xDF, 0x0C, 0x38, 0xE0, 0xFF, 0xFF, 0xFF, 0x09, 0x33, 0x0C, 0x32, 
  0x32, 0xC8, 0x23, 0xCC, 0x8C, 0x60, 0x8C, 0x30, 0xFF, 0xFF, 0xFF, 0xFF, 
  0xFF, 0xFF, 0xFF, 0xFF, 0xFF, 0x3F, 0x7F, 0xF2, 0xF8, 0xFF, 0xFF, 0xFF, 
  0xFF, 0xFF, 0xFF, 0xFF, 0xFF, 0xFF, 0xFF, 0xFF, 0xFF, 0xFF, 0xFF, 0xFF, 
  0xFF, 0xFF, 0xFF, 0xFF, 0xFF, 0xFF, 0xFF, 0xFF, 0xE7, 0x87, 0x5F, 0xFF, 
  0xD7, 0xDF, 0x7D, 0x14, 0xC2, 0x8F, 0x98, 0x3C, 0xA2, 0xF7, 0xFF, 0xFF, 
  0x54, 0x62, 0x1A, 0xA7, 0x65, 0x56, 0xB7, 0x98, 0xC9, 0x99, 0x98, 0x25, 
  0xFE, 0xFF, 0xFF, 0xFF, 0xFF, 0xFF, 0xFF, 0xFF, 0xFF, 0x7F, 0x1E, 0xE7, 
  0xFD, 0xFF, 0xFF, 0xFF, 0xFF, 0xFF, 0xFF, 0xFF, 0xFF, 0xFF, 0xFF, 0xFF, 
  0xFF, 0xFF, 0xFF, 0xFF, 0xFF, 0xFF, 0xFF, 0xFF, 0xFF, 0xFF, 0xFF, 0xFF, 
  0xF3, 0x1F, 0x1E, 0xFE, 0xC3, 0x9F, 0xFF, 0x19, 0x87, 0x1F, 0x9C, 0x09, 
  0xC6, 0xE7, 0xFF, 0xFF, 0xF1, 0x71, 0x66, 0xC2, 0x30, 0x33, 0xC8, 0x0D, 
  0xC6, 0x8C, 0x1D, 0x1E, 0xFF, 0xFF, 0xFF, 0xFF, 0xFF, 0xFF, 0xFF, 0xFF, 
  0xFF, 0x3F, 0x1F, 0xF2, 0xF8, 0xFF, 0xFF, 0xFF, 0xFF, 0xFF, 0xFF, 0xFF, 
  0xFF, 0xFF, 0xFF, 0xFF, 0xFF, 0xFF, 0xFF, 0xFF, 0xFF, 0xFF, 0xFF, 0xFF, 
  0xFF, 0xFF, 0xFF, 0xFF, 0xCF, 0x0F, 0x8E, 0xFF, 0x8B, 0x47, 0xFF, 0x2F, 
  0xE0, 0xAD, 0x4A, 0x5C, 0xC2, 0xD1, 0xFF, 0xFF, 0xA1, 0x68, 0x7B, 0x87, 
  0x68, 0xF7, 0xDE, 0x3E, 0xA2, 0xFD, 0x5A, 0x8A, 0xFE, 0xFF, 0xFF, 0xFF, 
  0xFF, 0xFF, 0xFF, 0xFF, 0xFF, 0x7F, 0x87, 0xE7, 0xFB, 0xFF, 0xFF, 0xFF, 
  0xFF, 0xFF, 0xFF, 0xFF, 0xFF, 0xFF, 0xFF, 0xFF, 0xFF, 0xFF, 0xFF, 0xFF, 
  0xFF, 0xFF, 0xFF, 0xFF, 0xFF, 0xFF, 0xFF, 0xFF, 0x9F, 0x1F, 0xC8, 0xFF, 
  0xCC, 0x03, 0xE3, 0x7F, 0xF0, 0xF9, 0x1F, 0x3C, 0xF0, 0x80, 0xFF, 0xFF, 
  0x07, 0xFC, 0xFF, 0x1F, 0xFC, 0xFF, 0xFF, 0x7F, 0xF0, 0xFF, 0x3F, 0xC0, 
  0xFF, 0xFF, 0xFF, 0xFF, 0xFF, 0xFF, 0xFF, 0xFF, 0xFF, 0xFF, 0xC3, 0x83, 
  0xE7, 0xFF, 0xFF, 0xFF, 0xFF, 0xFF, 0xFF, 0xFF, 0xFF, 0xFF, 0xFF, 0xFF, 
  0xFF, 0xFF, 0xFF, 0xFF, 0xFF, 0xFF, 0xFF, 0xFF, 0xFF, 0xFF, 0xFF, 0xFF, 
  0xCF, 0x5D, 0x98, 0xFE, 0x89, 0x23, 0x76, 0x7A, 0x68, 0xF4, 0x17, 0x7A, 
  0xF4, 0x48, 0xFF, 0xFF, 0x57, 0xFA, 0xFF, 0x5F, 0xFD, 0xFF, 0xFF, 0xBF, 
  0xEA, 0xFF, 0x7F, 0xD5, 0xFF, 0xFF, 0xFF, 0xFF, 0xFF, 0xFF, 0xFF, 0xFF, 
  0xFF, 0xFF, 0xA3, 0x8B, 0xE3, 0xFF, 0xFF, 0xFF, 0xFF, 0xFF, 0xFF, 0xFF, 
  0xFF, 0xFF, 0xFF, 0xFF, 0xFF, 0xFF, 0xFF, 0xFF, 0xFF, 0xFF, 0xFF, 0xFF, 
  0xFF, 0xFF, 0xFF, 0xFF, 0x9F, 0x39, 0x60, 0xFF, 0xC0, 0x71, 0x38, 0xFC, 
  0x3D, 0xF0, 0x67, 0x3F, 0x3F, 0x1C, 0xFE, 0xFF, 0xFF, 0xFF, 0xFF, 0xFF, 
  0xFF, 0xFF, 0xFF, 0xFF, 0xFF, 0xFF, 0xFF, 0xFF, 0xFF, 0xFF, 0xFF, 0xFF, 
  0xFF, 0xFF, 0xFF, 0xFF, 0xFF, 0xFF, 0xF0, 0x18, 0x86, 0xFF, 0xFF, 0xFF, 
  0xFF, 0xFF, 0xFF, 0xFF, 0xFF, 0xFF, 0xFF, 0xFF, 0xFF, 0xFF, 0xFF, 0xFF, 
  0xFF, 0xFF, 0xFF, 0xFF, 0xFF, 0xFF, 0xFF, 0xFF, 0xFF, 0xBE, 0x22, 0xFD, 
  0xA1, 0x01, 0x7E, 0xDC, 0x3D, 0xE2, 0x91, 0x3E, 0x7E, 0x81, 0xFF, 0xFF, 
  0x5F, 0xFD, 0xFF, 0x5F, 0xFD, 0xFF, 0xFF, 0x7F, 0xF5, 0xFF, 0xFF, 0xEA, 
  0xFF, 0xFF, 0xFF, 0xFF, 0xFF, 0xFF, 0xFF, 0xFF, 0xFF, 0xFF, 0xE5, 0x2D, 
  0x84, 0xFF, 0xFF, 0xFF, 0xFF, 0xFF, 0xFF, 0xFF, 0xFF, 0xFF, 0xFF, 0xFF, 
  0xFF, 0xFF, 0xFF, 0xFF, 0xFF, 0xFF, 0xFF, 0xFF, 0xFF, 0xFF, 0xFF, 0xFF, 
  0xFF, 0xCF, 0xC7, 0xF9, 0xF7, 0x07, 0x3F, 0x9F, 0x1F, 0x83, 0xC0, 0x1F, 
  0xF8, 0xC0, 0xFF, 0xFF, 0x0F, 0xFC, 0xFF, 0x0F, 0xF8, 0xFF, 0xFF, 0x3F, 
  0xF0, 0xFF, 0x3F, 0xF0, 0xFF, 0xFF, 0xFF, 0xFF, 0xFF, 0xFF, 0xFF, 0xFF, 
  0xFF, 0xFF, 0x03, 0x7E, 0x18, 0xFE, 0xFF, 0xFF, 0xFF, 0xFF, 0xFF, 0xFF, 
  0xFF, 0xFF, 0xFF, 0xFF, 0xFF, 0xFF, 0xFF, 0xFF, 0xFF, 0xFF, 0xFF, 0xFF, 
  0xFF, 0xFF, 0xFF, 0xFF, 0x7F, 0x9F, 0x0B, 0xD6, 0x77, 0x97, 0x54, 0x47, 
  0x2F, 0x62, 0x89, 0x87, 0xF8, 0xA1, 0xFF, 0xFF, 0x9F, 0xF8, 0xFF, 0x9F, 
  0xFC, 0xFF, 0xFF, 0x7F, 0xE2, 0xFF, 0x7F, 0xE2, 0xFF, 0xFF, 0xFF, 0xFF, 
  0xFF, 0xFF, 0xFF, 0xFF, 0xFF, 0xFF, 0x17, 0x9E, 0x54, 0xFA, 0xFF, 0xFF, 
  0xFF, 0xFF, 0xFF, 0xFF, 0xFF, 0xFF, 0xFF, 0xFF, 0xFF, 0xFF, 0xFF, 0xFF, 
  0xFF, 0xFF, 0xFF, 0xFF, 0xFF, 0xFF, 0xFF, 0xFF, 0x3F, 0x7F, 0x1E, 0x83, 
  0x7F, 0x8E, 0xC1, 0x03, 0x7E, 0x30, 0x0C, 0xC6, 0xE1, 0xF7, 0xFF, 0xFF, 
  0x9F, 0xFD, 0xFF, 0x9F, 0xF9, 0xFF, 0xFF, 0x3F, 0xF3, 0xFF, 0x3F, 0xF3, 
  0xFF, 0xFF, 0xFF, 0xFF, 0xFF, 0xFF, 0xFF, 0xFF, 0xFF, 0xFF, 0x7F, 0xC8, 
  0x31, 0xFC, 0xFF, 0xFF, 0xFF, 0xFF, 0xFF, 0xFF, 0xFF, 0xFF, 0xFF, 0xFF, 
  0xFF, 0xFF, 0xFF, 0xFF, 0xFF, 0xFF, 0xFF, 0xFF, 0xFF, 0xFF, 0xFF, 0xFF, 
  0x75, 0x5E, 0x2F, 0xF6, 0x1F, 0xFD, 0x88, 0x23, 0xBD, 0xE8, 0x88, 0x0B, 
  0xD8, 0xF7, 0xFF, 0xFF, 0x4F, 0xF8, 0xFF, 0x4F, 0xFC, 0xFF, 0xFF, 0x7F, 
  0xE4, 0xFF, 0x7F, 0xE4, 0xFF, 0xFF, 0xFF, 0xFF, 0xFF, 0xFF, 0xFF, 0xFF, 
  0xFF, 0xFF, 0x7F, 0x99, 0xA2, 0xF8, 0xFF, 0xFF, 0xFF, 0xFF, 0xFF, 0xFF, 
  0xFF, 0xFF, 0xFF, 0xFF, 0xFF, 0xFF, 0xFF, 0xFF, 0xFF, 0xFF, 0xFF, 0xFF, 
  0xFF, 0xFF, 0xFF, 0xFF, 0xE0, 0x89, 0x7F, 0xF8, 0x0F, 0xF8, 0xD9, 0x70, 
  0xF8, 0xFC, 0xC0, 0x1F, 0xCC, 0x3F, 0xFE, 0xFF, 0x1F, 0xFC, 0xFF, 0x1F, 
  0xF8, 0xFF, 0xFF, 0x3F, 0xF0, 0xFF, 0x3F, 0xF0, 0xFF, 0xFF, 0xFF, 0xFF, 
  0xFF, 0xFF, 0xFF, 0xFF, 0xFF, 0xFF, 0xFF, 0x60, 0xC3, 0xE0, 0xFF, 0xFF, 
  0xFF, 0xFF, 0xFF, 0xFF, 0xFF, 0xFF, 0xFF, 0xFF, 0xFF, 0xFF, 0xFF, 0xFF, 
  0xFF, 0xFF, 0xFF, 0xFF, 0xFF, 0xFF, 0xFF, 0xFF, 0xE0, 0xFD, 0x37, 0xF6, 
  0x97, 0xF4, 0x84, 0x03, 0xF6, 0xF5, 0xA1, 0xDF, 0x8A, 0x5F, 0xFE, 0xFF, 
  0x8F, 0xF8, 0xFF, 0x8F, 0xFC, 0xFF, 0xFF, 0x7F, 0xE2, 0xFF, 0x7F, 0xE2, 
  0xFF, 0xFF, 0xFF, 0xFF, 0xFF, 0xFF, 0xFF, 0xFF, 0xFF, 0xFF, 0xFF, 0x33, 
  0x85, 0xF1, 0xFF, 0xFF, 0xFF, 0xFF, 0xFF, 0xFF, 0xFF, 0xFF, 0xFF, 0xFF, 
  0xFF, 0xFF, 0xFF, 0xFF, 0xFF, 0xFF, 0xFF, 0xFF, 0xFF, 0xFF, 0xFF, 0xFF, 
  0x80, 0xFF, 0x67, 0xE3, 0x83, 0xE1, 0xC1, 0x07, 0xF3, 0xF3, 0xF7, 0xFF, 
  0x07, 0x0E, 0xFF, 0xFF, 0x9F, 0xFD, 0xFF, 0x9F, 0xF9, 0xFF, 0xFF, 0x3F, 
  0xF3, 0xFF, 0x3F, 0xF3, 0xFF, 0xFF, 0xFF, 0xFF, 0xFF, 0xFF, 0xFF, 0xFF, 
  0xFF, 0xFF, 0xFF, 0xE7, 0x18, 0xE6, 0xFF, 0xFF, 0xFF, 0xFF, 0xFF, 0xFF, 
  0xFF, 0xFF, 0xFF, 0xFF, 0xFF, 0xFF, 0xFF, 0xFF, 0xFF, 0xFF, 0xFF, 0xFF, 
  0xFF, 0xFF, 0xFF, 0xFF, 0x80, 0xAA, 0xBB, 0xFF, 0x4F, 0xB8, 0xAA, 0x8B, 
  0xE6, 0xF7, 0xF7, 0xFD, 0x21, 0x3E, 0xFF, 0xFF, 0xCF, 0xF8, 0xFF, 0xCF, 
  0xFC, 0xFF, 0xFF, 0x7F, 0xE6, 0xFF, 0x7F, 0xE6, 0xFF, 0xFF, 0xFF, 0xFF, 
  0xFF, 0xFF, 0xFF, 0xFF, 0xFF, 0xFF, 0xFF, 0xD3, 0x15, 0xF5, 0xFF, 0xFF, 
  0xFF, 0xFF, 0xFF, 0xFF, 0xFF, 0xFF, 0xFF, 0xFF, 0xFF, 0xFF, 0xFF, 0xFF, 
  0xFF, 0xFF, 0xFF, 0xFF, 0xFF, 0xFF, 0xFF, 0xFF, 0x00, 0xC0, 0xFF, 0xFF, 
  0x0F, 0x7C, 0xFE, 0xDF, 0x33, 0xFE, 0xFF, 0xF9, 0x60, 0xF8, 0xFF, 0xFF, 
  0x9F, 0xFD, 0xFF, 0x9F, 0xF9, 0xFF, 0xFF, 0x3F, 0xF3, 0xFF, 0x3F, 0xF3, 
  0xFF, 0xFF, 0xFF, 0xFF, 0xFF, 0xFF, 0xFF, 0xFF, 0xFF, 0xFF, 0xFF, 0xC7, 
  0x61, 0xF8, 0xFF, 0xFF, 0xFF, 0xFF, 0xFF, 0xFF, 0xFF, 0xFF, 0xFF, 0xFF, 
  0xFF, 0xFF, 0xFF, 0xFF, 0xFF, 0xFF, 0xFF, 0xFF, 0xFF, 0xFF, 0xFF, 0xFF, 
  0x00, 0xA8, 0xDF, 0xFD, 0x1D, 0x7A, 0xDF, 0xAF, 0x67, 0xFF, 0x7F, 0xFE, 
  0x13, 0xF6, 0xFF, 0xFF, 0xCF, 0xFC, 0xFF, 0xCF, 0xFC, 0xFF, 0xFF, 0x7F, 
  0xE6, 0xFF, 0x7F, 0xE6, 0xFF, 0xFF, 0xFF, 0xFF, 0xFF, 0xFF, 0xFF, 0xFF, 
  0xFF, 0xFF, 0xFF, 0x8B, 0x71, 0xFC, 0xFF, 0xFF, 0xFF, 0xFF, 0xFF, 0xFF, 
  0xFF, 0xFF, 0xFF, 0xFF, 0xFF, 0xFF, 0xFF, 0xFF, 0xFF, 0xFF, 0xFF, 0xFF, 
  0xFF, 0xFF, 0xFF, 0xFF, 0x00, 0xFC, 0xC8, 0xF8, 0x7C, 0xFF, 0x1F, 0xFE, 
  0x73, 0xFE, 0x3F, 0xFF, 0x07, 0xE3, 0xFF, 0xFF, 0x9F, 0xF9, 0xFF, 0x9F, 
  0xF9, 0xFF, 0xFF, 0x3F, 0xF3, 0xFF, 0x3F, 0xF3, 0xFF, 0xFF, 0xFF, 0xFF, 
  0xFF, 0xFF, 0xFF, 0xFF, 0xFF, 0xFF, 0xFF, 0xCF, 0xE7, 0xE1, 0xFF, 0xFF, 
  0xFF, 0xFF, 0xFF, 0xFF, 0xFF, 0xFF, 0xFF, 0xFF, 0xFF, 0xFF, 0xFF, 0xFF, 
  0xFF, 0xFF, 0xFF, 0xFF, 0xFF, 0xFF, 0xFF, 0xFF, 0x80, 0xFA, 0x9C, 0xFD, 
  0x7D, 0xF7, 0x2F, 0xFA, 0x17, 0xFF, 0x5F, 0xFF, 0xAB, 0xD2, 0xFF, 0xFF, 
  0xCF, 0xFC, 0xFF, 0xCF, 0xFC, 0xFF, 0xFF, 0x7F, 0xE6, 0xFF, 0x7F, 0xE6, 
  0xFF, 0xFF, 0xFF, 0xFF, 0xFF, 0xFF, 0xFF, 0xFF, 0xFF, 0xFF, 0xFF, 0x9F, 
  0xA6, 0xF1, 0xFF, 0xFF, 0xFF, 0xFF, 0xFF, 0xFF, 0xFF, 0xFF, 0xFF, 0xFF, 
  0xFF, 0xFF, 0xFF, 0xFF, 0xFF, 0xFF, 0xFF, 0xFF, 0xFF, 0xFF, 0xFF, 0xFF, 
  0xC0, 0x63, 0xC8, 0xF8, 0xFF, 0xE7, 0x7F, 0xE0, 0x0F, 0xFE, 0x9F, 0xFF, 
  0xFF, 0x81, 0xFF, 0xFF, 0x9F, 0xF9, 0xFF, 0x9F, 0xF9, 0xFF, 0xFF, 0x3F, 
  0xF3, 0xFF, 0x3F, 0xF3, 0xFF, 0xFF, 0xFF, 0xFF, 0xFF, 0xFF, 0xFF, 0xFF, 
  0xFF, 0xFF, 0xFF, 0x0F, 0xC3, 0xE0, 0xFF, 0xFF, 0xFF, 0xFF, 0xFF, 0xFF, 
  0xFF, 0xFF, 0xFF, 0xFF, 0xFF, 0xFF, 0xFF, 0xFF, 0xFF, 0xFF, 0xFF, 0xFF, 
  0xFF, 0xFF, 0xFF, 0xFF, 0xA0, 0x17, 0x9E, 0xFF, 0xFB, 0xD1, 0xBF, 0xD2, 
  0x9F, 0xFF, 0xCF, 0x5F, 0x7F, 0x48, 0xFF, 0xFF, 0xCF, 0xFC, 0xFF, 0xCF, 
  0xFC, 0xFF, 0xFF, 0x7F, 0xE6, 0xFF, 0x7F, 0xE6, 0xFF, 0xFF, 0xFF, 0xFF, 
  0xFF, 0xFF, 0xFF, 0xFF, 0xFF, 0xFF, 0xFF, 0x1F, 0x86, 0xF1, 0xFF, 0xFF, 
  0xFF, 0xFF, 0xFF, 0xFF, 0xFF, 0xFF, 0xFF, 0xFF, 0xFF, 0xFF, 0xFF, 0xFF, 
  0xFF, 0xFF, 0xFF, 0xFF, 0xFF, 0xFF, 0xFF, 0xFF, 0x30, 0x0E, 0xCF, 0xFF, 
  0xE0, 0x80, 0xFF, 0xC7, 0xCF, 0xFF, 0x9F, 0x0F, 0x3E, 0x1C, 0xFE, 0xFF, 
  0x9F, 0xF9, 0xFF, 0x9F, 0xF9, 0xFF, 0xFF, 0x3F, 0xF3, 0xFF, 0x3F, 0xF3, 
  0xFF, 0xFF, 0xFF, 0xFF, 0xFF, 0xFF, 0xFF, 0xFF, 0xFF, 0xFF, 0xFF, 0x0F, 
  0xC3, 0xE0, 0xFF, 0xFF, 0xFF, 0xFF, 0xFF, 0xFF, 0xFF, 0xFF, 0xFF, 0xFF, 
  0xFF, 0xFF, 0xFF, 0xFF, 0xFF, 0xFF, 0xFF, 0xFF, 0xFF, 0xFF, 0xFF, 0xFF, 
  0x68, 0x1F, 0xD6, 0xFF, 0x79, 0x49, 0x57, 0x8B, 0x9F, 0xFF, 0x67, 0x95, 
  0x77, 0x80, 0xFF, 0xFF, 0xCF, 0xFC, 0xFF, 0xCF, 0xFC, 0xFF, 0xFF, 0x7F, 
  0xE6, 0xFF, 0x7F, 0xE6, 0xFF, 0xFF, 0xFF, 0xFF, 0xFF, 0xFF, 0xFF, 0xFF, 
  0xFF, 0xFF, 0xFF, 0x1F, 0x86, 0xF1, 0xFF, 0xFF, 0xFF, 0xFF, 0xFF, 0xFF, 
  0xFF, 0xFF, 0xFF, 0xFF, 0xFF, 0xFF, 0xFF, 0xFF, 0xFF, 0xFF, 0xFF, 0xFF, 
  0xFF, 0xFF, 0xFF, 0xFF, 0x3C, 0x0E, 0xE7, 0xFF, 0x38, 0x18, 0x03, 0x0F, 
  0xCE, 0xFF, 0x33, 0x80, 0xF3, 0xC1, 0xFF, 0xFF, 0x9F, 0xF9, 0xFF, 0x9F, 
  0xF9, 0xFF, 0xFF, 0x3F, 0xF3, 0xFF, 0x3F, 0xF3, 0xFF, 0xFF, 0xFF, 0xFF, 
  0xFF, 0xFF, 0xFF, 0xFF, 0xFF, 0xFF, 0xFF, 0x0F, 0xC3, 0xE0, 0xFF, 0xFF, 
  0xFF, 0xFF, 0xFF, 0xFF, 0xFF, 0xFF, 0xFF, 0xFF, 0xFF, 0xFF, 0xFF, 0xFF, 
  0xFF, 0xFF, 0xFF, 0xFF, 0xFF, 0xFF, 0xFF, 0xFF, 0xFA, 0x1F, 0xF3, 0xFF, 
  0xEB, 0x88, 0xAE, 0x1A, 0x9D, 0xFF, 0x27, 0xEA, 0xE5, 0xA1, 0xFF, 0xFF, 
  0xDF, 0xFF, 0xFF, 0xFF, 0xFC, 0xFF, 0xFF, 0x7F, 0xF6, 0xFF, 0x7F, 0xF7, 
  0xFF, 0xFF, 0xFF, 0xFF, 0xFF, 0xFF, 0xFF, 0xFF, 0xFF, 0xFF, 0xFF, 0x1F, 
  0xA6, 0xF0, 0xFF, 0xFF, 0xFF, 0xFF, 0xFF, 0xFF, 0xFF, 0xFF, 0xFF, 0xFF, 
  0xFF, 0xFF, 0xFF, 0xFF, 0xFF, 0xFF, 0xFF, 0xFF, 0xFF, 0xFF, 0xFF, 0xFF, 
  0xFF, 0xCF, 0xE7, 0xFF, 0xF7, 0xC1, 0xFF, 0x60, 0xCC, 0xFF, 0x03, 0xFF, 
  0x80, 0xF7, 0xFF, 0xFF, 0xFF, 0xFF, 0xFF, 0xFF, 0xF9, 0xFF, 0xFF, 0x3F, 
  0xFF, 0xFF, 0xFF, 0xFF, 0xFF, 0xFF, 0xFF, 0xFF, 0xFF, 0xFF, 0xFF, 0xFF, 
  0xFF, 0xFF, 0xFF, 0x0F, 0x67, 0xE0, 0xFF, 0xFF, 0xFF, 0xFF, 0xFF, 0xFF, 
  0xFF, 0xFF, 0xFF, 0xFF, 0xFF, 0xFF, 0xFF, 0xFF, 0xFF, 0xFF, 0xFF, 0xFF, 
  0xFF, 0xFF, 0xFF, 0xFF, 0x7F, 0x9F, 0xFB, 0xFF, 0xEB, 0xC2, 0xFF, 0x55, 
  0x18, 0xFF, 0xA3, 0xFE, 0x88, 0xF6, 0xFF, 0x5F, 0xB5, 0x54, 0x55, 0xA5, 
  0x5D, 0x55, 0x55, 0x75, 0xAE, 0xAA, 0xB6, 0x6A, 0xFB, 0xFF, 0xFF, 0xFF, 
  0xFF, 0xFF, 0xFF, 0xFF, 0xFF, 0xFF, 0xFF, 0x1F, 0x32, 0xA8, 0xFF, 0xFF, 
  0xFF, 0xFF, 0xFF, 0xFF, 0xFF, 0xFF, 0xFF, 0xFF, 0xFF, 0xFF, 0xFF, 0xFF, 
  0xFF, 0xFF, 0xFF, 0xFF, 0xFF, 0xFF, 0xFF, 0xFF, 0x63, 0x7E, 0xFE, 0xFF, 
  0xFF, 0xF3, 0xFF, 0x9F, 0x0D, 0xFE, 0xF0, 0x3F, 0x0C, 0xFF, 0xFF, 0x0F, 
  0x00, 0x00, 0x00, 0xC0, 0x08, 0x00, 0x00, 0x30, 0x03, 0x00, 0x00, 0x00, 
  0xE0, 0xFF, 0xFF, 0xFF, 0xFF, 0xFF, 0xFF, 0xFF, 0xFF, 0xFF, 0xFF, 0x0F, 
  0x67, 0xDC, 0xFF, 0xFF, 0xFF, 0xFF, 0xFF, 0xFF, 0xFF, 0xFF, 0xFF, 0xFF, 
  0xFF, 0xFF, 0xFF, 0xFF, 0xFF, 0xFF, 0xFF, 0xFF, 0xFF, 0xFF, 0xFF, 0xFF, 
  0xB7, 0x77, 0xFF, 0xFF, 0xFF, 0xF7, 0xFF, 0xDF, 0x18, 0xFF, 0xE8, 0x7F, 
  0x88, 0xFE, 0xFF, 0x9F, 0x48, 0x55, 0x55, 0xD5, 0xBD, 0xAA, 0xAA, 0x6A, 
  0xAE, 0x55, 0x55, 0x15, 0xF2, 0xFF, 0xFF, 0xFF, 0xFF, 0xFF, 0xFF, 0xFF, 
  0xFF, 0xFF, 0xFF, 0x1F, 0x32, 0x88, 0xFF, 0xFF, 0xFF, 0xFF, 0xFF, 0xFF, 
  0xFF, 0xFF, 0xFF, 0xFF, 0xFF, 0xFF, 0xFF, 0xFF, 0xFF, 0xFF, 0xFF, 0xFF, 
  0xFF, 0xFF, 0xFF, 0xFF, 0xF8, 0xE7, 0xFF, 0xFF, 0xFF, 0xFF, 0xFF, 0xFF, 
  0x61, 0x3E, 0xFC, 0xFF, 0xC1, 0xFF, 0xFF, 0xCF, 0xFC, 0xFF, 0xFF, 0xFF, 
  0xF8, 0xFF, 0xFF, 0x3F, 0xFF, 0xFF, 0xFF, 0x7F, 0xE6, 0xFF, 0xFF, 0xFF, 
  0xFF, 0xFF, 0xFF, 0xFF, 0xFF, 0xFF, 0xFF, 0xCF, 0x61, 0xDC, 0xFF, 0xFF, 
  0xFF, 0xFF, 0xFF, 0xFF, 0xFF, 0xFF, 0xFF, 0xFF, 0xFF, 0xFF, 0xFF, 0xFF, 
  0xFF, 0xFF, 0xFF, 0xFF, 0xFF, 0xFF, 0xFF, 0xFF, 0x7C, 0xF3, 0xFF, 0xFF, 
  0xFF, 0xFF, 0xFF, 0xFF, 0x25, 0x3F, 0xFA, 0xFF, 0xA1, 0xFF, 0xFF, 0x9F, 
  0xB8, 0xAA, 0xAA, 0xEA, 0x5D, 0x55, 0x55, 0x75, 0x56, 0xB5, 0xAA, 0x3A, 
  0xF9, 0xFF, 0xFF, 0xFF, 0xFF, 0xFF, 0xFF, 0xFF, 0xFF, 0xFF, 0xFF, 0x9F, 
  0x30, 0x88, 0xFF, 0xFF, 0xFF, 0xFF, 0xFF, 0xFF, 0xFF, 0xFF, 0xFF, 0xFF, 
  0xFF, 0xFF, 0xFF, 0xFF, 0xFF, 0xFF, 0xFF, 0xFF, 0xFF, 0xFF, 0xFF, 0xFF, 
  0x78, 0x36, 0xFE, 0xFF, 0xFF, 0xFF, 0xFF, 0xFF, 0x03, 0x0E, 0xFF, 0xFF, 
  0xF7, 0xF9, 0xFF, 0x7F, 0x0C, 0x00, 0x00, 0xC0, 0x08, 0x00, 0x00, 0x30, 
  0x07, 0x00, 0x00, 0x60, 0xFC, 0xFF, 0xFF, 0xFF, 0xFF, 0xFF, 0xFF, 0xFF, 
  0xFF, 0xFF, 0xFF, 0xCF, 0x61, 0xDC, 0xFF, 0xFF, 0xFF, 0xFF, 0xFF, 0xFF, 
  0xFF, 0xFF, 0xFF, 0xFF, 0xFF, 0xFF, 0xFF, 0xFF, 0xFF, 0xFF, 0xFF, 0xFF, 
  0xFF, 0xFF, 0xFF, 0xFF, 0x68, 0xA9, 0x5E, 0xDD, 0xFF, 0xFF, 0xFF, 0xFF, 
  0x0F, 0x17, 0xFF, 0xFF, 0x77, 0xFC, 0xFF, 0x7F, 0x95, 0x28, 0x96, 0xA2, 
  0x1D, 0x8A, 0xA2, 0x68, 0x86, 0xA2, 0x28, 0xA2, 0xFA, 0xFF, 0xFF, 0xFF, 
  0xFF, 0xFF, 0xFF, 0xFF, 0xFF, 0xFF, 0xFF, 0x9F, 0x28, 0xCC, 0xFF, 0xFF, 
  0xFF, 0xFF, 0xFF, 0xFF, 0xFF, 0xFF, 0xFF, 0xFF, 0xFF, 0xFF, 0xFF, 0xFF, 
  0xFF, 0xFF, 0xFF, 0xFF, 0xFF, 0xFF, 0xFF, 0xFF, 0xF0, 0xCC, 0x09, 0x98, 
  0xFF, 0xF8, 0xFF, 0xFF, 0x1F, 0xC3, 0xFF, 0xFF, 0x7F, 0xF8, 0xFF, 0xFF, 
  0x83, 0x7D, 0xCF, 0xF7, 0x79, 0xCF, 0xF3, 0x3D, 0xDF, 0xF3, 0x3C, 0x87, 
  0xFF, 0xFF, 0xFF, 0xFF, 0xFF, 0xFF, 0xFF, 0xFF, 0xFF, 0xFF, 0xFF, 0x7F, 
  0x1C, 0x9F, 0xFF, 0xFF, 0xFF, 0xFF, 0xFF, 0xFF, 0xFF, 0xFF, 0xFF, 0xFF, 
  0xFF, 0xFF, 0xFF, 0xFF, 0xFF, 0xFF, 0xFF, 0xFF, 0xFF, 0xFF, 0xFF, 0xFF, 
  0xE1, 0x99, 0x55, 0x64, 0xFD, 0xD5, 0xF5, 0xFF, 0x0F, 0xC6, 0xFF, 0xFE, 
  0x37, 0xFC, 0xFF, 0xFF, 0xC7, 0x38, 0x9E, 0xE3, 0x3C, 0x9E, 0xE7, 0x78, 
  0x8E, 0xE7, 0x79, 0xC2, 0xFF, 0xFF, 0xFF, 0xFF, 0xFF, 0xFF, 0xFF, 0xFF, 
  0xFF, 0xFF, 0xFF, 0x3F, 0x08, 0xCE, 0xFF, 0xFF, 0xFF, 0xFF, 0xFF, 0xFF, 
  0xFF, 0xFF, 0xFF, 0xFF, 0xFF, 0xFF, 0xFF, 0xFF, 0xFF, 0x55, 0xFF, 0xFF, 
  0xFF, 0xFF, 0xFF, 0xFF, 0xF7, 0xCC, 0xF3, 0x31, 0x3C, 0xC3, 0xF0, 0xFF, 
  0x1F, 0xF3, 0x3F, 0xF8, 0x63, 0xF8, 0xFF, 0xFF, 0x83, 0x7C, 0xCF, 0xF7, 
  0x79, 0xCF, 0xF3, 0x3D, 0xDF, 0xF3, 0x3C, 0x86, 0xFF, 0xFF, 0xFF, 0xFF, 
  0xFF, 0xFF, 0xFF, 0xFF, 0xFF, 0xFF, 0xFF, 0x7F, 0x18, 0x9F, 0xFF, 0xFF, 
  0xFF, 0xFF, 0xFF, 0xFF, 0xFF, 0xFF, 0xFF, 0xFF, 0xFF, 0xFF, 0xFF, 0xFF, 
  0xFF, 0x00, 0xFE, 0xFF, 0xFF, 0xFF, 0xFF, 0xFF, 0xFA, 0x99, 0xAF, 0x62, 
  0x7D, 0xA2, 0xA5, 0xFF, 0x0F, 0xE2, 0x75, 0xFD, 0xAF, 0xFC, 0xFF, 0xFF, 
  0xC7, 0xB5, 0x9E, 0xE2, 0x9C, 0xDF, 0xE7, 0x7A, 0x8E, 0xEB, 0x7A, 0xC3, 
  0xFF, 0xFF, 0xFF, 0xFF, 0xFF, 0xFF, 0xFF, 0xFF, 0xFF, 0xFF, 0xFF, 0x1F, 
  0x06, 0x4E, 0xFF, 0xFF, 0xFF, 0xFF, 0xFF, 0xFF, 0xFF, 0xFF, 0xFF, 0xFF, 
  0xFF, 0xFF, 0xFF, 0xFF, 0xDF, 0xA8, 0xF5, 0xFF, 0xFF, 0xFF, 0xFF, 0xFF, 
  0xF8, 0x7C, 0x0E, 0x83, 0xFF, 0x61, 0x1E, 0xFE, 0x1F, 0xF0, 0x80, 0xFF, 
  0x9F, 0xF9, 0xFF, 0xFF, 0x83, 0xE3, 0x39, 0xF7, 0xCD, 0xE3, 0x9F, 0x33, 
  0xDE, 0x3C, 0x9F, 0x87, 0xFF, 0xFF, 0xFF, 0xFF, 0xFF, 0xFF, 0xFF, 0xFF, 
  0xFF, 0xFF, 0xFF, 0x0F, 0x03, 0x1F, 0xFE, 0xFF, 0xFF, 0xFF, 0xFF, 0xFF, 
  0xFF, 0xFF, 0xFF, 0xFF, 0xFF, 0xFF, 0xFF, 0xFF, 0x1F, 0xFC, 0xE0, 0xFF, 
  0xFF, 0xFF, 0xFF, 0xFF, 0xDD, 0x59, 0x5D, 0xD6, 0x7D, 0x9D, 0x5D, 0x75, 
  0x2F, 0xE8, 0xE3, 0xFF, 0xCF, 0xF4, 0xFF, 0xFF, 0x4F, 0x53, 0x28, 0xE0, 
  0x18, 0xA5, 0x8A, 0x62, 0x87, 0x58, 0x44, 0xD1, 0xFF, 0xFF, 0xFF, 0xFF, 
  0xFF, 0xFF, 0xFF, 0xFF, 0xFF, 0xFF, 0xFF, 0x8F, 0x06, 0x0D, 0xFF, 0xFF, 
  0xFF, 0xFF, 0xFF, 0xFF, 0xFF, 0xFF, 0xFF, 0xFF, 0xFF, 0xFF, 0xFF, 0xFF, 
  0x07, 0x68, 0x51, 0xFF, 0xFF, 0xFF, 0xFF, 0xFF, 0xCF, 0xCC, 0xFC, 0xF9, 
  0x79, 0xCE, 0xF8, 0x61, 0x7E, 0xFC, 0xF3, 0xF8, 0x9F, 0xE1, 0xFF, 0xFF, 
  0x1F, 0x00, 0x00, 0x80, 0x0D, 0x00, 0x00, 0x70, 0x02, 0x00, 0x00, 0xE0, 
  0xFF, 0xFF, 0xFF, 0xFF, 0xFF, 0xFF, 0xFF, 0xFF, 0xFF, 0xFF, 0xFF, 0xC3, 
  0xC3, 0x18, 0xFE, 0xFF, 0xFF, 0xFF, 0xFF, 0xFF, 0xFF, 0xFF, 0xFF, 0xFF, 
  0xFF, 0xFF, 0xFF, 0xFF, 0x03, 0x00, 0x00, 0xFF, 0xFF, 0xFF, 0xFF, 0xFF, 
  0xBF, 0x99, 0xF9, 0xFD, 0xBC, 0x57, 0xDF, 0x9A, 0x3F, 0xF8, 0xE5, 0xF9, 
  0xCF, 0xF0, 0xFF, 0xFF, 0x8F, 0x28, 0x8A, 0xC5, 0x38, 0x8A, 0xA2, 0x28, 
  0x87, 0x22, 0x29, 0xF2, 0xFF, 0xFF, 0xFF, 0xFF, 0xFF, 0xFF, 0xFF, 0xFF, 
  0xFF, 0xFF, 0xFF, 0xA2, 0x83, 0x0D, 0xFD, 0xFF, 0xFF, 0xFF, 0xFF, 0xFF, 
  0xFF, 0xFF, 0xFF, 0xFF, 0xFF, 0xFF, 0xFF, 0xFF, 0x03, 0x00, 0xAA, 0xEA, 
  0xFF, 0xFF, 0xFF, 0xFF, 0xFF, 0xCC, 0xE0, 0x8F, 0xF9, 0x33, 0xCE, 0xCF, 
  0x7F, 0xFC, 0x9C, 0xFC, 0x9F, 0xE1, 0xFF, 0xFF, 0xDF, 0x3C, 0xDF, 0x83, 
  0x3D, 0xCF, 0xF7, 0x7C, 0xC3, 0xF3, 0x3C, 0xF7, 0xFF, 0xFF, 0xFF, 0xFF, 
  0xFF, 0xFF, 0xFF, 0xFF, 0xFF, 0xFF, 0x3F, 0xF0, 0xC1, 0x19, 0xF8, 0xFF, 
  0xFF, 0xFF, 0xFF, 0xFF, 0xFF, 0xFF, 0xFF, 0xFF, 0xFF, 0xFF, 0xFF, 0xFF, 
  0x00, 0x00, 0xFF, 0x80, 0xFF, 0xFF, 0xFF, 0xFF, 0xDF, 0xDD, 0xE2, 0x9F, 
  0xFB, 0x6F, 0x95, 0x1F, 0x3F, 0xF8, 0xAB, 0xFA, 0xCF, 0xF2, 0xFF, 0xFF, 
  0x8F, 0x6A, 0x92, 0xC6, 0x78, 0x9A, 0xA8, 0x39, 0xA6, 0xA6, 0x59, 0xE2, 
  0xFF, 0xFF, 0xFF, 0xFF, 0xFF, 0xFF, 0xFF, 0xFF, 0xFF, 0xFF, 0x3F, 0xEA, 
  0x80, 0x24, 0xFC, 0xFF, 0xFF, 0xFF, 0xFF, 0xFF, 0xFF, 0xFF, 0xFF, 0xFF, 
  0xFF, 0xFF, 0xFF, 0xFF, 0x81, 0xAA, 0xFE, 0x55, 0xFD, 0xFF, 0xFF, 0xFF, 
  0xCF, 0x23, 0x87, 0xCF, 0xE7, 0xCF, 0x00, 0x0E, 0x7E, 0xFC, 0x63, 0x8F, 
  0x9F, 0xE7, 0xFF, 0xFF, 0x1F, 0x83, 0x61, 0x98, 0x8D, 0x61, 0x1C, 0x66, 
  0x33, 0x18, 0x86, 0xF1, 0xFF, 0xFF, 0xFF, 0xFF, 0xFF, 0xFF, 0xFF, 0xFF, 
  0xFF, 0xFF, 0x0F, 0x9F, 0xC1, 0x71, 0xF8, 0xFF, 0xFF, 0xFF, 0xFF, 0xFF, 
  0xFF, 0xFF, 0xFF, 0xFF, 0xFF, 0xFF, 0xFF, 0xFF, 0xC0, 0xFF, 0xFF, 0x3F, 
  0xFC, 0xFF, 0xFF, 0xFF, 0x9F, 0x2F, 0x89, 0xDE, 0xEA, 0xD7, 0x41, 0xDF, 
  0x3F, 0xF8, 0xBF, 0xFE, 0xCF, 0xD5, 0xFF, 0xD7, 0x2F, 0xD7, 0x7D, 0xDD, 
  0xDE, 0x75, 0xAD, 0xBB, 0x76, 0x5D, 0xD7, 0xF5, 0xD7, 0xFF, 0xFF, 0xFF, 
  0xFF, 0xFF, 0xFF, 0xFF, 0xFF, 0xFF, 0x5B, 0xC7, 0xA2, 0x41, 0xF9, 0xFF, 
  0xFF, 0xFF, 0xFF, 0xFF, 0xFF, 0xFF, 0xFF, 0xFF, 0xFF, 0xFF, 0xFF, 0xFF, 
  0xA1, 0xFF, 0xFF, 0xFF, 0xFA, 0xFF, 0xFF, 0xFF, 0xCF, 0xDF, 0x18, 0xF8, 
  0x99, 0xF3, 0xF0, 0xE3, 0x7F, 0xFC, 0xFF, 0xFF, 0x9F, 0x99, 0xFF, 0xC7, 
  0xFF, 0xFF, 0xFF, 0xFF, 0xFF, 0xFF, 0xFF, 0xFF, 0xFF, 0xFF, 0xFF, 0xFF, 
  0xC3, 0xFF, 0xFF, 0xFF, 0xFF, 0xFF, 0xFF, 0xFF, 0xFF, 0xFF, 0xE0, 0x83, 
  0xF7, 0xC7, 0xE0, 0xFF, 0xFF, 0xFF, 0xFF, 0xFF, 0xFF, 0xFF, 0xFF, 0xFF, 
  0xFF, 0xFF, 0xFF, 0xFF, 0xF0, 0xFF, 0xFF, 0xFF, 0xFF, 0xFF, 0xFF, 0xFF, 
  0xDF, 0xDB, 0x25, 0xD4, 0x85, 0xF7, 0xF5, 0xFF, 0x3F, 0xF8, 0x5F, 0xFF, 
  0xDD, 0xD5, 0xFF, 0x8B, 0x6A, 0xAD, 0x52, 0x55, 0xFD, 0x55, 0x55, 0x55, 
  0x5F, 0x55, 0xB5, 0xAA, 0xA2, 0xFF, 0xFF, 0xFF, 0xFF, 0xFF, 0xFF, 0xFF, 
  0xFF, 0xBF, 0xD5, 0xAD, 0x4B, 0xA9, 0x55, 0xF5, 0xFF, 0xFF, 0xFF, 0xFF, 
  0xFF, 0xFF, 0xFF, 0xFF, 0xFF, 0xFF, 0xFF, 0xFF, 0xC3, 0xFF, 0xFF, 0xFF, 
  0xFF, 0xFF, 0xFF, 0xFF, 0xE3, 0x3C, 0x73, 0x80, 0x07, 0xFE, 0xFF, 0xFF, 
  0x7F, 0xFC, 0x0F, 0xFF, 0xF8, 0xF3, 0xFF, 0x1F, 0x00, 0x00, 0x00, 0x00, 
  0xF8, 0x00, 0x00, 0x00, 0x08, 0x00, 0x00, 0x00, 0xF0, 0xFF, 0xFF, 0xFF, 
  0xFF, 0xFF, 0xFF, 0xFF, 0xFF, 0x0F, 0x9E, 0x79, 0x1E, 0x7C, 0x0E, 0xE0, 
  0xFF, 0xFF, 0xFF, 0xFF, 0xFF, 0xFF, 0xFF, 0xFF, 0xFF, 0xFF, 0xFF, 0xFF, 
  0xC3, 0xFF, 0xFF, 0xFF, 0xFF, 0xFF, 0xFF, 0xFF, 0x77, 0x79, 0x17, 0x62, 
  0x5B, 0xFF, 0x77, 0x9D, 0x3E, 0xF8, 0x5B, 0x56, 0x7B, 0x67, 0xF7, 0xAF, 
  0xAA, 0xAA, 0xAA, 0xAA, 0xFE, 0xAB, 0xAA, 0xAA, 0xBE, 0xAA, 0x4A, 0x55, 
  0xF5, 0xFF, 0xFF, 0xFF, 0xFF, 0xFF, 0xFF, 0xDF, 0x75, 0x5F, 0x65, 0xB6, 
  0x12, 0x4A, 0x1B, 0x5A, 0xF7, 0xFF, 0xFF, 0xFF, 0xFF, 0xFF, 0xFF, 0xFF, 
  0xFF, 0xFF, 0xFF, 0xFF, 0x87, 0xFF, 0xFF, 0xFF, 0xFF, 0xFF, 0xFF, 0xFF, 
  0x63, 0xE6, 0x0F, 0x33, 0x3E, 0xFE, 0x33, 0x0C, 0x7F, 0xFC, 0xE0, 0x01, 
  0x26, 0x18, 0xE6, 0xFF, 0xFF, 0xFF, 0xFF, 0xFF, 0xFF, 0xFF, 0xFF, 0xFF, 
  0xFF, 0xFF, 0xFF, 0xFF, 0xFF, 0xFF, 0xFF, 0xFF, 0xFF, 0xFF, 0xFF, 0x9F, 
  0x31, 0xE3, 0x31, 0xE3, 0x61, 0xC6, 0x60, 0x0F, 0xE6, 0xFF, 0xFF, 0xFF, 
  0xFF, 0xFF, 0xFF, 0xFF, 0xFF, 0xFF, 0xFF, 0xFF, 0x1F, 0xFE, 0xFF, 0xFF, 
  0xFF, 0xFF, 0xFF, 0xFF, 0x37, 0xF3, 0x1F, 0x22, 0x75, 0xF7, 0x27, 0xA8, 
  0x3E, 0xFC, 0x55, 0xA2, 0xD1, 0x0A, 0x59, 0xFF, 0xDD, 0xDD, 0xDD, 0xDD, 
  0xDD, 0x5F, 0x55, 0x55, 0xD5, 0x77, 0x77, 0xF7, 0xFF, 0x7F, 0xDD, 0xFF, 
  0xFF, 0xD7, 0x5D, 0x5F, 0xEA, 0x56, 0x2A, 0x52, 0x10, 0xA9, 0xAD, 0xB6, 
  0xD9, 0xFF, 0xFF, 0xFF, 0xFF, 0xFF, 0xFF, 0xFF, 0xFF, 0xFF, 0xFF, 0xFF, 
  0x0F, 0xFE, 0xFF, 0xFF, 0xFF, 0xFF, 0xFF, 0xFF, 0x67, 0xE6, 0x63, 0x00, 
  0xF0, 0xE7, 0x18, 0xF0, 0x7F, 0xF8, 0x0F, 0xF3, 0x80, 0x07, 0x0C, 0xFE, 
  0xCC, 0xCC, 0xCC, 0xCC, 0xCC, 0x0F, 0x00, 0x00, 0x80, 0x33, 0x33, 0x33, 
  0xFE, 0x38, 0xCC, 0xFF, 0xFF, 0x87, 0x19, 0x7E, 0xFF, 0x0C, 0x1F, 0x00, 
  0x00, 0x7C, 0x9E, 0xE1, 0x9C, 0xFF, 0xFF, 0xFF, 0xFF, 0xFF, 0xFF, 0xFF, 
  0xFF, 0xFF, 0xFF, 0xFF, 0x1F, 0xF8, 0xFF, 0xFF, 0xFF, 0xFF, 0xFF, 0xFF, 
  0xB9, 0xD9, 0xAF, 0x22, 0xE0, 0xFB, 0x2B, 0x52, 0x3F, 0xFC, 0xBF, 0x66, 
  0x65, 0x29, 0xBA, 0xFF, 0xDB, 0xDD, 0xBB, 0xBB, 0xBB, 0x1F, 0x00, 0x00, 
  0xC0, 0xEF, 0xEE, 0x6E, 0xFF, 0x75, 0x99, 0x5E, 0x77, 0x69, 0xAE, 0x95, 
  0xBA, 0x08, 0x02, 0x00, 0x00, 0x10, 0x42, 0x5A, 0xC9, 0xFF, 0xFF, 0xFF, 
  0xFF, 0xFF, 0xFF, 0xFF, 0xFF, 0xFF, 0xFF, 0xFF, 0x5F, 0xE8, 0xFF, 0xFF, 
  0xFF, 0xFF, 0xFF, 0xFF, 0xFC, 0x8C, 0xDF, 0x67, 0x80, 0xFF, 0x67, 0x0F, 
  0x7F, 0xF8, 0xF9, 0x19, 0x33, 0x3C, 0xFF, 0xFF, 0xFF, 0xFF, 0xFF, 0xFF, 
  0xFF, 0x0F, 0x00, 0x00, 0x80, 0xFF, 0xFF, 0xFF, 0xFF, 0x87, 0x67, 0x08, 
  0x33, 0x3C, 0xFF, 0xC0, 0x01, 0x00, 0x00, 0x00, 0x00, 0x00, 0x00, 0x0F, 
  0x9C, 0xFF, 0xFF, 0xFF, 0xFF, 0xFF, 0xFF, 0xFF, 0xFF, 0xFF, 0xFF, 0xFF, 
  0x3F, 0xF0, 0xFF, 0xFF, 0xFF, 0xFF, 0xFF, 0xFF, 0xFA, 0xDA, 0x4D, 0xB9, 
  0x88, 0xDF, 0x77, 0x5E, 0x3F, 0xFC, 0x75, 0x8A, 0x2A, 0x54, 0x76, 0xFD, 
  0xFD, 0xBD, 0xDD, 0xDD, 0xDD, 0xBF, 0xAA, 0xAA, 0xEA, 0x7F, 0x77, 0xF7, 
  0x7F, 0x57, 0x51, 0x59, 0x6F, 0xB5, 0xDA, 0x00, 0x00, 0x00, 0x00, 0x00, 
  0x00, 0x00, 0x00, 0x95, 0xB0, 0xFF, 0xFF, 0xFF, 0xFF, 0xFF, 0xFF, 0xFF, 
  0xFF, 0xFF, 0xFF, 0xFF, 0x7F, 0xE0, 0xF7, 0xAB, 0xEA, 0xFF, 0xFF, 0xFF, 
  0x3F, 0xE7, 0x39, 0xFC, 0x19, 0x9E, 0xFF, 0xE1, 0x7F, 0xF8, 0x33, 0x86, 
  0x0C, 0x83, 0x61, 0xF8, 0x8C, 0xCC, 0xCD, 0xCD, 0xCD, 0xFF, 0xFF, 0xFF, 
  0xFF, 0x3F, 0x33, 0x33, 0x7E, 0x7E, 0x80, 0xE0, 0x9F, 0xC3, 0x01, 0x00, 
  0x00, 0x00, 0x00, 0x00, 0x00, 0x00, 0xC0, 0xC0, 0x60, 0xFE, 0xFF, 0xFF, 
  0xFF, 0xFF, 0xFF, 0xFF, 0xFF, 0xFF, 0xFF, 0xFF, 0x3F, 0xF0, 0xF3, 0x00, 
  0x80, 0x23, 0xFE, 0xFF, 0x77, 0xF2, 0xBD, 0x52, 0xAE, 0xED, 0xFF, 0xF9, 
  0x3F, 0xFC, 0xEF, 0xE9, 0x5D, 0xEB, 0xAD, 0xFE, 0xD9, 0x99, 0x98, 0x9C, 
  0x98, 0xFF, 0x55, 0x55, 0x55, 0x7D, 0x66, 0x66, 0xFF, 0x9F, 0xB6, 0xB5, 
  0x42, 0x0B, 0x20, 0x00, 0x00, 0x00, 0x00, 0x00, 0x00, 0x28, 0x88, 0x85, 
  0x25, 0xFF, 0xFF, 0xFF, 0xFF, 0xFF, 0xFF, 0xFF, 0xFF, 0xFF, 0xFF, 0xFF, 
  0x7F, 0xE0, 0xAF, 0x00, 0x40, 0x5B, 0xEF, 0xFF, 0xE7, 0xE1, 0xC3, 0x07, 
  0xFF, 0xF8, 0xFF, 0xFF, 0x7F, 0xF8, 0xFF, 0xFC, 0xFF, 0xFC, 0xDF, 0xFF, 
  0x9C, 0xCC, 0xCD, 0xC9, 0xCD, 0xF8, 0x01, 0x00, 0x00, 0x3C, 0x33, 0x73, 
  0xFE, 0xCF, 0x7F, 0x0E, 0x00, 0x0C, 0x60, 0x00, 0x00, 0x00, 0x00, 0x00, 
  0x00, 0x7C, 0x1C, 0xDE, 0x73, 0xFE, 0xFF, 0xFF, 0xFF, 0xFF, 0xFF, 0xFF, 
  0xFF, 0xFF, 0xFF, 0xFF, 0x3F, 0x80, 0x1F, 0x00, 0x00, 0xCC, 0x83, 0xFF, 
  0x73, 0xD8, 0x93, 0x16, 0x6A, 0xD7, 0xDD, 0x55, 0x3F, 0xF4, 0x77, 0x5D, 
  0x57, 0x75, 0x93, 0xF7, 0x81, 0x08, 0x88, 0x08, 0x88, 0xFC, 0x00, 0x00, 
  0x00, 0x78, 0x22, 0x22, 0xBF, 0xAE, 0x5A, 0x1B, 0x08, 0x94, 0x12, 0x20, 
  0x80, 0x80, 0x20, 0x08, 0x08, 0x12, 0x82, 0x8D, 0xAB, 0xFF, 0xFF, 0xFF, 
  0xFF, 0xFF, 0xFF, 0xFF, 0xFF, 0xFF, 0xFF, 0xFF, 0x3F, 0xC0, 0x05, 0x00, 
  0x00, 0x90, 0xD7, 0xFB, 0x37, 0x8C, 0x3C, 0x7F, 0x00, 0xC2, 0x98, 0x00, 
  0x7E, 0xE0, 0x33, 0x0F, 0x03, 0x33, 0x66, 0xF2, 0x00, 0x00, 0x00, 0x00, 
  0x00, 0xF8, 0x01, 0x00, 0x00, 0x3C, 0x00, 0x00, 0x7E, 0x73, 0xCC, 0x60, 
  0x1C, 0x83, 0x07, 0x60, 0x80, 0x81, 0x71, 0x1C, 0x1C, 0x06, 0xC6, 0xD8, 
  0xCC, 0xFF, 0xFF, 0xFF, 0xFF, 0xFF, 0xFF, 0xFF, 0xFF, 0xFF, 0xFF, 0xFF, 
  0x0F, 0x80, 0x00, 0x00, 0x00, 0x70, 0xFE, 0xE0, 0x6A, 0xFD, 0x7D, 0x77, 
  0x28, 0xAF, 0xE7, 0xA9, 0x1F, 0xD1, 0x63, 0x8A, 0x82, 0x62, 0x75, 0xF7, 
  0x5B, 0xD5, 0xAA, 0xAA, 0xB5, 0xFD, 0xAA, 0xAA, 0xAA, 0xFA, 0xD6, 0xAA, 
  0xBF, 0xB6, 0x9A, 0xA5, 0xA2, 0x46, 0x89, 0x1A, 0x62, 0x68, 0x08, 0xA2, 
  0x52, 0x89, 0x89, 0xEF, 0x99, 0xFF, 0xFF, 0xFF, 0xFF, 0xFF, 0xFF, 0xFF, 
  0xFF, 0xFF, 0xFF, 0xFF, 0x1F, 0xC0, 0x01, 0x00, 0x00, 0x60, 0xBE, 0xF5, 
  0x98, 0xFF, 0xFF, 0xE7, 0x7D, 0xFE, 0xF3, 0xF8, 0x0F, 0xC6, 0x80, 0x81, 
  0xC1, 0xC0, 0xFC, 0xFF, 0xFF, 0xFF, 0xFF, 0xFF, 0xFF, 0xFF, 0xFF, 0xFF, 
  0xFF, 0xFF, 0xFF, 0xFF, 0xFF, 0xFF, 0x0F, 0x82, 0xF7, 0x19, 0xCC, 0x0F, 
  0x33, 0x3C, 0x18, 0xF6, 0xE7, 0xDC, 0xDC, 0xFF, 0xCC, 0xFF, 0xFF, 0xFF, 
  0xFF, 0xFF, 0xFF, 0xFF, 0xFF, 0xFF, 0xFF, 0xFF, 0x0F, 0x80, 0x00, 0x00, 
  0x00, 0x30, 0x08, 0x3E, 0xED, 0xF5, 0x75, 0xDB, 0xBD, 0xDF, 0xC5, 0xF5, 
  0xBF, 0xA3, 0xEB, 0x51, 0xAA, 0xD5, 0xFD, 0xEF, 0x7D, 0x7F, 0x5D, 0x77, 
  0x5D, 0xF7, 0xDF, 0xF5, 0xFD, 0x7F, 0x5D, 0x77, 0x5A, 0xDF, 0xBD, 0xD7, 
  0x49, 0xA6, 0xAA, 0x57, 0x66, 0xD9, 0x6C, 0xE9, 0xF7, 0xDB, 0xAD, 0xFF, 
  0xDD, 0xFF, 0xFF, 0xFF, 0xFF, 0xFF, 0xFF, 0xFF, 0xFF, 0xFF, 0xFF, 0xFF, 
  0x0F, 0xC0, 0x01, 0x00, 0x00, 0x68, 0x6D, 0x6F, 0xFF, 0xE0, 0x30, 0x8F, 
  0xFF, 0xCF, 0x00, 0xE6, 0xFF, 0xF7, 0xFF, 0x37, 0x7F, 0xFE, 0x3F, 0x82, 
  0x78, 0x3E, 0x0C, 0x33, 0x0C, 0xE6, 0x98, 0xF1, 0xFC, 0x27, 0x08, 0x33, 
  0x1C, 0xCF, 0xFC, 0xFF, 0x18, 0xF3, 0x73, 0xF2, 0x99, 0x87, 0xF9, 0xFC, 
  0xFF, 0xFF, 0xFF, 0xFF, 0xFF, 0xFF, 0xFF, 0xFF, 0xFF, 0xFF, 0xFF, 0xFF, 
  0xFF, 0xFF, 0xFF, 0xFF, 0x07, 0xC0, 0x00, 0x00, 0x00, 0x98, 0xF3, 0x83, 
  0x5E, 0x59, 0x65, 0xB6, 0x76, 0xD7, 0x8B, 0x77, 0x77, 0xAB, 0x77, 0xEA, 
  0xB6, 0xFA, 0xBB, 0xD5, 0x95, 0xBD, 0x1A, 0x26, 0x5A, 0x59, 0x65, 0xA2, 
  0x79, 0xD9, 0x96, 0x66, 0xA0, 0x8A, 0x75, 0xFD, 0xA5, 0xA2, 0x02, 0xA2, 
  0xAA, 0x32, 0xFD, 0x7D, 0xFF, 0xFF, 0xFD, 0x5E, 0xFD, 0xFF, 0xFF, 0xFF, 
  0xFF, 0xFF, 0xFF, 0xFF, 0xFF, 0xFF, 0xFF, 0xFF, 0x03, 0x80, 0x02, 0x00, 
  0x00, 0x8C, 0xC2, 0xD6, 0x08, 0x0C, 0x9F, 0x61, 0x33, 0xF3, 0x9F, 0x7F, 
  0x66, 0x1E, 0x32, 0xFC, 0xE7, 0xE1, 0xCC, 0x38, 0xC6, 0xCC, 0x67, 0x18, 
  0xE6, 0x0D, 0x33, 0x07, 0x26, 0x9C, 0xC3, 0x98, 0xF1, 0x01, 0x32, 0x20, 
  0xF6, 0x00, 0x00, 0x00, 0x66, 0x7C, 0x23, 0x3E, 0x7F, 0xFE, 0x79, 0x08, 
  0xF8, 0xFF, 0xFF, 0xFF, 0xFF, 0xFF, 0xFF, 0xFF, 0xFF, 0xFF, 0xFF, 0xFF, 
  0x07, 0x00, 0x07, 0x00, 0x00, 0x18, 0x00, 0xF8, 0x14, 0x10, 0x8A, 0x9A, 
  0x67, 0x57, 0x47, 0x9E, 0x19, 0x05, 0x66, 0x59, 0xD5, 0xA1, 0x88, 0x34, 
  0xAA, 0x29, 0x59, 0xD5, 0x59, 0x18, 0x22, 0xA0, 0x51, 0x61, 0x05, 0xA9, 
  0xAA, 0x8A, 0x45, 0x75, 0xA9, 0x00, 0x00, 0x00, 0x91, 0xA4, 0xFE, 0xFF, 
  0xBE, 0x7D, 0x36, 0x5A, 0xFB, 0xFF, 0xFF, 0xFF, 0xFF, 0xFF, 0xFF, 0xFF, 
  0xFF, 0xFF, 0xFF, 0xFF, 0x07, 0x00, 0x08, 0x00, 0x00, 0xAA, 0x55, 0xAD, 
  0x00, 0x00, 0x00, 0xCF, 0x9F, 0x0F, 0x03, 0xC8, 0x0C, 0x00, 0x98, 0x07, 
  0x98, 0x07, 0x00, 0x00, 0x78, 0x76, 0x8C, 0xE7, 0x0C, 0x60, 0x00, 0xF0, 
  0xC0, 0x37, 0x00, 0x60, 0x1F, 0xDE, 0xC0, 0x8F, 0x1C, 0x00, 0x00, 0x00, 
  0xC0, 0xC3, 0xFF, 0xFF, 0xF8, 0x38, 0x33, 0xE7, 0xE7, 0xFF, 0xFF, 0xFF, 
  0xFF, 0xFF, 0xFF, 0xFF, 0xFF, 0xFF, 0xFF, 0xFF, 0x1F, 0x00, 0x1C, 0x00, 
  0x00, 0xE7, 0xFF, 0x03, 0x81, 0x40, 0x00, 0x94, 0x6A, 0x0D, 0x02, 0x94, 
  0x08, 0x00, 0x88, 0x12, 0x44, 0x01, 0x00, 0x00, 0x94, 0x82, 0x58, 0xB7, 
  0x88, 0x20, 0x00, 0xA0, 0xA8, 0x2A, 0x02, 0x20, 0xA4, 0x85, 0xAA, 0xDA, 
  0x89, 0x00, 0x00, 0x00, 0x80, 0x8B, 0xFF, 0x7D, 0xF5, 0x5D, 0x67, 0xD3, 
  0xF9, 0xFF, 0xFF, 0xFF, 0xFF, 0xFF, 0xFF, 0xFF, 0xFF, 0xFF, 0xFF, 0xFF, 
  0x0F, 0x00, 0x00, 0xA8, 0xAA, 0xD0, 0x55, 0x57, 0xC7, 0xF0, 0x01, 0x60, 
  0x30, 0x00, 0x00, 0x00, 0x00, 0x00, 0x00, 0x7C, 0x00, 0x00, 0x00, 0x00, 
  0x80, 0xC1, 0x61, 0x0E, 0x80, 0x01, 0x00, 0x00, 0x3C, 0x18, 0x03, 0x00, 
  0xF0, 0x00, 0x7F, 0x30, 0x86, 0x01, 0x00, 0x00, 0x00, 0xCC, 0xFF, 0x78, 
  0xF3, 0xC9, 0xF3, 0x87, 0xFC, 0xFF, 0xFF, 0xFF, 0xFF, 0xFF, 0xFF, 0xFF, 
  0xFF, 0xFF, 0xFF, 0xFF, 0x1F, 0x00, 0x00, 0xFC, 0xFF, 0xC1, 0x00, 0xFF, 
  0xAA, 0xA1, 0xA0, 0x98, 0x50, 0x22, 0xA0, 0x00, 0xA0, 0x00, 0x00, 0x28, 
  0x00, 0x00, 0x00, 0x00, 0x60, 0x0A, 0xAA, 0x0D, 0x42, 0x00, 0x00, 0x00, 
  0x68, 0x25, 0x02, 0x00, 0x40, 0x21, 0x14, 0x6A, 0x69, 0x00, 0x00, 0x00, 
  0x00, 0x54, 0xDF, 0x3D, 0x66, 0x9C, 0xE7, 0xE1, 0xF9, 0xFF, 0xFF, 0xFF, 
  0xFF, 0xFF, 0xFF, 0xFF, 0xFF, 0xFF, 0xFF, 0xFF, 0x5F, 0x00, 0x00, 0x68, 
  0xD5, 0x8A, 0xA8, 0xFE, 0xFC, 0x00, 0xE0, 0xCD, 0x0C, 0x66, 0xF0, 0x01, 
  0xF0, 0x01, 0x00, 0x00, 0x00, 0x00, 0x00, 0x00, 0x30, 0x0F, 0xDF, 0x00, 
  0x06, 0x00, 0x00, 0x00, 0x80, 0x73, 0x00, 0x00, 0x00, 0x36, 0x00, 0xCF, 
  0x3C, 0x00, 0x00, 0x00, 0x00, 0x33, 0xCF, 0x78, 0x73, 0xC8, 0xF3, 0xF0, 
  0xFC, 0xFF, 0xFF, 0xFF, 0xFF, 0xFF, 0xFF, 0xFF, 0xFF, 0xFF, 0xFF, 0xFF, 
  0x3F, 0x00, 0x00, 0x00, 0x80, 0x0F, 0xFC, 0xFF, 0xDD, 0x29, 0x50, 0x88, 
  0xAD, 0xB9, 0x48, 0x28, 0x60, 0x22, 0x00, 0x00, 0x00, 0x00, 0x00, 0x00, 
  0x40, 0x54, 0xA5, 0x88, 0x21, 0x28, 0x00, 0x00, 0x62, 0x47, 0x00, 0x00, 
  0x88, 0x55, 0x02, 0x94, 0x75, 0x22, 0x08, 0x00, 0x00, 0x76, 0x97, 0x3D, 
  0x26, 0x5C, 0xEB, 0x68, 0xFD, 0xFF, 0xFF, 0xFF, 0xFF, 0xFF, 0xFF, 0xFF, 
  0xFF, 0xFF, 0xFF, 0xFF, 0x7F, 0x05, 0x00, 0x80, 0xEA, 0x5F, 0xFD, 0xFF, 
  0xCF, 0x39, 0x00, 0x00, 0xF2, 0xFC, 0x19, 0x7C, 0x70, 0x73, 0x00, 0x00, 
  0x00, 0x00, 0x00, 0x00, 0x00, 0xF0, 0x60, 0xD8, 0x60, 0x7C, 0x00, 0x00, 
  0x33, 0x98, 0x01, 0x00, 0xD8, 0x09, 0x03, 0x60, 0x33, 0x66, 0x18, 0x00, 
  0x70, 0xF8, 0xC3, 0x79, 0x18, 0x38, 0x7C, 0x7C, 0xFE, 0xFF, 0xFF, 0xFF, 
  0xFF, 0xFF, 0xFF, 0xFF, 0xFF, 0xFF, 0xFF, 0xFF, 0xFF, 0x1F, 0x00, 0xC0, 
  0xFF, 0xFF, 0xFF, 0xFF, 0xD7, 0x7E, 0x0A, 0x82, 0xA5, 0xDA, 0xAE, 0x9A, 
  0xB0, 0x02, 0x80, 0xA8, 0x20, 0x00, 0x00, 0x00, 0x08, 0xE2, 0x35, 0xA6, 
  0x12, 0x2A, 0xA0, 0xA0, 0xA6, 0x4A, 0x01, 0x80, 0x24, 0x2E, 0x05, 0x90, 
  0xE2, 0x99, 0x86, 0x20, 0xA2, 0xDE, 0x8F, 0x35, 0x0E, 0x3C, 0x28, 0x5A, 
  0xFF, 0xFF, 0xFF, 0xFF, 0xFF, 0xFF, 0xFF, 0xFF, 0xFF, 0xFF, 0xFF, 0xFF, 
  0xFF, 0x5F, 0x55, 0x95, 0xFA, 0xAB, 0xFF, 0xFF, 0xE3, 0x3F, 0x0F, 0xC6, 
  0x18, 0x9F, 0xFF, 0xCF, 0xFC, 0x01, 0x80, 0xF9, 0x71, 0x00, 0x00, 0x00, 
  0x18, 0x73, 0x7E, 0x33, 0x07, 0x03, 0xF0, 0xF1, 0xD8, 0x07, 0x06, 0x80, 
  0x61, 0xF3, 0x00, 0xC0, 0xF0, 0xCC, 0xC3, 0x31, 0x83, 0xCF, 0xCF, 0x67, 
  0x1F, 0x0C, 0x07, 0xCF, 0xFF, 0xFF, 0xFF, 0xFF, 0xFF, 0xFF, 0xFF, 0xFF, 
  0xFF, 0xFF, 0xFF, 0xFF, 0xFF, 0xFF, 0xFF, 0x7F, 0xE0, 0x00, 0xFE, 0xFF, 
  0xFF, 0x7F, 0x9F, 0x89, 0x55, 0xEF, 0xDF, 0xDD, 0x5D, 0x00, 0x62, 0xDE, 
  0x02, 0x08, 0x00, 0x20, 0x04, 0xB5, 0xBF, 0x76, 0x0A, 0x86, 0x48, 0x62, 
  0xA5, 0x87, 0x01, 0x80, 0xB2, 0xE7, 0x01, 0xA0, 0xE3, 0xDD, 0x2F, 0x6A, 
  0xD6, 0xDF, 0x9D, 0x92, 0x06, 0x8A, 0x02, 0xBD, 0xFF, 0xFF, 0xFF, 0xFF, 
  0xFF, 0xFF, 0xFF, 0xFF, 0xFF, 0xFF, 0xFF, 0xFF, 0xFF, 0xFF, 0xFF, 0x1F, 
  0x7A, 0xA1, 0xFF, 0xFF, 0xFF, 0xFF, 0xCF, 0x18, 0xE6, 0xFF, 0xDF, 0xFC, 
  0x0F, 0x00, 0x37, 0x8F, 0x07, 0x1C, 0x00, 0x60, 0xC0, 0xFC, 0xFF, 0xFF, 
  0x0D, 0x9F, 0x19, 0x73, 0xF3, 0xDF, 0x00, 0x00, 0xE6, 0xDF, 0x00, 0xF0, 
  0xF3, 0xFF, 0x7F, 0x9F, 0xF9, 0xFF, 0x79, 0xC7, 0x03, 0xC3, 0xC0, 0xFC, 
  0xFF, 0xFF, 0xFF, 0xFF, 0xFF, 0xFF, 0xFF, 0xFF, 0xFF, 0xFF, 0xFF, 0xFF, 
  0xFF, 0xFF, 0xFF, 0x0F, 0x3F, 0xF0, 0xFF, 0xFF, 0xDF, 0xFD, 0xDF, 0x8F, 
  0xFA, 0xDF, 0xA7, 0xFD, 0x1F, 0xA0, 0x68, 0xFF, 0x09, 0x80, 0x88, 0x10, 
  0xA8, 0x7B, 0xFF, 0xFF, 0x9A, 0xFE, 0x8C, 0x36, 0xEE, 0xDF, 0x21, 0x00, 
  0x74, 0xAF, 0x01, 0xC0, 0xF7, 0x7F, 0x9F, 0xEE, 0xFD, 0xFF, 0x3C, 0x86, 
  0x07, 0xA6, 0xA8, 0xFB, 0xFF, 0xFF, 0xFF, 0xFF, 0xFF, 0xFF, 0xFF, 0xFF, 
  0xFF, 0xFF, 0xFF, 0xFF, 0xFF, 0xFF, 0xFF, 0x9F, 0x3E, 0xEA, 0xFF, 0xFF, 
  0x8F, 0xF9, 0xFF, 0x9F, 0xF9, 0xCF, 0x73, 0xFE, 0x63, 0xF0, 0xFD, 0xFF, 
  0x1C, 0xC0, 0x9C, 0x01, 0xF8, 0x7F, 0xFE, 0xFF, 0xCF, 0xFF, 0xD9, 0x7F, 
  0xFF, 0xFF, 0x70, 0x00, 0x78, 0xFE, 0x00, 0xC0, 0xFF, 0x38, 0xCF, 0xFF, 
  0x8F, 0xFF, 0x79, 0xDF, 0x03, 0x33, 0xF8, 0xFF, 0xFF, 0xFF, 0xFF, 0xFF, 
  0xFF, 0xFF, 0xFF, 0xFF, 0xFF, 0xFF, 0xFF, 0xFF, 0xFF, 0xFF, 0xFF, 0xCF, 
  0x0F, 0xFF, 0xFF, 0xFF, 0xDF, 0xFC, 0xFF, 0xED, 0xDD, 0xBD, 0xA7, 0xFF, 
  0x17, 0x60, 0xFE, 0xDD, 0x29, 0x80, 0x48, 0x80, 0xFC, 0x7E, 0xFF, 0xFF, 
  0xDF, 0xF7, 0xA6, 0xBF, 0xFF, 0xFF, 0x11, 0x82, 0x9F, 0xF7, 0x01, 0xA0, 
  0xFF, 0x7B, 0x5C, 0xFB, 0x5B, 0x5F, 0x9C, 0xCA, 0x83, 0x56, 0xF7, 0xFF, 
  0xFF, 0xFF, 0xFF, 0xFF, 0xFF, 0xFF, 0xFF, 0xFF, 0xFF, 0xFF, 0xFF, 0xFF, 
  0xFF, 0xFF, 0xFF, 0x8F, 0x5B, 0xFF, 0xFD, 0xFF, 0xE3, 0xF9, 0xFF, 0xF8, 
  0x9F, 0x3C, 0x9E, 0xFF, 0x18, 0x30, 0xFF, 0x99, 0x67, 0x00, 0x1C, 0xC0, 
  0x39, 0xF8, 0xFF, 0xF8, 0xFF, 0xE7, 0xF3, 0xF9, 0xFF, 0xFF, 0x0C, 0xC6, 
  0xCF, 0xF3, 0x07, 0x60, 0xFE, 0x27, 0x3C, 0xE0, 0x60, 0x0E, 0xC8, 0x9C, 
  0xC0, 0xCF, 0x23, 0xFE, 0xFF, 0xFF, 0xFF, 0xFF, 0xFF, 0xFF, 0xFF, 0xFF, 
  0xFF, 0xFF, 0xFF, 0xFF, 0xFF, 0xFF, 0xFF, 0xC3, 0xE0, 0xFF, 0xF8, 0xFF, 
  0x77, 0xDC, 0xFF, 0xDD, 0xE7, 0x79, 0x5D, 0xFF, 0x05, 0x60, 0x7A, 0x4E, 
  0x33, 0x02, 0x00, 0x00, 0xFD, 0xFE, 0xFF, 0xDF, 0xBF, 0xF5, 0xF7, 0x7A, 
  0xFF, 0xFF, 0x99, 0x01, 0x1F, 0xF7, 0x23, 0x90, 0x7F, 0x7B, 0x7D, 0xE0, 
  0xB1, 0x1F, 0x9C, 0xD9, 0xA9, 0x9F, 0x77, 0xFF, 0xFF, 0xFF, 0xFF, 0xFF, 
  0xFF, 0xFF, 0xFF, 0xFF, 0xFF, 0xFF, 0xFF, 0xFF, 0xFF, 0xFF, 0xFF, 0x87, 
  0xF5, 0xFF, 0xF7, 0xFF, 0x63, 0x98, 0x3F, 0x9E, 0xF3, 0xE7, 0x79, 0x3E, 
  0x06, 0x80, 0x3D, 0x1F, 0x66, 0x06, 0x00, 0x00, 0xFE, 0xFF, 0xE3, 0xCF, 
  0xCF, 0xF9, 0xFF, 0x27, 0x8E, 0xFF, 0xCC, 0x00, 0x0E, 0x3F, 0x66, 0xC0, 
  0x7F, 0xFE, 0x3F, 0x80, 0xE0, 0x0F, 0xC8, 0x8C, 0x7C, 0x7E, 0xE2, 0xFF, 
  0xFF, 0xFF, 0xFF, 0xFF, 0xFF, 0xFF, 0xFF, 0xFF, 0xFF, 0xFF, 0xFF, 0xFF, 
  0xFF, 0xFF, 0xFF, 0x03, 0xFE, 0xFF, 0xE3, 0xFF, 0x37, 0xE5, 0x7F, 0x57, 
  0xEF, 0xD7, 0xBC, 0x7F, 0x53, 0xA0, 0x7C, 0x8E, 0x77, 0x83, 0x00, 0x82, 
  0x7F, 0xFF, 0xF7, 0x97, 0xDF, 0xFC, 0x5F, 0xF7, 0xDF, 0xFF, 0x9D, 0x09, 
  0x1F, 0x7E, 0x33, 0x80, 0x97, 0xF7, 0x7F, 0x80, 0x70, 0x3D, 0x9C, 0xF9, 
  0x99, 0x5F, 0xFD, 0xFF, 0xFF, 0xFF, 0xFF, 0xFF, 0xFF, 0xFF, 0xFF, 0xFF, 
  0xFF, 0xFF, 0xFF, 0xFF, 0xFF, 0xFD, 0xFF, 0xA2, 0xFF, 0xFF, 0xF7, 0xFF, 
  0x78, 0xF3, 0x7F, 0x32, 0xFF, 0x9F, 0xF9, 0x8F, 0x27, 0x60, 0x3F, 0xDF, 
  0xFF, 0x87, 0x01, 0xC6, 0x23, 0xFE, 0xF8, 0x63, 0xFE, 0xE1, 0x0F, 0xFE, 
  0x8F, 0xFF, 0xCF, 0x19, 0x7E, 0xE3, 0x67, 0xC0, 0xC3, 0xE7, 0x8F, 0x01, 
  0x20, 0x7C, 0xCC, 0xFC, 0xCC, 0x9F, 0xF9, 0xFF, 0xFF, 0xFF, 0xFF, 0xFF, 
  0xFF, 0xFF, 0xFF, 0xFF, 0xFF, 0xFF, 0xFF, 0xFF, 0xFF, 0xF9, 0x3F, 0xF0, 
  0xFF, 0xFF, 0xE7, 0xFF, 0xB6, 0xF6, 0x3F, 0xE7, 0xFE, 0xE7, 0xF4, 0xBF, 
  0x37, 0x90, 0x7E, 0xAE, 0xFF, 0x97, 0x20, 0xA1, 0x6F, 0xFF, 0xF5, 0x77, 
  0xFF, 0xF2, 0xDF, 0xFF, 0xEF, 0xFD, 0xAF, 0x86, 0x7F, 0xF7, 0x97, 0xC0, 
  0xA5, 0xD9, 0x9F, 0x82, 0xF8, 0x38, 0xA8, 0xF9, 0xDD, 0x67, 0xFE, 0xFF, 
  0xFF, 0xFF, 0xFF, 0xFF, 0xFF, 0xFF, 0xFF, 0xFF, 0xFF, 0xFF, 0xFF, 0xFF, 
  0xFF, 0xFC, 0xBF, 0xE2, 0xFF, 0xFF, 0xD3, 0xFF, 0xE3, 0xF9, 0x7F, 0xF2, 
  0x8F, 0xF3, 0xE1, 0x7F, 0x0E, 0xC0, 0x23, 0xFF, 0x3F, 0x0E, 0x70, 0xF0, 
  0xDF, 0x3F, 0xF3, 0xE7, 0xFF, 0xE7, 0xE3, 0xFF, 0xF3, 0xF8, 0x73, 0xC2, 
  0xFF, 0xF8, 0xCF, 0xF1, 0xF0, 0xCC, 0x0F, 0x86, 0xFD, 0x7C, 0xF0, 0xFC, 
  0xFF, 0x33, 0xFF, 0xFF, 0xFF, 0xFF, 0xFF, 0xFF, 0xFF, 0xFF, 0xFF, 0xFF, 
  0xFF, 0xFF, 0xFF, 0xFF, 0xFF, 0xF9, 0xCF, 0xF3, 0xFF, 0xFF, 0x87, 0xFF, 
  0xF7, 0xFC, 0x7F, 0xEB, 0x5B, 0xE7, 0xF8, 0x7F, 0x1D, 0xA2, 0x77, 0xDE, 
  0x7F, 0x2F, 0x42, 0xE1, 0x8F, 0x5F, 0xE6, 0xF3, 0xFF, 0xF3, 0xF7, 0xFF, 
  0xE5, 0xFF, 0x87, 0xD7, 0xFF, 0xDD, 0x9F, 0xE0, 0xF1, 0xD5, 0x3F, 0x4B, 
  0xD8, 0xB9, 0xE0, 0xF9, 0x77, 0x55, 0xFF, 0xFF, 0xFF, 0xFF, 0xFF, 0xFF, 
  0xFF, 0xFF, 0xFF, 0xFF, 0xFF, 0xFF, 0xFF, 0xFF, 0x7F, 0xFC, 0xAF, 0xE7, 
  0xFF, 0xFF, 0xC3, 0xFF, 0xE3, 0xF9, 0xFF, 0x9C, 0x30, 0xF3, 0xFD, 0xFF, 
  0x60, 0x33, 0xE3, 0x19, 0xFE, 0x73, 0x86, 0x87, 0xCF, 0x9F, 0x99, 0xE7, 
  0xFF, 0xE7, 0xF8, 0xFF, 0xF0, 0xFF, 0xDF, 0xFF, 0xFF, 0x98, 0x9F, 0x81, 
  0x7C, 0xF2, 0x7F, 0x1E, 0x9C, 0xE7, 0xF0, 0xFC, 0x33, 0xCC, 0xFF, 0xFF, 
  0xFF, 0xFF, 0xFF, 0xFF, 0xFF, 0xFF, 0xFF, 0xFF, 0xFF, 0xFF, 0xFF, 0xFF, 
  0x7F, 0xF8, 0xF3, 0xF3, 0xFF, 0xFF, 0x87, 0xFF, 0xF7, 0xDC, 0xFF, 0xC9, 
  0x61, 0xE6, 0xF9, 0xDF, 0xAB, 0x4E, 0xAF, 0xAA, 0xFE, 0x37, 0x63, 0xE3, 
  0xDD, 0x6F, 0xD5, 0x79, 0xDF, 0xF3, 0xDD, 0xFD, 0xE2, 0xDF, 0x8F, 0xBF, 
  0xFF, 0xCD, 0x5F, 0xE2, 0x9D, 0x6B, 0xBF, 0x2D, 0x4C, 0xF3, 0xE3, 0xFD, 
  0xE5, 0xBA, 0xFF, 0xFF, 0xFF, 0xFF, 0xFF, 0xFF, 0xFF, 0xFF, 0xFF, 0xFF, 
  0xFF, 0xFF, 0xFF, 0xFF, 0x3F, 0xFC, 0xEB, 0xE7, 0xFF, 0xFF, 0xC5, 0xFF, 
  0xE7, 0x99, 0xFF, 0x98, 0x37, 0xF3, 0xE7, 0x9F, 0xDF, 0x9F, 0x1F, 0xE6, 
  0xF9, 0x7F, 0x36, 0xF6, 0xFC, 0x3F, 0xE6, 0x7C, 0x9E, 0xE7, 0xCF, 0x38, 
  0xF3, 0xCF, 0xDF, 0xCF, 0xFF, 0x98, 0x3F, 0xE7, 0xCF, 0x3C, 0xFF, 0x3C, 
  0x1F, 0xE6, 0x83, 0xFF, 0xF0, 0xFF, 0xFF, 0xFF, 0xFF, 0xFF, 0xFF, 0xFF, 
  0xFF, 0xFF, 0xFF, 0xFF, 0xFF, 0xFF, 0xFF, 0xFF, 0x7F, 0xF8, 0x98, 0xF3, 
  0xFF, 0xFF, 0x99, 0xFF, 0xD7, 0x6D, 0xFF, 0xCD, 0x71, 0xE6, 0xF5, 0x6F, 
  0xAF, 0x6F, 0x87, 0x79, 0xFE, 0xBD, 0xE3, 0xCB, 0xF9, 0x7D, 0xDA, 0x39, 
  0xCF, 0x79, 0xBF, 0x3D, 0xEA, 0xDD, 0xDF, 0xDD, 0xFF, 0xEB, 0xFF, 0xD4, 
  0x97, 0x7C, 0xDE, 0x79, 0x25, 0xF3, 0xC5, 0xF7, 0xF2, 0xFF, 0xFF, 0xFF, 
  0xFF, 0xFF, 0xFF, 0xFF, 0xFF, 0xFF, 0xFF, 0xFF, 0xFF, 0xFF, 0xFF, 0xFF, 
  0x3F, 0xFC, 0xCD, 0xE7, 0xFF, 0xFF, 0xDC, 0xFF, 0x9F, 0x7F, 0xFE, 0xD8, 
  0x20, 0xF3, 0xF8, 0x7F, 0xFE, 0x78, 0xC2, 0x3C, 0xFF, 0xF9, 0xF7, 0xDF, 
  0xFC, 0x3C, 0xCC, 0x7C, 0xDE, 0x3C, 0x3F, 0x0F, 0x98, 0xF8, 0xFF, 0xFC, 
  0xFF, 0xE7, 0xFF, 0x99, 0x63, 0x3F, 0xCF, 0xF7, 0x70, 0xE6, 0x80, 0x33, 
  0xFF, 0xFF, 0xFF, 0xFF, 0xFF, 0xFF, 0xFF, 0xFF, 0xFF, 0xFF, 0xFF, 0xFF, 
  0xFF, 0xFF, 0xFF, 0xFF, 0x7F, 0xF8, 0x98, 0xF3, 0xFF, 0xFF, 0x8D, 0xFF, 
  0xCD, 0xB7, 0xFF, 0xAD, 0x59, 0xE6, 0xFD, 0x1F, 0xDF, 0xBB, 0x97, 0x5A, 
  0xFE, 0x5D, 0xEB, 0xA5, 0xFD, 0xFB, 0xA8, 0x59, 0x87, 0xB9, 0x5E, 0x8F, 
  0x6E, 0xF7, 0xDD, 0x79, 0xFF, 0xF3, 0x75, 0xDE, 0x17, 0x7E, 0xBF, 0xEB, 
  0x2B, 0xD5, 0xCB, 0x75, 0x7F, 0xFF, 0xFF, 0xFF, 0xFF, 0xFF, 0xFF, 0xFF, 
  0xFF, 0xFF, 0xFF, 0xFF, 0xFF, 0xFF, 0xFF, 0xFF, 0x3F, 0xF4, 0xEB, 0xE7, 
  0x7F, 0x7F, 0xDA, 0xFF, 0x98, 0xF3, 0x7F, 0xFE, 0x0C, 0x83, 0xF8, 0x1F, 
  0xCE, 0xE7, 0x7F, 0x0F, 0xFF, 0x0F, 0x9E, 0xF0, 0xFF, 0xE7, 0xF0, 0xCC, 
  0xC3, 0xCC, 0x9F, 0xC3, 0x3F, 0xF2, 0xCC, 0x20, 0xFE, 0xE7, 0x30, 0xFF, 
  0x18, 0x8F, 0x7F, 0xFE, 0x7F, 0xCC, 0x9F, 0xFC, 0x3F, 0xFF, 0xFF, 0xFF, 
  0xFF, 0xFF, 0xFF, 0xFF, 0xFF, 0xFF, 0xFF, 0xFF, 0xFF, 0xFF, 0xFF, 0xFF, 
  0x7F, 0xF0, 0xE7, 0xF3, 0x7F, 0x3E, 0x8F, 0x3F, 0xCE, 0xE7, 0x3F, 0xDF, 
  0x19, 0xC6, 0xFF, 0x8F, 0xBD, 0xF2, 0x2F, 0x9F, 0x7C, 0xBF, 0xCF, 0xE1, 
  0xFB, 0xD9, 0xE1, 0x95, 0x87, 0x9B, 0xEB, 0xD5, 0xFD, 0xF5, 0x5D, 0xD1, 
  0xFF, 0xF7, 0xEA, 0xF6, 0x8B, 0xD6, 0xB5, 0xFA, 0x77, 0xBD, 0x4D, 0xFD, 
  0x57, 0xFF, 0xFF, 0xFF, 0xFF, 0xFF, 0xFF, 0xFF, 0xFF, 0xFF, 0xFF, 0xFF, 
  0xFF, 0xFF, 0xFF, 0xFF, 0x7F, 0xE1, 0xA1, 0xE7, 0x1F, 0x7F, 0xDE, 0x37, 
  0x9F, 0xF3, 0x7F, 0xDE, 0x0C, 0x83, 0xFF, 0xDF, 0x39, 0xE7, 0xC3, 0xE7, 
  0x3D, 0xFF, 0x9F, 0xF7, 0xFC, 0x8C, 0x87, 0xC3, 0xC3, 0xCF, 0xF1, 0xFC, 
  0xF8, 0xF8, 0x3F, 0x87, 0xFF, 0x3F, 0xFF, 0xF3, 0x87, 0xF1, 0xE0, 0xE1, 
  0xE7, 0xFF, 0x19, 0xFF, 0xC3, 0xFF, 0xFF, 0xFF, 0xFF, 0xFF, 0xFF, 0xFF, 
  0xFF, 0xFF, 0xFF, 0xFF, 0xFF, 0xFF, 0xFF, 0xFF, 0xFF, 0x80, 0xC0, 0xF3, 
  0x0F, 0x3E, 0xF3, 0x03, 0xDF, 0xD7, 0x77, 0x8D, 0x19, 0xCE, 0xFF, 0x27, 
  0x74, 0x72, 0xC5, 0x59, 0x6A, 0xDF, 0xED, 0xD7, 0xFD, 0x59, 0x47, 0x87, 
  0xA3, 0x9E, 0xA5, 0x5D, 0x5F, 0xDD, 0xFB, 0x4A, 0xFF, 0xBF, 0xF6, 0xEF, 
  0x61, 0x6A, 0x7B, 0xDA, 0x5B, 0x7F, 0x06, 0xDE, 0xA7, 0xFF, 0xFF, 0xFF, 
  0xFF, 0xFF, 0xFF, 0xFF, 0xFF, 0xFF, 0xFF, 0xFF, 0xFF, 0xFF, 0xFF, 0xFF, 
  0xFF, 0x81, 0x88, 0xE7, 0x5F, 0xBF, 0xE6, 0x03, 0xFF, 0xCF, 0xE7, 0xD9, 
  0x0C, 0x9F, 0xFF, 0x73, 0x20, 0x37, 0xF0, 0x0C, 0x83, 0xCF, 0xF8, 0xCF, 
  0xFF, 0x60, 0x1E, 0xC3, 0x61, 0xC8, 0x1F, 0x0E, 0x0E, 0xC8, 0xFC, 0x19, 
  0xFE, 0xCF, 0x87, 0xFF, 0x30, 0x1F, 0x3E, 0x8F, 0x0F, 0x3E, 0x03, 0x9F, 
  0xF3, 0xFF, 0xFF, 0xFF, 0xFF, 0xFF, 0xFF, 0xFF, 0xFF, 0xFF, 0xFF, 0xFF, 
  0xFF, 0xFF, 0xFF, 0xFF, 0xFF, 0x07, 0x1C, 0xF2, 0x33, 0xCE, 0xF3, 0x00, 
  0xFF, 0xBF, 0xF1, 0xCC, 0x19, 0xCE, 0xFF, 0x27, 0x72, 0x62, 0x60, 0x15, 
  0xE7, 0xBD, 0x75, 0x8F, 0xFF, 0xD1, 0x1E, 0xC6, 0x30, 0x96, 0x86, 0x97, 
  0x9D, 0xD4, 0xB9, 0x28, 0xFF, 0x9F, 0xCA, 0xF7, 0xA9, 0xA4, 0x7D, 0xFD, 
  0xBD, 0xFD, 0x0A, 0xE7, 0xF7, 0xFF, 0xFF, 0xFF, 0xFF, 0xFF, 0xFF, 0xFF, 
  0xFF, 0xFF, 0xFF, 0xFF, 0xFF, 0xFF, 0xFF, 0xFF, 0x5F, 0x01, 0x18, 0xE1, 
  0x76, 0x8A, 0xE7, 0xA0, 0x8F, 0xFF, 0xE1, 0x99, 0x7C, 0x9F, 0xFF, 0x1F, 
  0x37, 0x36, 0x30, 0xC3, 0xF3, 0x7C, 0x66, 0xC2, 0xFF, 0x87, 0x79, 0xF3, 
  0x61, 0x63, 0xC3, 0xC3, 0x98, 0xF1, 0xCC, 0x61, 0xFE, 0x7F, 0x98, 0x83, 
  0xCC, 0xF1, 0xF8, 0xFC, 0xFC, 0xF8, 0xDC, 0xF3, 0xFF, 0xFF, 0xFF, 0xFF, 
  0xFF, 0xFF, 0xFF, 0xFF, 0xFF, 0xFF, 0xFF, 0xFF, 0xFF, 0xFF, 0xFF, 0xFF, 
  0x0F, 0x00, 0x7C, 0x30, 0x38, 0xC0, 0x33, 0xE0, 0xFF, 0x7F, 0xD8, 0xCD, 
  0x35, 0xCE, 0xFF, 0x07, 0x63, 0x63, 0x70, 0x4E, 0x75, 0xB9, 0x95, 0xC7, 
  0xFF, 0x87, 0x6A, 0xE7, 0x34, 0xB6, 0x2F, 0xAB, 0x6C, 0xEA, 0x58, 0xA2, 
  0xFE, 0x37, 0xE8, 0xE3, 0x1D, 0xF5, 0xFF, 0xFB, 0xFB, 0xDF, 0xAD, 0xEB, 
  0xEF, 0xFF, 0xFF, 0xFF, 0xFF, 0xFF, 0xFF, 0xFF, 0xFF, 0xFF, 0xFF, 0xFF, 
  0xFF, 0xFF, 0xFF, 0xFF, 0x8D, 0x56, 0x70, 0x20, 0x5E, 0xA0, 0x57, 0xF8, 
  0xFF, 0x3F, 0x8C, 0x9F, 0x63, 0x98, 0xFF, 0xC3, 0x33, 0x36, 0x3C, 0x3F, 
  0x38, 0xFC, 0xD8, 0x9F, 0xFF, 0x1F, 0xF6, 0xF3, 0x79, 0xE7, 0x7F, 0x7C, 
  0x38, 0x8F, 0x3D, 0x87, 0xF9, 0x67, 0xE0, 0xF0, 0x7F, 0xFE, 0xFF, 0xFF, 
  0xFF, 0x9F, 0xFF, 0xFC, 0xF3, 0xFF, 0xFF, 0xFF, 0xFF, 0xFF, 0xFF, 0xFF, 
  0xFF, 0xFF, 0xFF, 0xFF, 0xFF, 0xFF, 0xFF, 0xFF, 0xC0, 0x3F, 0xE0, 0x01, 
  0x0F, 0xF0, 0x09, 0xFC, 0xFF, 0x7D, 0xCA, 0x4F, 0x37, 0x8C, 0xFE, 0xA7, 
  0x67, 0x63, 0xB8, 0x7E, 0x7E, 0xDC, 0xA9, 0xDD, 0xFF, 0x5F, 0xE8, 0x65, 
  0x9C, 0xFA, 0x97, 0x14, 0x5C, 0x9F, 0x7C, 0x89, 0xFE, 0x59, 0xF4, 0xF5, 
  0xFF, 0xFF, 0xFF, 0xFF, 0xFF, 0x6F, 0xFD, 0xF8, 0xEB, 0xFF, 0xFF, 0xFF, 
  0xFF, 0xFF, 0xFF, 0xFF, 0xFF, 0x5F, 0xD5, 0x5F, 0xFD, 0xFF, 0xFF, 0xFF, 
  0x80, 0x7E, 0xD1, 0x85, 0x16, 0x60, 0x8D, 0x5A, 0xFF, 0x7C, 0x86, 0x1F, 
  0x66, 0x18, 0xFF, 0x67, 0x32, 0x86, 0xCD, 0x39, 0x3F, 0xCF, 0xF0, 0xFC, 
  0xE3, 0x3F, 0x9C, 0x60, 0x98, 0xF9, 0xC3, 0x03, 0xCC, 0xCF, 0xF9, 0x1C, 
  0xFE, 0x8C, 0xF9, 0xFF, 0xFF, 0xFF, 0xFF, 0xFF, 0xFF, 0x3F, 0x38, 0x9C, 
  0xFC, 0xFF, 0xFF, 0xFF, 0xFF, 0xFF, 0xFF, 0xFF, 0xFF, 0x0F, 0x80, 0x0F, 
  0xFC, 0xFF, 0xFF, 0x3F, 0x00, 0xF8, 0x87, 0xC3, 0xC3, 0x71, 0xC2, 0x0F, 
  0xFF, 0x9D, 0x61, 0x17, 0xB3, 0x2C, 0x76, 0x9B, 0x67, 0xCB, 0x98, 0x7E, 
  0x7E, 0xBE, 0xE1, 0xFB, 0xF7, 0xB7, 0xE0, 0x31, 0x6D, 0x68, 0x95, 0x03, 
  0xDA, 0xD7, 0xFD, 0x21, 0xFD, 0x79, 0xFC, 0xFF, 0xFF, 0xFF, 0xFF, 0xFF, 
  0xFF, 0xFF, 0xFE, 0xCA, 0xFD, 0xFF, 0xFF, 0xFF, 0xFF, 0xFF, 0xFF, 0xFF, 
  0x7F, 0x0D, 0x40, 0x5D, 0xE9, 0xFD, 0xFF, 0x3F, 0xAA, 0xE8, 0x47, 0xC7, 
  0x97, 0x30, 0xA3, 0x5D, 0xFF, 0xCF, 0x30, 0x66, 0xE6, 0x79, 0x37, 0xCF, 
  0x83, 0x9F, 0x7D, 0x3E, 0x3F, 0x7F, 0x86, 0xE3, 0xE3, 0xC3, 0xF1, 0x60, 
  0x3E, 0x70, 0x78, 0x00, 0xE6, 0xF3, 0x8F, 0x70, 0xF8, 0x3C, 0xF8, 0xFF, 
  0xFF, 0xFF, 0xFF, 0xFF, 0xFF, 0xFF, 0xFF, 0x83, 0xFF, 0xFF, 0xFF, 0xFF, 
  0xFF, 0xFF, 0xFF, 0xFF, 0x7F, 0x00, 0x00, 0xE0, 0x87, 0xF9, 0xFF, 0x0F, 
  0xFF, 0x81, 0x1F, 0xF3, 0x78, 0x7C, 0xF0, 0xE1, 0xFF, 0xAF, 0x55, 0x33, 
  0xD3, 0x38, 0x76, 0xAE, 0x67, 0xCF, 0x38, 0xBF, 0x76, 0x3E, 0x4A, 0xE7, 
  0xF7, 0x8F, 0x6A, 0xB9, 0x7F, 0xB0, 0x16, 0x80, 0xF3, 0xF5, 0xDF, 0x42, 
  0xF5, 0x3D, 0x7F, 0xFF, 0xF7, 0xFF, 0xFF, 0xFF, 0xFF, 0xFF, 0xFF, 0xD7, 
  0xFF, 0xFF, 0xFF, 0xFF, 0xFF, 0xFF, 0xFF, 0xFF, 0x17, 0x00, 0x00, 0xA0, 
  0xAA, 0xF6, 0xFF, 0x5F, 0xFF, 0x46, 0x15, 0xE6, 0x1E, 0x1A, 0xA4, 0xDA, 
  0xFF, 0x73, 0x0E, 0x66, 0x86, 0x21, 0x3F, 0xF3, 0x33, 0x9E, 0x61, 0xCE, 
  0xF3, 0x79, 0x0C, 0x83, 0xF8, 0x7F, 0x7E, 0xF8, 0x23, 0xFC, 0x03, 0xC0, 
  0xE7, 0xFC, 0x38, 0x87, 0xE7, 0x0F, 0x7E, 0xFE, 0xE3, 0xFF, 0xFF, 0xFF, 
  0xFF, 0xFF, 0xFF, 0xFF, 0xFF, 0xFF, 0xFF, 0xFF, 0xFF, 0xFF, 0xFF, 0xFF, 
  0x03, 0x00, 0x00, 0x00, 0x78, 0xE6, 0xFF, 0xE3, 0xFF, 0x1F, 0x60, 0x33, 
  0x0F, 0x0F, 0x1F, 0x0E, 0xFF, 0xB7, 0x8F, 0xDB, 0xC3, 0x75, 0x7F, 0xE7, 
  0xC7, 0x5D, 0xB2, 0xD7, 0xC7, 0xBC, 0x18, 0x46, 0xFD, 0x57, 0x17, 0xDE, 
  0x37, 0xFA, 0x03, 0xA8, 0xF9, 0x7B, 0x3D, 0x4A, 0xF7, 0x5F, 0x1F, 0xFD, 
  0xD3, 0xFF, 0xFF, 0x7D, 0xFF, 0xFF, 0xFF, 0xFF, 0xFF, 0xFF, 0xFF, 0xFF, 
  0xFF, 0xFF, 0xFF, 0x7F, 0x03, 0x00, 0x00, 0x00, 0x94, 0xD9, 0xF5, 0xFF, 
  0xFF, 0x5F, 0xAD, 0x56, 0x17, 0x8F, 0x56, 0x55, 0xFF, 0xFF, 0xC3, 0x8F, 
  0x87, 0xE3, 0xFF, 0x9F, 0xC3, 0x38, 0xE7, 0xE3, 0x83, 0xF9, 0x61, 0x18, 
  0xF8, 0x83, 0x07, 0xCF, 0x08, 0x8F, 0x00, 0xF8, 0xFC, 0x3F, 0xCF, 0x19, 
  0xFE, 0xE3, 0x0F, 0xF8, 0x80, 0xFF, 0xFF, 0x3C, 0xFF, 0xFF, 0xFF, 0xFF, 
  0xFF, 0xFF, 0xFF, 0xFF, 0xFF, 0xFF, 0xFF, 0x7F, 0x00, 0x00, 0x00, 0x00, 
  0xC0, 0xCC, 0xF0, 0xFF, 0xFF, 0xFF, 0xDF, 0x9F, 0xC3, 0xC3, 0xE7, 0xE1, 
  0xFF, 0x7F, 0xA7, 0xDD, 0xC3, 0xF7, 0x7D, 0xCF, 0x8B, 0x75, 0xF2, 0xFD, 
  0xCF, 0xFD, 0xA2, 0x28, 0xDE, 0x6F, 0x83, 0x96, 0x17, 0x7F, 0x81, 0xDE, 
  0xFA, 0x6F, 0xAF, 0x25, 0xFD, 0xF7, 0x97, 0x74, 0x89, 0xDE, 0xFF, 0xF8, 
  0xFE, 0xEF, 0xFF, 0xFF, 0xFF, 0xFF, 0xFF, 0xFF, 0xFF, 0xFF, 0xFF, 0x3F, 
  0x08, 0x80, 0xAA, 0x0A, 0x80, 0x9A, 0xF5, 0xFF, 0xFF, 0x7F, 0x81, 0xBF, 
  0xAA, 0xD7, 0x59, 0x5A, 0xFF, 0x3F, 0xF3, 0x8C, 0x87, 0xE3, 0x78, 0x9E, 
  0xCC, 0x30, 0xE7, 0xF9, 0x9F, 0xFF, 0x87, 0x61, 0xCE, 0x3F, 0xC6, 0xC3, 
  0xC3, 0x3F, 0xC0, 0x0F, 0xFF, 0x83, 0xF3, 0x73, 0xFC, 0xF9, 0x83, 0x31, 
  0x18, 0x9F, 0x3F, 0xE0, 0xE3, 0x83, 0xFF, 0xFF, 0xFF, 0xFF, 0xFF, 0xFF, 
  0xFF, 0xFF, 0xFF, 0x7F, 0x1C, 0xC0, 0xFF, 0x1F, 0x00, 0x66, 0xFE, 0xFF, 
  0xFF, 0x3F, 0x00, 0x7E, 0xFC, 0xF8, 0x0C, 0x0F, 0xFF, 0xFF, 0xF6, 0x19, 
  0x4B, 0xEF, 0xB7, 0xD7, 0x98, 0xA3, 0xDA, 0xFC, 0xCD, 0xFF, 0xC9, 0x30, 
  0x9F, 0xFF, 0xA1, 0xC3, 0xC5, 0x2F, 0x2A, 0x3D, 0xFF, 0xF7, 0xE7, 0x97, 
  0x78, 0xFE, 0x4F, 0xF0, 0x08, 0xEF, 0x3D, 0xE2, 0xE3, 0xA7, 0xFE, 0xFF, 
  0xFF, 0xFF, 0xFF, 0xFF, 0xFF, 0xFF, 0xFF, 0x1F, 0xA0, 0xAA, 0x56, 0xA5, 
  0x02, 0xAA, 0x5D, 0xFF, 0xFF, 0xB7, 0x02, 0x0A, 0xFC, 0x7F, 0xAB, 0x96, 
  0xFF, 0xFF, 0xFF, 0x1C, 0x1E, 0x9E, 0xE3, 0x33, 0xCC, 0xC3, 0x8C, 0xF9, 
  0x99, 0xFF, 0x9C, 0x61, 0xCE, 0xFF, 0xF0, 0xF1, 0xF0, 0x03, 0x7E, 0xF8, 
  0xE3, 0xFF, 0x83, 0xCF, 0x3C, 0xFF, 0x0F, 0xFC, 0xC1, 0xFF, 0x0C, 0x87, 
  0x80, 0x63, 0xF8, 0xFF, 0xFF, 0xFF, 0xFF, 0xFF, 0xFF, 0xFF, 0xFF, 0x0F, 
  0xF0, 0x3F, 0x00, 0xF0, 0x03, 0xD8, 0x0C, 0xFE, 0xFF, 0xC3, 0x07, 0x00, 
  0xFF, 0x7F, 0xF2, 0x80, 0xFF, 0xDF, 0xFF, 0x09, 0x0F, 0x6F, 0xF7, 0x37, 
  0x5A, 0x07, 0xDD, 0xFE, 0xCC, 0xFF, 0xA9, 0xA2, 0x9F, 0xBF, 0x6A, 0xEA, 
  0x70, 0xA5, 0x17, 0xF6, 0xD7, 0xFF, 0x47, 0x9F, 0xDA, 0xFE, 0x1F, 0xFA, 
  0xC2, 0xF7, 0x1D, 0x60, 0x89, 0x27, 0xFE, 0xFF, 0xFF, 0xFF, 0xFF, 0xFF, 
  0xFF, 0xFF, 0xFF, 0x1F, 0xA0, 0x55, 0x00, 0xA0, 0x07, 0xA0, 0xDA, 0xFF, 
  0x7F, 0xCB, 0x55, 0x01, 0xEA, 0x9F, 0x55, 0xE1, 0xFF, 0xCF, 0xF8, 0x1C, 
  0x1E, 0x3E, 0xE3, 0x0F, 0x26, 0x03, 0x8F, 0xFF, 0x99, 0xFF, 0x67, 0x86, 
  0xCF, 0x0F, 0x3F, 0x3F, 0x3C, 0xF0, 0x03, 0xE7, 0x9F, 0xFF, 0x1F, 0x0F, 
  0x87, 0xFF, 0x63, 0xE6, 0xF3, 0xF3, 0x7F, 0x30, 0x18, 0x02, 0xFE, 0xFF, 
  0xFF, 0xFF, 0xFF, 0xFF, 0xFF, 0xFF, 0xFF, 0x0F, 0x00, 0x00, 0x00, 0x00, 
  0x1E, 0x30, 0xE7, 0xFF, 0x3F, 0xFC, 0xF9, 0x00, 0x80, 0xCF, 0x0C, 0xE0, 
  0xFF, 0xBF, 0xDD, 0x51, 0x5E, 0x7E, 0xED, 0x9F, 0x71, 0x2A, 0xDA, 0xDF, 
  0xCD, 0xF7, 0x15, 0x43, 0xDF, 0x5B, 0xF7, 0x7A, 0x3A, 0xA2, 0xA2, 0xF8, 
  0xDD, 0xDF, 0x1F, 0x1E, 0xE2, 0xFF, 0xA3, 0x7B, 0xF7, 0xE3, 0x7F, 0xE9, 
  0x84, 0x8F, 0xFF, 0xFF, 0xFF, 0xFF, 0xFF, 0xFF, 0xFF, 0xFF, 0xFF, 0x1F, 
  0x00, 0x00, 0xAA, 0x00, 0x1E, 0x20, 0x29, 0xFD, 0xFF, 0x74, 0xFE, 0x0A, 
  0x80, 0xDA, 0x15, 0x58, 0xFF, 0xFF, 0xCF, 0x30, 0x38, 0xF8, 0x98, 0xCF, 
  0x20, 0x3C, 0xE0, 0x8F, 0x9F, 0xE7, 0x19, 0x06, 0xFE, 0xE0, 0xF3, 0x30, 
  0x0F, 0x1F, 0xF0, 0xFD, 0xF9, 0x9F, 0x7F, 0x67, 0xF6, 0xFF, 0xC0, 0x3F, 
  0xFF, 0x80, 0xFF, 0xFC, 0xC0, 0x9F, 0xFF, 0xFF, 0xFF, 0xFF, 0xFF, 0xFF, 
  0xFF, 0xFF, 0xFF, 0x63, 0x00, 0x00, 0xFE, 0x01, 0x78, 0xC0, 0x1C, 0xF8, 
  0xFF, 0x33, 0x23, 0x1F, 0x00, 0xE0, 0x03, 0x0C, 0xFF, 0xFF, 0xBF, 0x61, 
  0x7C, 0xFC, 0xE7, 0x5F, 0x59, 0x78, 0xD0, 0x9F, 0xBF, 0xDB, 0xA6, 0x0A, 
  0xDE, 0xF1, 0x6D, 0x61, 0x5F, 0x07, 0x4A, 0xEA, 0xFC, 0x67, 0x3F, 0x72, 
  0xF7, 0xFF, 0x88, 0x5F, 0xFE, 0x88, 0xD7, 0xBD, 0xA1, 0xED, 0xFF, 0xFF, 
  0xFF, 0xFF, 0xFF, 0xFF, 0xFF, 0xFF, 0xFF, 0xA7, 0x0A, 0xA0, 0xF7, 0xA2, 
  0x38, 0x80, 0xA9, 0xFE, 0xFF, 0x57, 0x56, 0x02, 0x00, 0xE0, 0xA3, 0x50, 
  0xFF, 0x3F, 0xFE, 0x77, 0x38, 0xF8, 0xF3, 0x3F, 0x0C, 0xE6, 0xC1, 0x1F, 
  0x7E, 0xCE, 0xF3, 0x19, 0xC8, 0xE0, 0x79, 0x9C, 0xFF, 0x03, 0x1F, 0xF3, 
  0xF9, 0x33, 0x7E, 0xE7, 0xFF, 0x3F, 0xCC, 0x0F, 0x38, 0x1C, 0xC2, 0x0F, 
  0xF6, 0xF9, 0xFF, 0xFF, 0xFF, 0xFF, 0xFF, 0xFF, 0xFF, 0xFF, 0xFF, 0xC3, 
  0x1F, 0xF0, 0xE7, 0xF3, 0x61, 0x00, 0xF2, 0xFF, 0xFF, 0x0F, 0x9F, 0x01, 
  0x00, 0x80, 0xF0, 0xF0, 0xFF, 0xFF, 0xF7, 0x77, 0xF4, 0xF8, 0x75, 0x7F, 
  0x08, 0xD7, 0x85, 0x2F, 0x6A, 0xDF, 0x6B, 0x1D, 0x5C, 0x55, 0x96, 0xD4, 
  0xFF, 0xAF, 0xAE, 0x76, 0xFF, 0xEB, 0x3E, 0xA6, 0xFF, 0xFF, 0x98, 0x17, 
  0x74, 0x80, 0x8D, 0x17, 0x6B, 0xF4, 0xFF, 0xFF, 0xFF, 0xFF, 0xFF, 0xFF, 
  0xFF, 0xFF, 0xFF, 0x0F, 0xAD, 0x6A, 0x51, 0xC7, 0x30, 0x80, 0x43, 0xFF, 
  0xFF, 0x3F, 0x6A, 0x1A, 0x00, 0x80, 0xA5, 0xE5, 0xFF, 0xFF, 0x33, 0xFE, 
  0xE1, 0xE1, 0x3C, 0x23, 0x07, 0x9E, 0x1F, 0x7E, 0xF0, 0xFF, 0x7C, 0x7E, 
  0x38, 0x0F, 0xC3, 0xE3, 0xFF, 0xFF, 0xFF, 0x7F, 0x8E, 0x9C, 0x79, 0xC3, 
  0xFF, 0xFF, 0x61, 0xC2, 0xF1, 0xC1, 0x08, 0x72, 0x7E, 0xE0, 0xFF, 0xFF, 
  0xFF, 0xFF, 0xFF, 0xFF, 0xFF, 0xFF, 0xFF, 0x0F, 0xF8, 0x3F, 0x00, 0x83, 
  0x61, 0xC0, 0x00, 0xFE, 0xFF, 0x3F, 0x30, 0x7F, 0x00, 0x00, 0x1E, 0x1E, 
  0xFF, 0xFF, 0x77, 0xFE, 0xF1, 0xE2, 0x79, 0x76, 0x22, 0xCA, 0x1D, 0x7E, 
  0xD0, 0xFF, 0xDD, 0x57, 0x79, 0x1D, 0xA2, 0xFF, 0xFF, 0xFF, 0xFF, 0xBF, 
  0x5F, 0x21, 0x9D, 0x8A, 0x7F, 0xFF, 0x2A, 0x86, 0xF0, 0xA5, 0x95, 0x27, 
  0x1F, 0xD2, 0xFF, 0xFF, 0xFF, 0xFF, 0xFF, 0xFF, 0xFF, 0xFF, 0xFF, 0xBF, 
  0x54, 0x35, 0xAA, 0x4E, 0x78, 0x85, 0x6A, 0xFF, 0xFF, 0x7F, 0x60, 0x7E, 
  0x15, 0x80, 0xA5, 0x25, 0xFF, 0xFF, 0x3F, 0xFF, 0xE7, 0x87, 0xE7, 0xF9, 
  0x71, 0x9C, 0x79, 0xF8, 0xCD, 0x8F, 0x9F, 0xC3, 0xE0, 0x0C, 0x60, 0xFE, 
  0xFF, 0xFF, 0xFF, 0xFF, 0x3F, 0x70, 0xCE, 0xDC, 0x7F, 0xFE, 0x1F, 0x18, 
  0xFC, 0xF3, 0x80, 0x03, 0x1E, 0x87, 0xFF, 0xFF, 0xFF, 0xFF, 0xFF, 0xFF, 
  0xFF, 0xFF, 0xFF, 0xFF, 0x01, 0x00, 0xFF, 0x1F, 0xFC, 0x03, 0xFF, 0xFF, 
  0xFF, 0x3F, 0x37, 0xFF, 0x7F, 0xC0, 0xF0, 0xF0, 0xFF, 0xFF, 0x7F, 0xD7, 
  0xD1, 0xD7, 0xD7, 0xFD, 0x20, 0xB8, 0x76, 0xE9, 0xAD, 0x5F, 0xEF, 0xA5, 
  0xF5, 0x19, 0x9A, 0xFF, 0x7F, 0xDF, 0xFF, 0xFF, 0x7F, 0xC0, 0x9E, 0xE1, 
  0x1F, 0x7D, 0x87, 0x28, 0xFC, 0xF7, 0xE3, 0x87, 0x2D, 0xE0, 0xFF, 0xFF, 
  0xFF, 0xFF, 0xFF, 0xFF, 0xFF, 0xFF, 0xFF, 0xFF, 0xAA, 0xAA, 0xF6, 0x2F, 
  0xD8, 0x57, 0xFF, 0xFF, 0xFF, 0x7F, 0x23, 0xDE, 0x7F, 0x81, 0xEA, 0xEA, 
  0xFF, 0xFF, 0xFF, 0x83, 0x81, 0xFF, 0xCF, 0xE3, 0x1D, 0x7C, 0xE3, 0xF0, 
  0x73, 0x7E, 0xFE, 0x30, 0xE3, 0x0C, 0xCF, 0xFF, 0x3F, 0xCF, 0xFF, 0xE3, 
  0x3F, 0x87, 0x79, 0xF6, 0x0F, 0x3C, 0x83, 0x31, 0xFF, 0xFF, 0xE7, 0xDF, 
  0x78, 0xF0, 0xFF, 0xFF, 0xFF, 0xFF, 0xFF, 0xFF, 0xFF, 0xFF, 0xFF, 0xFF, 
  0xFF, 0xFF, 0xF3, 0x7F, 0x0C, 0xFE, 0xFF, 0xFF, 0xFF, 0xFF, 0x07, 0xCF, 
  0xFF, 0x00, 0x3F, 0x9F, 0xFF, 0xFF, 0xFF, 0xE7, 0xC2, 0xFD, 0xBF, 0xD6, 
  0x8A, 0x68, 0xE7, 0xA5, 0x47, 0xBF, 0xFD, 0x21, 0xF6, 0x1D, 0xD7, 0xFF, 
  0x3F, 0xDE, 0xFD, 0xE3, 0x7F, 0x51, 0x3D, 0xEB, 0x8F, 0x78, 0x4F, 0x70, 
  0xFE, 0xFD, 0xFB, 0xA7, 0x9F, 0xE8, 0xF7, 0xFF, 0x57, 0xFD, 0xFF, 0xFF, 
  0xFF, 0xFF, 0xFF, 0xFF, 0xFF, 0xFF, 0xAF, 0x3A, 0x98, 0xFF, 0xFF, 0xFF, 
  0xFF, 0xFF, 0x23, 0x9E, 0xEA, 0x05, 0x34, 0x84, 0xFF, 0xFF, 0x3F, 0xE2, 
  0x87, 0xFC, 0x3F, 0x98, 0xC3, 0xF0, 0x83, 0x1F, 0x9E, 0xE3, 0xF9, 0x1C, 
  0xE3, 0xCF, 0xE7, 0xFF, 0x0F, 0xF8, 0x8C, 0x80, 0xFF, 0x60, 0x7E, 0xFE, 
  0xC3, 0xE0, 0x1F, 0xFC, 0xF9, 0xFC, 0xFF, 0xF3, 0xCF, 0xFD, 0xE3, 0xFF, 
  0x07, 0xFC, 0xFF, 0xFF, 0xFF, 0xFF, 0xFF, 0xFF, 0xFF, 0xFF, 0x0F, 0x60, 
  0x9C, 0xFF, 0xFF, 0xFF, 0xFF, 0xFF, 0x77, 0x67, 0x80, 0x1F, 0x00, 0x00, 
  0xFF, 0xFF, 0xFF, 0xDF, 0x97, 0xF9, 0x7F, 0xE9, 0x87, 0x60, 0x8F, 0x5F, 
  0xFD, 0xAB, 0x7E, 0x89, 0xE7, 0x9F, 0xFC, 0xFF, 0x8F, 0xF8, 0xD8, 0x88, 
  0xFF, 0x93, 0x57, 0xFF, 0x87, 0xF8, 0x2D, 0xFA, 0xFC, 0xF9, 0xFD, 0xF5, 
  0x17, 0xFA, 0xDF, 0x7F, 0xA1, 0xEA, 0xFF, 0xFF, 0xFF, 0xFF, 0xFF, 0xFF, 
  0xFF, 0x5F, 0x5B, 0x35, 0xDA, 0xFF, 0xFF, 0xFF, 0xFF, 0xFF, 0x2B, 0x72, 
  0x65, 0x05, 0x02, 0x28, 0xFF, 0xFF, 0xFF, 0x8F, 0x0F, 0xE6, 0xF8, 0xE0, 
  0x73, 0x60, 0x1E, 0xFE, 0xF9, 0x1C, 0x7E, 0xC6, 0x83, 0x0F, 0xF8, 0xFF, 
  0xC3, 0x21, 0x30, 0x1C, 0xFE, 0xC7, 0xC3, 0xFF, 0x1F, 0xF8, 0x39, 0xFF, 
  0xF9, 0xFC, 0xFC, 0xFC, 0x03, 0x9F, 0x8F, 0x3F, 0xF0, 0x83, 0xFF, 0xFF, 
  0xFF, 0xFF, 0xFF, 0xFF, 0xFF, 0x0F, 0xE0, 0x7F, 0xFF, 0xFF, 0xFF, 0xFF, 
  0xFF, 0xFF, 0x7F, 0xE7, 0x33, 0x00, 0x07, 0x3C, 0xFF, 0xFF, 0xFF, 0xFF, 
  0xBF, 0xD7, 0xDF, 0xD2, 0x27, 0x32, 0x0D, 0xDA, 0xF5, 0x2D, 0xBD, 0x83, 
  0xD6, 0xAF, 0xFE, 0xFF, 0x17, 0x34, 0x62, 0x80, 0xFF, 0x83, 0xA7, 0xFF, 
  0x5F, 0x7F, 0x74, 0xFF, 0xF5, 0xF9, 0x79, 0xFD, 0x23, 0xEE, 0xDF, 0x3F, 
  0xEA, 0x57, 0xFF, 0xFF, 0xFF, 0xFF, 0xFF, 0xFF, 0x7F, 0x5D, 0xD5, 0x3F, 
  0xFE, 0xFF, 0xFF, 0xFF, 0xFF, 0xDF, 0xBF, 0xAE, 0xA2, 0x02, 0xA8, 0x7A, 
  0xFF, 0xFF, 0xFF, 0xFF, 0xFF, 0xCF, 0x0F, 0x87, 0x1F, 0x66, 0x18, 0x9C, 
  0xE7, 0x7F, 0xF8, 0x77, 0x88, 0xF3, 0xFF, 0xFF, 0x0F, 0x08, 0x83, 0xC1, 
  0xFF, 0x07, 0xF2, 0xFF, 0xFF, 0x3F, 0xF0, 0xE3, 0xE7, 0xFC, 0x3C, 0xFF, 
  0x60, 0xF8, 0x8F, 0x0F, 0xFF, 0x7F, 0xFE, 0xFF, 0xFF, 0xFF, 0xFF, 0xFF, 
  0x7F, 0xE0, 0x9F, 0x7F, 0xFF, 0xFF, 0xFF, 0xFF, 0xFF, 0x9F, 0xFF, 0x1F, 
  0xC0, 0x07, 0xFC, 0xE7, 0xFF, 0xFF, 0xFF, 0xFF, 0x77, 0xBD, 0x3E, 0x40, 
  0xA7, 0xA1, 0x2C, 0xE8, 0x57, 0x9F, 0xDC, 0x6B, 0x9E, 0xE7, 0xFF, 0xFF, 
  0xAF, 0x1D, 0xA2, 0xA2, 0xFF, 0x23, 0xEA, 0xFF, 0x7D, 0x5F, 0xE2, 0xA5, 
  0xF1, 0xF5, 0x39, 0xFE, 0x05, 0xFE, 0x9F, 0x8F, 0xFE, 0x3F, 0xFF, 0xFF, 
  0xFF, 0xFF, 0xFF, 0xFF, 0x9F, 0xFA, 0xC7, 0x3F, 0xFE, 0xFF, 0xFF, 0xFF, 
  0xFF, 0xF7, 0x7F, 0x85, 0x4A, 0x01, 0xFA, 0xDB, 0xFF, 0xFF, 0xFF, 0xFF, 
  0x33, 0x3C, 0x3F, 0x00, 0xF3, 0x80, 0x79, 0xE0, 0x1F, 0xCE, 0xC9, 0x3F, 
  0x0E, 0xF2, 0xFF, 0xFF, 0xF3, 0x7F, 0x60, 0xF6, 0xFF, 0x67, 0xFC, 0xFF, 
  0x7C, 0x0E, 0x83, 0xC0, 0xE1, 0xF3, 0x0C, 0x7F, 0x02, 0xFF, 0x1F, 0xC2, 
  0xFF, 0x7F, 0xFE, 0xFF, 0xFF, 0xFF, 0xFF, 0xFF, 0xCF, 0xFF, 0x83, 0x7F, 
  0xFF, 0xFF, 0xFF, 0xFF, 0xFF, 0xE7, 0x7F, 0xC0, 0x3F, 0x00, 0xFF, 0xCF, 
  0xFF, 0xFF, 0xFF, 0x7F, 0xEF, 0x5A, 0x7D, 0x00, 0xE2, 0xC9, 0xB8, 0xA2, 
  0xA7, 0x9D, 0x94, 0x7F, 0x55, 0xE7, 0xFF, 0xFF, 0x77, 0x7B, 0x18, 0xE9, 
  0xFE, 0x97, 0xFA, 0xFF, 0x1B, 0x3D, 0x62, 0x81, 0xF2, 0xE7, 0x99, 0xAE, 
  0x8F, 0xF6, 0x2F, 0xC7, 0xFF, 0x1F, 0xFF, 0xFF, 0xFF, 0xFF, 0xFF, 0xFF, 
  0xAF, 0xFF, 0xC7, 0xBF, 0xFE, 0xFF, 0x7F, 0x55, 0xFF, 0xF3, 0xBF, 0x0A, 
  0xFD, 0x00, 0xEA, 0xDF, 0xFF, 0xFF, 0xFF, 0x3F, 0xFE, 0xCF, 0xF8, 0x01, 
  0xF0, 0x9C, 0xE1, 0xC7, 0xF3, 0x78, 0x60, 0x8E, 0x31, 0x9E, 0xFF, 0xFF, 
  0x3F, 0xE0, 0x0D, 0x3C, 0xF8, 0xCF, 0xFF, 0xFF, 0x1F, 0x38, 0x30, 0x1C, 
  0xE6, 0xF3, 0xCC, 0x83, 0xDF, 0xE3, 0x7F, 0xF2, 0x8F, 0x1F, 0xFE, 0xFF, 
  0xFF, 0xFF, 0xFF, 0xFF, 0x73, 0xFE, 0x87, 0xFF, 0xFF, 0xFF, 0x7F, 0x00, 
  0xFE, 0xE7, 0xFF, 0x1F, 0xFC, 0x01, 0x80, 0xFF, 0xFF, 0xFF, 0xFF, 0x7F, 
  0x7F, 0xBF, 0xDD, 0x08, 0xE8, 0x89, 0x5A, 0xAB, 0xD6, 0x7F, 0x51, 0xFD, 
  0x28, 0xCA, 0xFF, 0xFF, 0x5F, 0xA4, 0x95, 0x78, 0xFD, 0xBF, 0xFF, 0xFF, 
  0x87, 0x74, 0xE8, 0x88, 0xDF, 0xD7, 0x99, 0xEB, 0xAF, 0xFF, 0x3F, 0xE1, 
  0xBF, 0x4A, 0xFF, 0xFF, 0xFF, 0xFF, 0xFF, 0xFF, 0x27, 0xFF, 0xCB, 0xFF, 
  0xFF, 0xFF, 0x97, 0x2A, 0xF5, 0xF1, 0xFF, 0xAF, 0xE8, 0xAA, 0xAA, 0xDE, 
  0xFF, 0xFF, 0xFF, 0x7F, 0x3E, 0xFF, 0x99, 0x1D, 0x98, 0x07, 0x0F, 0x7E, 
  0xCC, 0xFF, 0xC7, 0xFC, 0x19, 0x9C, 0xFF, 0xFF, 0x0F, 0xC3, 0xC3, 0xE0, 
  0xFF, 0xFF, 0xFF, 0xFF, 0xC7, 0xE1, 0xFD, 0x80, 0xCF, 0xCF, 0x0C, 0xFC, 
  0xFF, 0xFF, 0x7F, 0xF0, 0x7F, 0x80, 0xFF, 0xFF, 0xFF, 0xFF, 0xFF, 0xFF, 
  0x63, 0xFE, 0x9F, 0xFF, 0xFF, 0xFF, 0xC3, 0x7F, 0xE0, 0xE0, 0xFF, 0xFF, 
  0x81, 0xFF, 0x7F, 0x98, 0xFF, 0xFF, 0xFF, 0xBF, 0x7F, 0xFF, 0xCD, 0x88, 
  0xC4, 0x03, 0xBE, 0xB7, 0xA8, 0x7F, 0x87, 0xF9, 0x86, 0x58, 0xFF, 0xFF, 
  0x3F, 0xA2, 0x87, 0xD8, 0xFF, 0xFF, 0xFF, 0xFF, 0x0B, 0xF8, 0xFD, 0xE1, 
  0x9F, 0xBF, 0x08, 0xFA, 0xFF, 0xFF, 0x7F, 0xF4, 0x7F, 0xD5, 0xFF, 0xFF, 
  0xFF, 0xFF, 0xFF, 0xFF, 0xBF, 0xFF, 0xCF, 0xFF, 0xFF, 0xFF, 0xAB, 0xBF, 
  0xD2, 0xF9, 0xFF, 0xFF, 0xAA, 0x7A, 0x95, 0xCA, 0xFF, 0xFF, 0xFF, 0xFF, 
  0xFF, 0xFF, 0x9F, 0x9D, 0x81, 0x07, 0xFF, 0xF3, 0xF0, 0x3F, 0x1E, 0xE6, 
  0xC3, 0x7C, 0xFE, 0xFF, 0x38, 0x60, 0x1E, 0xCC, 0xFF, 0xFF, 0xFF, 0xFF, 
  0x1F, 0xFC, 0x8F, 0xF7, 0x7F, 0x7E, 0xC0, 0xFF, 0xFF, 0xFF, 0xFF, 0xF9, 
  0xFF, 0xFF, 0xFF, 0xFF, 0xFF, 0xFF, 0xFF, 0xFF, 0xFF, 0xFF, 0x9F, 0xFF, 
  0xFF, 0xFF, 0xFC, 0xFF, 0xC7, 0xFC, 0xFF, 0xFF, 0x7F, 0x20, 0xC0, 0x87, 
  0xFF, 0xFF, 0xFF, 0xFF, 0xF5, 0x7F, 0x5F, 0xEA, 0xC2, 0x03, 0x7E, 0xEF, 
  0x65, 0xFF, 0x17, 0xF9, 0xA3, 0x78, 0xFF, 0xFF, 0x7B, 0xB4, 0x1D, 0xAA, 
  0xFF, 0xBF, 0xED, 0xFF, 0x5F, 0xFD, 0xDF, 0x77, 0x7F, 0xBD, 0xA0, 0xFF, 
  0xFF, 0xAA, 0x7F, 0xFC, 0xFF, 0x75, 0xFD, 0xFF, 0xFF, 0x5F, 0x55, 0xFF, 
  0xFF, 0xFF, 0xCF, 0xFF, 0xFF, 0xFF, 0xFD, 0xFF, 0x8B, 0x79, 0x55, 0xFF, 
  0x7F, 0x65, 0x88, 0xE1, 0xFF, 0xFF, 0xFF, 0xFF, 0xF0, 0x7F, 0x3E, 0xE7, 
  0x87, 0x07, 0x23, 0xFF, 0x1F, 0xFF, 0x63, 0xFC, 0x30, 0xFC, 0xFF, 0xFF, 
  0xE7, 0xF9, 0x78, 0xF3, 0xFF, 0x0F, 0x80, 0xFF, 0xFF, 0xFF, 0xFF, 0x3F, 
  0xFE, 0xFC, 0xF1, 0xFF, 0x3F, 0x00, 0x7E, 0xF8, 0xFF, 0x00, 0xFC, 0xFF, 
  0xFF, 0x0F, 0x00, 0xFF, 0xFF, 0xFF, 0x9F, 0xFF, 0xFF, 0xFF, 0xFF, 0xFF, 
  0xDF, 0x3C, 0x00, 0xFE, 0xFF, 0x83, 0xCD, 0xF0, 0xFF, 0xFF, 0xFF, 0xFF, 
  0xEB, 0x7D, 0x7F, 0xDA, 0xCB, 0x0B, 0x73, 0xF7, 0x5B, 0xFA, 0x3F, 0xF0, 
  0x69, 0xFA, 0xFF, 0xFF, 0xF7, 0xFB, 0xBD, 0xEA, 0xFF, 0x5B, 0x95, 0xFE, 
  0xFF, 0xFF, 0xFF, 0xFF, 0xFA, 0xEB, 0xE0, 0xFF, 0x77, 0x55, 0x35, 0xFD, 
  0xDF, 0x4A, 0xE8, 0xFF, 0xFF, 0x5D, 0x15, 0xFA, 0xDF, 0xFF, 0xCF, 0xF7, 
  0xFF, 0xFD, 0xFF, 0xFF, 0x8F, 0xB8, 0x2A, 0xF5, 0xFF, 0x8F, 0xDA, 0xE3, 
  0xFF, 0xFF, 0xFF, 0xFF, 0x8F, 0xF9, 0xCF, 0x8C, 0x9F, 0xDF, 0xE0, 0xF3, 
  0xFC, 0xE1, 0x7F, 0xE0, 0x78, 0x26, 0xFE, 0xFF, 0xFF, 0xE7, 0xF9, 0xFC, 
  0xFF, 0xE0, 0x0F, 0xF8, 0xFF, 0xFF, 0xFF, 0xFF, 0xE1, 0xF3, 0xF1, 0xFF, 
  0x83, 0xFF, 0x60, 0xFF, 0x0F, 0xFF, 0x81, 0xFF, 0xFF, 0xE1, 0x7F, 0xE0, 
  0x9F, 0xFF, 0x9F, 0xF3, 0xFF, 0xF9, 0xFF, 0xFF, 0x1F, 0xCC, 0x7F, 0xE0, 
  0xFF, 0x1F, 0xE6, 0xF3, 0xFF, 0xFF, 0xFF, 0xFF, 0x9F, 0xFB, 0x9F, 0xFD, 
  0x57, 0x8F, 0xD8, 0xE5, 0xA9, 0xE1, 0x9F, 0xD0, 0x9F, 0x69, 0xFD, 0xFF, 
  0xFF, 0x57, 0xFE, 0xF9, 0xFF, 0xFA, 0x5F, 0xF9, 0x7F, 0xD5, 0xFF, 0xFF, 
  0xA2, 0xD7, 0xE8, 0xFF, 0xEB, 0xFF, 0x2B, 0xFE, 0x9B, 0xFE, 0x85, 0xFF, 
  0x7F, 0xF8, 0x7F, 0xF1, 0x4F, 0xFD, 0xCF, 0xE7, 0xFF, 0xFD, 0x5F, 0xFB, 
  0x2F, 0xD8, 0x7F, 0xD1, 0xFF, 0x6F, 0xD9, 0xF5, 0xFF, 0xFF, 0xFF, 0xFF, 
  0xCF, 0xE7, 0x78, 0xFE, 0x67, 0x1E, 0xCC, 0x80, 0xC7, 0x87, 0xCF, 0x81, 
  0xCF, 0x9C, 0xF9, 0xFF, 0xFF, 0x0F, 0xFF, 0xFC, 0x3F, 0xFF, 0xFF, 0xE0, 
  0x7F, 0x80, 0xFF, 0xFF, 0x07, 0x8E, 0xFD, 0xFF, 0xFC, 0xFF, 0x1F, 0xFF, 
  0xF0, 0xFF, 0x1F, 0xFE, 0x3F, 0xFC, 0xFF, 0xE7, 0x1F, 0xF8, 0xDF, 0xF3, 
  0xFF, 0xE3, 0x1F, 0xE0, 0x7F, 0xE0, 0xFF, 0x87, 0xFF, 0xFF, 0x8C, 0xF9, 
  0xFF, 0xFF, 0xFF, 0xFF, 0xDF, 0xF3, 0x7D, 0xBF, 0xF6, 0x12, 0x8A, 0xE1, 
  0x97, 0x57, 0xDF, 0xC0, 0x97, 0xC9, 0xF6, 0xFF, 0xFF, 0x3F, 0xFE, 0xF9, 
  0x7F, 0xFE, 0xFF, 0xF3, 0x97, 0x6A, 0xFF, 0xFF, 0x2B, 0xDE, 0xF8, 0xFF, 
  0xF9, 0xFF, 0x0F, 0xFE, 0xF0, 0xFF, 0x5F, 0xFE, 0x7F, 0xFA, 0xFF, 0xD3, 
  0x2F, 0xD6, 0x8F, 0xE7, 0xFF, 0xA7, 0xA7, 0x5A, 0x3F, 0xF8, 0x5F, 0x45, 
  0xF7, 0xFF, 0xCB, 0xFE, 0xFF, 0xFF, 0xFF, 0xFF, 0xFF, 0xE7, 0xFF, 0x7F, 
  0xFF, 0x61, 0xC7, 0xE0, 0x7F, 0x7E, 0xFE, 0x81, 0xC3, 0x98, 0xE3, 0xFF, 
  0xFF, 0x3F, 0xFF, 0xFC, 0x3F, 0xFF, 0xFF, 0xE7, 0xC3, 0x3F, 0xFE, 0xFF, 
  0x7F, 0x88, 0xFD, 0xFF, 0xFC, 0xFF, 0x1F, 0x3F, 0xFC, 0xFF, 0x3F, 0xFF, 
  0x3F, 0xFF, 0xFF, 0x87, 0x3F, 0x83, 0xDF, 0x83, 0xFF, 0xC3, 0xF3, 0x0F, 
  0x7E, 0xFC, 0x0F, 0x18, 0xE6, 0xFF, 0x87, 0xFF, 0xFF, 0xFF, 0xFF, 0xFF, 
  0xFF, 0xF3, 0xFF, 0xBD, 0xFA, 0x38, 0xA0, 0xB8, 0x3F, 0x7E, 0xFD, 0x62, 
  0x87, 0x65, 0xDF, 0xFF, 0xFF, 0x7F, 0xFE, 0xF9, 0x7F, 0xFE, 0xFF, 0xDB, 
  0xAB, 0xFF, 0xFF, 0xFF, 0x7F, 0x59, 0xF8, 0xFF, 0xF9, 0xFF, 0x2F, 0x7E, 
  0xFA, 0xFF, 0x7F, 0xFE, 0xBF, 0xFE, 0xFF, 0xC7, 0x7F, 0x6A, 0x8D, 0xA7, 
  0xFF, 0x83, 0xEF, 0xBF, 0x3D, 0xF8, 0x8D, 0x3E, 0xDB, 0xFF, 0xCB, 0xFF, 
  0xFF, 0xFF, 0xFF, 0xFF, 0xFF, 0xE7, 0xFF, 0xF9, 0xE1, 0x7D, 0x60, 0x7C, 
  0x7E, 0xF8, 0xF9, 0x37, 0xDE, 0x30, 0x8F, 0xFF, 0xFF, 0x3F, 0xFF, 0xFC, 
  0xFF, 0xF9, 0xFF, 0xCF, 0xFC, 0xFF, 0xFF, 0xFF, 0xFF, 0x30, 0xFC, 0xFF, 
  0xFC, 0xFF, 0x3F, 0x3F, 0xFF, 0xFF, 0x3F, 0xFF, 0xCF, 0xFF, 0xFF, 0x9F, 
  0x3F, 0x3C, 0xD8, 0x63, 0xFE, 0xC0, 0xFF, 0xFF, 0x78, 0xFC, 0xC0, 0x7F, 
  0x9E, 0xFF, 0x9F, 0xFF, 0xFF, 0xFF, 0xFF, 0xFF, 0xFF, 0xD7, 0x5F, 0x24, 
  0xA2, 0xA9, 0x18, 0x9A, 0x7F, 0x55, 0xD6, 0x6B, 0xDD, 0x71, 0xBE, 0xFF, 
  0xFF, 0x7F, 0xFE, 0xF8, 0xFF, 0x7D, 0xD5, 0x9F, 0xFA, 0xFF, 0xFF, 0xFF, 
  0xFF, 0x61, 0xFC, 0xFF, 0xF9, 0xFF, 0x7F, 0x3E, 0xFE, 0xFF, 0xBF, 0x7E, 
  0x9D, 0xFB, 0xFF, 0xCF, 0x7F, 0xF8, 0xE8, 0xA7, 0xFE, 0x81, 0xFF, 0xFF, 
  0x17, 0xF8, 0xA8, 0x3F, 0x6F, 0xFF, 0xDF, 0xFF, 0xFF, 0xFF, 0xFF, 0xFF, 
  0xFF, 0xCF, 0x0F, 0x00, 0xC7, 0x87, 0x0D, 0xCF, 0xFF, 0x03, 0x83, 0x9F, 
  0xF9, 0x27, 0x78, 0xFE, 0xFF, 0xFF, 0x39, 0xFC, 0xFF, 0x3F, 0xC0, 0x0F, 
  0xFF, 0xFF, 0xFF, 0xFF, 0xFF, 0x87, 0xF9, 0xFF, 0xE7, 0xFF, 0x3F, 0x0C, 
  0xFF, 0x8F, 0xCF, 0x7F, 0xCC, 0xE0, 0xFF, 0x9F, 0xE3, 0xE1, 0xE1, 0x87, 
  0x39, 0xC6, 0xFF, 0xFF, 0x03, 0x3C, 0xFC, 0x7F, 0x7E, 0xFE, 0xFF, 0xFF, 
  0xFF, 0xFF, 0xFF, 0xFF, 0xFF, 0xBF, 0xBF, 0x2A, 0x04, 0xE3, 0x8A, 0xAE, 
  0xFD, 0xA3, 0x62, 0x67, 0xF4, 0x6B, 0x48, 0xFD, 0xFF, 0xFF, 0x3C, 0xFA, 
  0xFF, 0x7F, 0x95, 0x1F, 0xBF, 0xF5, 0xFF, 0xFF, 0xFF, 0x47, 0xFC, 0xFF, 
  0xF7, 0xFF, 0x7F, 0x98, 0xFE, 0x5F, 0xD5, 0xAF, 0x9A, 0x55, 0xFF, 0xDF, 
  0xE7, 0xD1, 0xF2, 0xD7, 0xB6, 0xE1, 0xBF, 0xFA, 0x07, 0xB8, 0xFA, 0x3F, 
  0x3F, 0xFF, 0xFF, 0xFF, 0xFF, 0xFF, 0xFF, 0xFF, 0xFF, 0x7F, 0xFE, 0x7F, 
  0x18, 0xF6, 0xC7, 0xF3, 0xF8, 0xF0, 0x31, 0x33, 0xF0, 0x98, 0xC1, 0xF8, 
  0xFF, 0xFF, 0x09, 0xFF, 0xFF, 0x8F, 0x7F, 0xCE, 0x0F, 0xF0, 0xFF, 0xFF, 
  0xFF, 0x1F, 0xF8, 0xFF, 0xFF, 0xFF, 0xFF, 0xCD, 0xFF, 0x7F, 0xE0, 0x83, 
  0xCF, 0x1F, 0xFE, 0x8F, 0x83, 0x87, 0xE7, 0x8F, 0xC3, 0xF0, 0x0F, 0xE0, 
  0x1F, 0xCC, 0xFF, 0x7F, 0x7E, 0xFE, 0xFF, 0xFF, 0xFF, 0xFF, 0xFF, 0xFF, 
  0xFF, 0xBF, 0xFF, 0x7F, 0x29, 0x49, 0xAB, 0xE7, 0xFE, 0xC9, 0x2A, 0xF6, 
  0xE2, 0xAB, 0xA2, 0xFF, 0xFF, 0xFF, 0x8B, 0xFE, 0xFF, 0xFF, 0x7F, 0x9D, 
  0x5D, 0xA5, 0xFF, 0xFF, 0xFF, 0x0F, 0xFD, 0xFF, 0xFF, 0x57, 0xF5, 0x98, 
  0xFF, 0x7F, 0xFD, 0xD7, 0x5F, 0x2F, 0xFD, 0xEF, 0xA7, 0xC6, 0xD3, 0x9F, 
  0x47, 0xE9, 0x8F, 0xAA, 0x5F, 0xA8, 0xDF, 0x5F, 0x5F, 0xFF, 0xFF, 0xFF, 
  0xFF, 0xFF, 0xFF, 0xFF, 0xFF, 0xFF, 0xFF, 0xFF, 0x60, 0x18, 0xFE, 0x19, 
  0xFF, 0xD8, 0x1F, 0xF8, 0xF3, 0x67, 0x66, 0xFE, 0xFF, 0xFF, 0xC7, 0xFF, 
  0xFF, 0xFF, 0xFF, 0xCC, 0xE0, 0x1F, 0xFE, 0xFF, 0xFF, 0x1F, 0xFE, 0xFF, 
  0xFF, 0x03, 0x80, 0xCD, 0xFF, 0xFF, 0xFF, 0xF8, 0x3F, 0x7F, 0xF8, 0xF3, 
  0x63, 0x9F, 0x87, 0x0F, 0x32, 0xFC, 0xC3, 0x1F, 0x3E, 0xF0, 0xCF, 0x8F, 
  0xCF, 0xFF, 0xFF, 0xFF, 0xFF, 0xFF, 0xFF, 0xFF, 0xFF, 0xFF, 0xFF, 0xFF, 
  0x93, 0x2C, 0x5F, 0x4A, 0xDF, 0xA7, 0xA7, 0x5C, 0xD7, 0x37, 0xB9, 0xF2, 
  0xFF, 0xDF, 0xA9, 0xFE, 0xFF, 0xFF, 0xFF, 0x8B, 0xF5, 0x1F, 0xFE, 0xFF, 
  0xFF, 0x0F, 0xFF, 0xFF, 0x5F, 0xAF, 0x0A, 0x9C, 0xFF, 0xAF, 0xEA, 0xFF, 
  0xFF, 0x7E, 0xFC, 0xEB, 0x97, 0x6A, 0xCB, 0x0F, 0x27, 0xFC, 0xA7, 0x1F, 
  0x7D, 0xF0, 0xBF, 0xFA, 0xDF, 0xFF, 0xFF, 0xFF, 0xFF, 0xFF, 0xFF, 0xFF, 
  0xFF, 0xFF, 0xFF, 0xFF, 0xC7, 0x79, 0x0E, 0xF7, 0xCF, 0x63, 0xF2, 0x09, 
  0xCF, 0x7F, 0xFC, 0xE1, 0xFF, 0x9F, 0x3C, 0xFC, 0xFF, 0xFF, 0xFF, 0x03, 
  0xFE, 0x7F, 0xF8, 0xFF, 0xFF, 0x1F, 0xFF, 0xFF, 0x0F, 0xFF, 0x1F, 0xC8, 
  0xFF, 0x03, 0xF0, 0xFF, 0xFF, 0xFF, 0xF9, 0xFC, 0x83, 0x31, 0x9E, 0x03, 
  0x1E, 0xFF, 0xF3, 0x7F, 0x38, 0xFC, 0x7F, 0xE0, 0xFF, 0xFF, 0xFF, 0xFF, 
  0xFF, 0xFF, 0xFF, 0xFF, 0xFF, 0xFF, 0xFF, 0x7F, 0x83, 0x3C, 0xBD, 0xA8, 
  0x9F, 0x9F, 0xA5, 0x16, 0xAE, 0x7D, 0xEA, 0x5A, 0xFF, 0x65, 0x55, 0xE9, 
  0xFF, 0xFF, 0xFF, 0x87, 0xFF, 0x7F, 0xF1, 0xFF, 0xFF, 0x07, 0xFE, 0xFF, 
  0x5F, 0xFF, 0x6F, 0x89, 0xFF, 0x56, 0xD5, 0xFF, 0xFF, 0xFF, 0x7D, 0xFD, 
  0x4F, 0x2A, 0xCF, 0x25, 0x8F, 0xFE, 0xC7, 0x77, 0x7C, 0xF8, 0xBF, 0xFA, 
  0xFF, 0xFF, 0xFF, 0xFF, 0xFF, 0xFF, 0xFF, 0xFF, 0xFF, 0xFF, 0xFF, 0x3F, 
  0xC3, 0x79, 0xFC, 0xCD, 0xCF, 0xCF, 0x18, 0x73, 0xF0, 0xF9, 0x83, 0x0F, 
  0xFE, 0x30, 0x83, 0x87, 0xFF, 0xFF, 0xFF, 0x83, 0xFF, 0xFF, 0xE0, 0xFF, 
  0xFF, 0x03, 0xFF, 0xFF, 0xE3, 0xFF, 0xFF, 0xC0, 0x3F, 0xF8, 0x8F, 0xFF, 
  0xFF, 0xFF, 0x78, 0xFE, 0x0F, 0x1F, 0xDE, 0x60, 0xDE, 0xFF, 0xC3, 0xE7, 
  0x39, 0xFC, 0xFF, 0xFF, 0xFF, 0xFF, 0xFF, 0xFF, 0xFF, 0xFF, 0xFF, 0xFF, 
  0xFF, 0xFF, 0x7F, 0xFF, 0x86, 0x7C, 0xD8, 0x8A, 0x9F, 0x9F, 0x27, 0x24, 
  0x40, 0xFE, 0x55, 0xDF, 0xD7, 0x22, 0x76, 0x61, 0xFF, 0xFF, 0xFF, 0x63, 
  0xD5, 0xFF, 0xF3, 0xFF, 0xFF, 0x07, 0xFE, 0xFF, 0xF7, 0xFF, 0xFF, 0x81, 
  0x3F, 0xFE, 0x7F, 0x7F, 0xEB, 0xFF, 0x9D, 0x57, 0x1F, 0x2C, 0xAD, 0x18, 
  0x8F, 0xDF, 0x97, 0xFA, 0x3C, 0x54, 0x55, 0xFF, 0xFF, 0xFF, 0xFF, 0xFF, 
  0xFF, 0xFF, 0xFF, 0xFF, 0xFF, 0xFF, 0x3F, 0xFF, 0xC3, 0xF9, 0x9D, 0x07, 
  0xCE, 0xCF, 0x33, 0x00, 0x07, 0x3F, 0x3C, 0xE7, 0x03, 0x07, 0x38, 0x30, 
  0xE3, 0xFF, 0xFF, 0x30, 0x80, 0xFF, 0xE7, 0xFF, 0xFF, 0x03, 0xFF, 0xFF, 
  0xF8, 0xFF, 0xFF, 0xC0, 0x0F, 0xFF, 0x3F, 0x3E, 0x80, 0xFF, 0xC8, 0x03, 
  0x7F, 0x78, 0x38, 0x0C, 0xDE, 0xCF, 0x7F, 0xF8, 0x0D, 0x03, 0x00, 0xFF, 
  0xFF, 0xFF, 0xFF, 0xFF, 0xFF, 0xFF, 0xFF, 0xFF, 0xFF, 0xFF, 0xFF, 0xFE, 
  0x87, 0xDE, 0x6A, 0x03, 0xDF, 0xDD, 0x57, 0x00, 0x20, 0xAA, 0x7A, 0xEA, 
  0x05, 0xA0, 0x5E, 0x22, 0x56, 0xF7, 0xFF, 0xA0, 0x6A, 0xFD, 0xF3, 0xFF, 
  0xFF, 0x07, 0xFE, 0xFF, 0xFF, 0x55, 0xFD, 0x81, 0x9F, 0xFE, 0xFF, 0x7F, 
  0x55, 0xFD, 0xA9, 0x56, 0x7E, 0xB9, 0x7C, 0x1A, 0x8F, 0x9F, 0x7F, 0xFD, 
  0x18, 0x56, 0x15, 0xEA, 0xFF, 0xFF, 0xFF, 0xFF, 0xFF, 0xFF, 0xFF, 0xFF, 
  0xFF, 0xFF, 0xFF, 0x8F, 0x1F, 0x8F, 0x33, 0x06, 0xFE, 0xF9, 0x0F, 0x00, 
  0x70, 0xC0, 0x9F, 0x99, 0x00, 0xF0, 0x0F, 0x06, 0x08, 0xE6, 0x3F, 0xC0, 
  0x3F, 0xF8, 0xE7, 0xFF, 0xFF, 0x03, 0xFF, 0xFF, 0xFF, 0x00, 0xFC, 0xC7, 
  0xCF, 0xFF, 0xFF, 0x8F, 0x7F, 0xFC, 0x70, 0xF8, 0xF9, 0xE0, 0x39, 0x0F, 
  0xDE, 0xCF, 0xFF, 0xFF, 0x0D, 0xF8, 0x7F, 0xF0, 0xFF, 0xFF, 0xFF, 0xFF, 
  0x55, 0x55, 0x55, 0x55, 0xFD, 0xFF, 0xFF, 0xBF, 0x0E, 0xDE, 0x67, 0x03, 
  0xFE, 0xFE, 0x0D, 0x02, 0x00, 0x00, 0x85, 0x88, 0x22, 0xEA, 0x55, 0x01, 
  0x8C, 0x59, 0xB7, 0xC8, 0xFF, 0xFC, 0xF3, 0xFF, 0xFF, 0x27, 0xFE, 0xFF, 
  0xDF, 0x55, 0xE9, 0x83, 0x8F, 0xFF, 0xFF, 0xDF, 0x7F, 0xF8, 0x80, 0xFE, 
  0xDD, 0xE0, 0x74, 0x8E, 0x8B, 0x8F, 0xFF, 0xFF, 0x88, 0xFE, 0x7F, 0xE1, 
  0xFF, 0xFF, 0xFF, 0xFF, 0x00, 0x00, 0x00, 0x00, 0xF8, 0xFF, 0xFF, 0x7F, 
  0x18, 0x9F, 0x33, 0x06, 0xF8, 0xFF, 0x00, 0x03, 0x00, 0x00, 0x00, 0x00, 
  0x33, 0x9F, 0xF0, 0x01, 0xC0, 0x0C, 0xC3, 0xFD, 0xFF, 0xF9, 0xE7, 0xFF, 
  0xFF, 0x67, 0xFF, 0xFF, 0x0F, 0xFE, 0x87, 0x07, 0xC3, 0xFF, 0xFF, 0xFF, 
  0xFF, 0x21, 0xC0, 0xFF, 0x0F, 0x80, 0x31, 0xC7, 0xC7, 0xC7, 0xFF, 0xFF, 
  0xC1, 0xFF, 0xFF, 0x87, 0xFF, 0xFF, 0xFF, 0xFF, 0xA8, 0xAA, 0xAA, 0xAA, 
  0xFC, 0xFF, 0xFF, 0xBF, 0x2E, 0xDE, 0x6A, 0x09, 0xDC, 0xFF, 0x23, 0x04, 
  0x00, 0x00, 0x00, 0xA2, 0xA6, 0xE4, 0xA3, 0x88, 0x80, 0x18, 0x0E, 0xFA, 
  0xFF, 0xFC, 0xF5, 0xFF, 0xFF, 0x93, 0xFE, 0xFF, 0xAF, 0xFF, 0x57, 0x05, 
  0xA6, 0xFF, 0x7F, 0xF5, 0xFF, 0x71, 0xA8, 0xFF, 0x5F, 0x15, 0xA1, 0xA0, 
  0xA3, 0x83, 0xD7, 0x7F, 0x20, 0x55, 0xFF, 0x47, 0xFF, 0xFF, 0xFF, 0xFF, 
  0xFC, 0xFF, 0xFF, 0xFF, 0xF9, 0xFF, 0xFF, 0xFF, 0x3F, 0x3F, 0xCC, 0x1C, 
  0x88, 0xFF, 0x33, 0x70, 0x00, 0x00, 0x00, 0xE6, 0xC9, 0xF1, 0x03, 0xCC, 
  0x00, 0x60, 0x0F, 0xFF, 0xFF, 0xF9, 0xFC, 0xFF, 0xFF, 0x87, 0xF9, 0xFF, 
  0xF3, 0xFF, 0x7F, 0x18, 0xF3, 0xFF, 0x3F, 0xF0, 0xFF, 0x37, 0xFC, 0xFF, 
  0xE3, 0x0F, 0xC6, 0xF1, 0xF3, 0xC0, 0xC7, 0x3F, 0x60, 0x00, 0xFF, 0x1F, 
  0xFE, 0xFF, 0xFF, 0xFF, 0x58, 0xDF, 0xDF, 0xD7, 0xFC, 0xFF, 0xFF, 0x7F, 
  0xBF, 0x7E, 0xD8, 0xA1, 0xD4, 0xFD, 0x55, 0x25, 0x82, 0x00, 0xA2, 0x7B, 
  0xDE, 0x6A, 0x05, 0x99, 0x88, 0xA8, 0x96, 0xFE, 0x7F, 0xFE, 0xFA, 0xFF, 
  0xFF, 0x47, 0xF6, 0xFF, 0xC7, 0xF7, 0xBF, 0x06, 0xE2, 0xFF, 0x77, 0xA5, 
  0xFF, 0x23, 0xFA, 0xFF, 0x57, 0x3F, 0x09, 0xE8, 0xE3, 0xA0, 0x97, 0x3F, 
  0x10, 0xAA, 0xFE, 0x1F, 0xFF, 0xFF, 0xFF, 0xFF, 0x1C, 0xCF, 0xCF, 0x87, 
  0xF9, 0xFF, 0xFF, 0x3F, 0xCF, 0x3F, 0xFC, 0xF0, 0x81, 0xFC, 0xCC, 0x1F, 
  0x87, 0x01, 0xF6, 0x3F, 0xE3, 0x3F, 0xD8, 0x67, 0xCC, 0xDC, 0xC7, 0xFF, 
  0x3F, 0x3F, 0xFF, 0xFF, 0xFF, 0x1F, 0xF3, 0xFF, 0x83, 0xE7, 0xFF, 0x03, 
  0xF0, 0xFF, 0x87, 0x1F, 0xFE, 0x07, 0xFF, 0xFF, 0x0C, 0x78, 0x0C, 0xFC, 
  0x70, 0xF0, 0x7F, 0x0E, 0x00, 0xFF, 0xF8, 0x7F, 0xFE, 0xFF, 0xFF, 0xFF, 
  0x58, 0xDF, 0xBD, 0xEB, 0xFC, 0xFF, 0xFF, 0xFF, 0x5E, 0x7F, 0xF8, 0xE1, 
  0x6A, 0xDD, 0xDB, 0x2D, 0x48, 0x82, 0xE9, 0x77, 0x55, 0xF5, 0xA4, 0x77, 
  0x99, 0x20, 0xA7, 0xFF, 0xB7, 0x7E, 0xFF, 0xFF, 0xFF, 0x0F, 0xAE, 0xFF, 
  0x97, 0xF4, 0xFF, 0x2F, 0xE0, 0xFF, 0xE9, 0x5F, 0xFE, 0x03, 0x6C, 0xFF, 
  0x59, 0x95, 0x18, 0xBA, 0x08, 0xF0, 0x3F, 0x0F, 0xAA, 0xFE, 0xFD, 0x3F, 
  0xFF, 0xFF, 0xFF, 0xFF, 0xFC, 0xE3, 0x3C, 0xFE, 0xF9, 0xFF, 0xFF, 0xFF, 
  0x3F, 0xFF, 0xE1, 0x87, 0x3F, 0xCF, 0xE7, 0x39, 0x1C, 0xC6, 0x98, 0xF3, 
  0x0C, 0xF0, 0x71, 0xFE, 0x67, 0x70, 0xFF, 0xFF, 0xC3, 0xFF, 0xFF, 0xFF, 
  0xFF, 0x1F, 0x0F, 0xFE, 0x0F, 0xFC, 0xFF, 0x7F, 0xF0, 0xFF, 0xFC, 0x3F, 
  0xF8, 0x07, 0x00, 0xFF, 0xE0, 0x83, 0x61, 0x1F, 0x18, 0xFC, 0x7F, 0x02, 
  0xFF, 0xFF, 0xFF, 0x7F, 0xFE, 0xFF, 0xFF, 0xFF, 0xD8, 0xF5, 0x79, 0xDD, 
  0xFC, 0xFF, 0xFF, 0xFF, 0xFF, 0xFE, 0xF1, 0x83, 0x57, 0x9A, 0xFB, 0xFE, 
  0x5A, 0x89, 0xA5, 0xE7, 0x3D, 0xEA, 0x6A, 0xDF, 0x77, 0x85, 0xDE, 0xFF, 
  0xCF, 0xFF, 0xFF, 0xFF, 0x7F, 0xA7, 0x5E, 0xFD, 0xBF, 0xFA, 0xBF, 0xB5, 
  0xE0, 0xFF, 0xF9, 0x7D, 0xF9, 0x81, 0xAA, 0xFA, 0xF5, 0x6F, 0x20, 0x2A, 
  0x86, 0xFA, 0x5F, 0xA3, 0x5E, 0xFB, 0xFF, 0x3F, 0xFF, 0xFF, 0xFF, 0xFF, 
  0xCC, 0xFC, 0xFC, 0x9C, 0xF9, 0xFF, 0xFF, 0xFF, 0xFF, 0x8F, 0xE7, 0x07, 
  0xC2, 0x61, 0xFE, 0xFF, 0xFF, 0x0D, 0x73, 0x9E, 0x3F, 0xFF, 0xFF, 0x9F, 
  0xFF, 0xDF, 0x09, 0xE2, 0xFF, 0xFF, 0xFF, 0xFF, 0x3F, 0xF3, 0xF9, 0xFC, 
  0xFF, 0xFF, 0x0F, 0xE0, 0x81, 0xFF, 0xFC, 0xF9, 0xFC, 0xC0, 0xFF, 0xE0, 
  0xFF, 0x3F, 0x00, 0x60, 0xC3, 0xFF, 0xCF, 0xF0, 0x1F, 0xE0, 0xFF, 0x7F, 
  0xFF, 0xFF, 0xFF, 0xFF, 0xB8, 0xF9, 0xF9, 0xF9, 0xFC, 0xFF, 0xFF, 0xFF, 
  0xFF, 0xBF, 0xEE, 0x17, 0x96, 0x9A, 0xFF, 0xDD, 0xDF, 0x5D, 0xA6, 0x4A, 
  0x7D, 0xFF, 0x5F, 0xE7, 0xF7, 0xDD, 0x3E, 0xD6, 0xFF, 0xFF, 0xFF, 0xFF, 
  0x35, 0xEA, 0xEA, 0x7B, 0xFF, 0xFF, 0xAF, 0x5A, 0xC2, 0xFF, 0xF9, 0xFC, 
  0xF9, 0xA8, 0xFF, 0xD5, 0xFF, 0x57, 0x00, 0x2A, 0xAE, 0xFF, 0x8F, 0xE8, 
  0xAA, 0xA2, 0xFF, 0x5F, 0xFF, 0xFF, 0xFF, 0xFF, 0xFC, 0xFC, 0xFC, 0xFC, 
  0xF9, 0xFF, 0xFF, 0xFF, 0xFF, 0x7F, 0x9F, 0x0F, 0x78, 0xCF, 0xFF, 0x99, 
  0x9F, 0xFF, 0x99, 0x01, 0xF8, 0xFF, 0x0F, 0xF3, 0xE7, 0xF9, 0x7F, 0xC8, 
  0xFF, 0xFF, 0xFF, 0xFF, 0x00, 0x9C, 0x87, 0x27, 0xF8, 0xFF, 0xF3, 0x0F, 
  0x86, 0xFF, 0xE0, 0xF9, 0x3C, 0xFC, 0xFF, 0xCF, 0xFF, 0x07, 0x00, 0x1E, 
  0xFF, 0xFF, 0x03, 0x3C, 0xE0, 0x07, 0xFE, 0x8F, 0xFF, 0xFF, 0xFF, 0xFF, 
  0xD8, 0xFB, 0xF8, 0xAD, 0xFD, 0xFF, 0xFF, 0xFF, 0xFF, 0xBF, 0x5A, 0x5F, 
  0x96, 0xAE, 0xD7, 0xE6, 0xE5, 0xFD, 0x55, 0x02, 0x54, 0xD5, 0xBF, 0x76, 
  0xD3, 0xD6, 0xBD, 0x8D, 0xF7, 0xFF, 0xFF, 0xDF, 0x20, 0xE8, 0x69, 0x61, 
  0xF5, 0xFF, 0xE7, 0xBF, 0x81, 0xFF, 0x21, 0xFD, 0x3A, 0xFA, 0xFF, 0x9F, 
  0x57, 0x01, 0xAA, 0x0D, 0xFF, 0xFF, 0x82, 0x58, 0xF5, 0x2B, 0xFF, 0xDD, 
  0xFF, 0xFF, 0xFF, 0xFF, 0xCC, 0x27, 0x30, 0xDE, 0xF8, 0xFF, 0xFF, 0xFF, 
  0xFF, 0xFF, 0x7C, 0x3E, 0xC3, 0xF3, 0x83, 0xF3, 0xF0, 0xF9, 0x33, 0x07, 
  0x00, 0xC0, 0xF8, 0x3F, 0x86, 0xC3, 0xF8, 0x03, 0xF2, 0xFF, 0xFF, 0x0F, 
  0x30, 0xFC, 0x3C, 0x80, 0xE7, 0xFF, 0xF3, 0xFF, 0x00, 0xFE, 0x07, 0x3F, 
  0x0F, 0xFF, 0xFF, 0x0F, 0x02, 0x00, 0xFF, 0xC8, 0xFF, 0x3F, 0x80, 0xC1, 
  0xFF, 0x7F, 0xFE, 0xE0, 0xFF, 0xFF, 0xFF, 0xFF, 0xB8, 0x5B, 0x65, 0xEF, 
  0xFD, 0xFF, 0xFF, 0xFF, 0xFF, 0xFF, 0xBD, 0x7F, 0x85, 0xE6, 0xEF, 0xAB, 
  0x75, 0x56, 0xEF, 0x20, 0x00, 0x80, 0xA8, 0xFD, 0xCA, 0xA7, 0xF5, 0x57, 
  0xA5, 0xFF, 0xFF, 0x0D, 0x60, 0xDD, 0xFD, 0x62, 0xD9, 0xFF, 0xE7, 0xFF, 
  0x03, 0xFF, 0x57, 0xBF, 0x0E, 0xAA, 0xFF, 0x3F, 0x0F, 0x00, 0xDC, 0x5C, 
  0xFF, 0x5B, 0x42, 0xD2, 0xFF, 0x3F, 0xFF, 0xFB, 0xFF, 0xFF, 0xFF, 0xFF, 
  0xFC, 0xCF, 0x9F, 0xFF, 0xF8, 0xFF, 0xFF, 0xFF, 0xFF, 0xFF, 0xFF, 0xFF, 
  0x18, 0x98, 0xFF, 0x1C, 0x3E, 0x03, 0xFF, 0x61, 0x00, 0x00, 0x00, 0xFC, 
  0xCD, 0x63, 0xE6, 0xF8, 0x1C, 0xFE, 0xFF, 0x01, 0x80, 0x9F, 0xFF, 0x37, 
  0xCC, 0xFF, 0x9F, 0xFF, 0x07, 0xFE, 0xFF, 0xCF, 0x07, 0x00, 0xFE, 0x7F, 
  0x1E, 0x00, 0x18, 0x3C, 0xFE, 0x00, 0x06, 0xFF, 0xFF, 0x7F, 0xFE, 0xFF, 
  0xFF, 0xFF, 0xFF, 0xFF, 0x58, 0x97, 0xCF, 0xD5, 0xFD, 0xFF, 0xFF, 0xFF, 
  0xFF, 0xFF, 0xFF, 0xFF, 0x07, 0x68, 0xFD, 0x89, 0x5F, 0x85, 0xFA, 0xB6, 
  0x20, 0x00, 0x00, 0xE8, 0x9C, 0x0F, 0xD3, 0xB5, 0x5D, 0xD5, 0x57, 0x08, 
  0x88, 0x62, 0xFD, 0x2B, 0x9A, 0xFE, 0xDF, 0xFF, 0x83, 0xFF, 0xFF, 0xAF, 
  0xA2, 0x2A, 0xEA, 0x3F, 0xAF, 0x8A, 0x26, 0xFA, 0xD5, 0x08, 0x2A, 0xFF, 
  0xFF, 0x5F, 0xFF, 0xFF, 0xFF, 0xFF, 0xFF, 0xFF, 0x1C, 0xC6, 0xDF, 0xC0, 
  0xF8, 0xFF, 0xFF, 0xFF, 0xFF, 0xFF, 0xFF, 0xFF, 0x03, 0x30, 0xF8, 0xC7, 
  0xCF, 0xC0, 0xE0, 0xFF, 0x61, 0x00, 0x00, 0x80, 0x7F, 0x1E, 0x86, 0x07, 
  0xFE, 0x81, 0x07, 0x18, 0x18, 0x30, 0xF8, 0x1F, 0x66, 0xF8, 0xFF, 0xFF, 
  0xC7, 0xFF, 0xFF, 0x33, 0xF0, 0x7F, 0x80, 0x7F, 0xFE, 0xCF, 0x33, 0xFF, 
  0x00, 0x0C, 0xF8, 0xFF, 0xFF, 0xCF, 0xFF, 0xFF, 0xFF, 0xFF, 0xFF, 0xFF, 
  0xD8, 0x8B, 0xDA, 0xD5, 0xFD, 0xFF, 0xFF, 0xFF, 0xFF, 0xFF, 0xFF, 0xF5, 
  0x57, 0x40, 0x7F, 0xC1, 0xAF, 0x85, 0xAA, 0x5D, 0x92, 0x02, 0x00, 0x80, 
  0x75, 0xBF, 0x49, 0x2B, 0xD5, 0x6A, 0x83, 0x84, 0x26, 0x62, 0x7F, 0xAF, 
  0xA1, 0xD4, 0xFF, 0xFF, 0x81, 0xFF, 0x7F, 0x23, 0xC0, 0x7F, 0x45, 0x7F, 
  0x7F, 0x9D, 0x75, 0xFD, 0xA0, 0x58, 0xFD, 0xFF, 0xFF, 0xDF, 0xFF, 0xFF, 
  0xFF, 0xFF, 0xFF, 0xFF, 0xF8, 0x0F, 0xFC, 0xFF, 0xF8, 0xFF, 0xFF, 0xFF, 
  0xFF, 0xFF, 0xFF, 0xF1, 0x38, 0xC0, 0x3F, 0xF0, 0x73, 0x1E, 0x1F, 0x18, 
  0xC7, 0x07, 0x00, 0x00, 0xF0, 0xFF, 0x1C, 0x7E, 0xC0, 0x7F, 0xC6, 0xC1, 
  0x63, 0x86, 0x3F, 0xFE, 0x80, 0xC1, 0xFF, 0xFF, 0xC0, 0xFF, 0x3F, 0x00, 
  0xC0, 0xFF, 0x1F, 0xFE, 0x7F, 0x60, 0xFC, 0x3C, 0xF0, 0xE1, 0xFF, 0xFF, 
  0xFF, 0xFF, 0xFF, 0xFF, 0xFF, 0xFF, 0xFF, 0xFF, 0x5C, 0x5D, 0xA9, 0xD7, 
  0xF9, 0xFF, 0xFF, 0xFF, 0xFF, 0xFF, 0xFF, 0xEA, 0xBB, 0xA0, 0xF6, 0xEA, 
  0xA5, 0x07, 0x5C, 0x85, 0x28, 0x0B, 0x00, 0x00, 0xC0, 0xFE, 0xA9, 0xBD, 
  0xA8, 0xBD, 0x01, 0x80, 0x9F, 0x69, 0xFD, 0xFF, 0x6B, 0x82, 0xFF, 0xDF, 
  0xA2, 0x7F, 0x35, 0xA0, 0xAA, 0xFE, 0x1F, 0xFD, 0xBF, 0x22, 0xFA, 0x75, 
  0x41, 0xFA, 0xFF, 0xFF, 0xFF, 0xFF, 0xFF, 0xFF, 0xFF, 0xFF, 0xFF, 0xFF, 
  0x08, 0xFC, 0xC7, 0xC3, 0xFC, 0xFF, 0xFF, 0xFF, 0xFF, 0xFF, 0xFF, 0x9F, 
  0x87, 0x31, 0xE7, 0xFF, 0x99, 0x03, 0xF8, 0x87, 0x7D, 0x1E, 0x00, 0x00, 
  0x00, 0xF8, 0xF7, 0xFC, 0x39, 0xFC, 0x00, 0xC0, 0xCF, 0x3C, 0xF8, 0xFF, 
  0x3F, 0x03, 0xFE, 0x0F, 0xF7, 0x7F, 0x00, 0xF0, 0x3F, 0xF8, 0x7F, 0xF8, 
  0xFF, 0x07, 0xE3, 0xF3, 0x07, 0xFF, 0xFF, 0xFF, 0xFF, 0xFF, 0xFF, 0xFF, 
  0xFF, 0xFF, 0xFF, 0xFF, 0x5C, 0xBA, 0x56, 0xAF, 0xF9, 0xFF, 0xFF, 0xFF, 
  0xFF, 0xFF, 0xFF, 0xCF, 0x6B, 0x42, 0x5A, 0xFF, 0xDE, 0x85, 0xE6, 0xCB, 
  0x3A, 0x25, 0x0A, 0x20, 0x00, 0xA8, 0xF3, 0x6A, 0x56, 0x7A, 0x03, 0xAA, 
  0x9F, 0x7D, 0xFE, 0xFF, 0x7F, 0x15, 0xFF, 0x1D, 0xE8, 0x95, 0xA8, 0xF2, 
  0x7F, 0xF5, 0x7F, 0xF4, 0xFF, 0x09, 0xEE, 0xE7, 0x87, 0xFE, 0xFF, 0xFF, 
  0xFF, 0xFF, 0xFF, 0xFF, 0xFF, 0xFF, 0xFF, 0xFF, 0xF8, 0x0F, 0x3F, 0xFF, 
  0xFC, 0xFF, 0xFF, 0xFF, 0xFF, 0xFF, 0xFF, 0x9F, 0x3F, 0x86, 0x0D, 0xFE, 
  0xFF, 0xC0, 0x83, 0x9F, 0x7F, 0x30, 0x1F, 0x60, 0x00, 0x00, 0x3E, 0x33, 
  0xC3, 0x0F, 0x06, 0xFF, 0xCF, 0x3F, 0xFE, 0xFF, 0xFF, 0x7C, 0xFE, 0x61, 
  0xFC, 0xC1, 0xFD, 0xFF, 0xFF, 0xE7, 0xFF, 0xE1, 0xFF, 0x0C, 0x9F, 0x33, 
  0xDE, 0xFF, 0xFF, 0xFF, 0xFF, 0xFF, 0xFF, 0xFF, 0xFF, 0xFF, 0xFF, 0xFF, 
  0xBC, 0x5F, 0x7E, 0xD6, 0xF9, 0xFF, 0xFF, 0xFF, 0xFF, 0xFF, 0xFF, 0xDF, 
  0xFD, 0x6B, 0xB4, 0xFD, 0xFF, 0xC0, 0xE3, 0x57, 0x3F, 0x6A, 0x2E, 0x90, 
  0x0A, 0x00, 0x56, 0xF7, 0xAE, 0x5F, 0x89, 0xFE, 0xDF, 0xFB, 0x5F, 0xFF, 
  0xDA, 0xAB, 0x5D, 0xAA, 0x5A, 0x2A, 0xFA, 0xFF, 0xF7, 0xD7, 0xFF, 0xF1, 
  0xFF, 0x1B, 0x6C, 0x67, 0xDF, 0xFF, 0xFF, 0xFF, 0xFF, 0xFF, 0xFF, 0xFF, 
  0xFF, 0xFF, 0xFF, 0xFF, 0x08, 0xE3, 0x39, 0xC3, 0xFC, 0xFF, 0xFF, 0xFF, 
  0xFF, 0xFF, 0xFF, 0xFF, 0xF9, 0x3F, 0xE3, 0xF9, 0x3F, 0xF0, 0xF0, 0x67, 
  0x7F, 0x3F, 0x7F, 0xC0, 0x1F, 0x00, 0x80, 0xFF, 0xFF, 0xE7, 0xCC, 0xFF, 
  0xFF, 0xE0, 0x0F, 0x3E, 0xC0, 0xC3, 0x0C, 0xDF, 0x03, 0x7F, 0xFF, 0xFF, 
  0xE7, 0x9F, 0xFF, 0xE7, 0xFF, 0x67, 0x38, 0x83, 0xFF, 0xFF, 0xFF, 0xFF, 
  0xFF, 0xFF, 0xFF, 0xFF, 0xFF, 0xFF, 0xFF, 0xFF, 0x5C, 0xF7, 0x7E, 0xAE, 
  0xF9, 0xFF, 0xFF, 0xFF, 0xFF, 0xFF, 0xFF, 0xFF, 0xFE, 0xFD, 0x52, 0xDE, 
  0x3F, 0xEA, 0xE0, 0xBB, 0xBE, 0x7E, 0xBF, 0xCA, 0x07, 0x00, 0x40, 0x55, 
  0xAB, 0xDB, 0xDD, 0xFF, 0xFF, 0x71, 0xBE, 0x7D, 0xA1, 0x97, 0x0A, 0x8C, 
  0x06, 0x6A, 0xEF, 0xFF, 0xF9, 0xCF, 0xFF, 0xF7, 0xFF, 0xBB, 0x74, 0xC7, 
  0xF5, 0xFF, 0xBF, 0xFF, 0xFF, 0xFF, 0xFF, 0xFF, 0xFF, 0xFF, 0xFF, 0xFF, 
  0xF8, 0xE3, 0x3F, 0xFF, 0xFC, 0xFF, 0xFF, 0xFF, 0xFF, 0xFF, 0xFF, 0xFF, 
  0xFF, 0xFC, 0x01, 0xCF, 0x0F, 0x3F, 0xF0, 0xFF, 0xFF, 0xFF, 0xFF, 0xFF, 
  0x03, 0x00, 0x00, 0x00, 0x00, 0x0E, 0xFE, 0xFF, 0xFF, 0x20, 0xF8, 0xF8, 
  0x37, 0x7E, 0x03, 0x7C, 0x18, 0xF0, 0x83, 0xFF, 0xFC, 0x9F, 0xFF, 0xE3, 
  0xFF, 0xFF, 0xF1, 0x83, 0xE0, 0xFF, 0x0F, 0xFE, 0xFF, 0xFF, 0xFF, 0xFF, 
  0xFF, 0xFF, 0xFF, 0xFF, 0x5C, 0xD7, 0x5F, 0xD7, 0xF9, 0xFF, 0xFF, 0xFF, 
  0xFF, 0xFF, 0xFF, 0xFF, 0xFF, 0xE9, 0x02, 0xAC, 0x8F, 0x76, 0xF1, 0xFF, 
  0xFF, 0xFF, 0x7D, 0x7F, 0x87, 0x80, 0x0A, 0x0A, 0xA0, 0x97, 0xFF, 0xFF, 
  0xBF, 0xD1, 0xEA, 0xD7, 0x27, 0x3F, 0xA2, 0x7A, 0x1D, 0xC0, 0x55, 0xFF, 
  0xF1, 0xF7, 0xFF, 0xF7, 0xFF, 0xDF, 0xA1, 0xD7, 0x51, 0x57, 0x5D, 0xFF, 
  0xFF, 0xFF, 0xFF, 0xFF, 0xFF, 0xFF, 0xFF, 0xFF, 0x0C, 0x9E, 0xCF, 0xC3, 
  0xFC, 0xFF, 0xFF, 0xFF, 0xFF, 0xFF, 0xFF, 0xFF, 0xFF, 0x87, 0x07, 0xF0, 
  0xC3, 0xF7, 0xFC, 0xFF, 0x39, 0xFE, 0x79, 0x3E, 0x83, 0xC1, 0x1F, 0x1E, 
  0xF0, 0x87, 0xFF, 0xFF, 0x0F, 0x86, 0x87, 0xC3, 0x1F, 0x7E, 0xF0, 0xFF, 
  0x7F, 0xC0, 0x7C, 0xFE, 0xF0, 0xE3, 0xFF, 0xE3, 0xFF, 0x8F, 0x07, 0x8E, 
  0x07, 0x03, 0xFC, 0xFF, 0xFF, 0xFF, 0xFF, 0xFF, 0xFF, 0xFF, 0xFF, 0xFF, 
  0xB8, 0x5F, 0xD5, 0xAF, 0xF9, 0xFF, 0xFF, 0xFF, 0xFF, 0xFF, 0xFF, 0xFF, 
  0xFF, 0xD7, 0x07, 0x60, 0xD7, 0xF9, 0x7D, 0xFF, 0x3D, 0xBF, 0x3E, 0x3F, 
  0xEE, 0xAA, 0xA7, 0xA5, 0x72, 0xE1, 0xDF, 0xFF, 0x3F, 0x4A, 0x57, 0x85, 
  0x8E, 0xA7, 0xE8, 0xFF, 0x1F, 0x80, 0xA9, 0xFF, 0xA1, 0xF6, 0xFF, 0xF7, 
  0xFF, 0x5F, 0x87, 0xFD, 0x17, 0xA2, 0xF8, 0xFF, 0xFF, 0xFF, 0xFF, 0xFF, 
  0xFF, 0xFF, 0xFF, 0xFF, 0xFC, 0x7F, 0xF0, 0xFF, 0xFC, 0xFF, 0xFF, 0xFF, 
  0xFF, 0xFF, 0xFF, 0xFF, 0xFF, 0xFF, 0x1F, 0x00, 0xFF, 0xFC, 0x7F, 0xFE, 
  0x0F, 0x0E, 0x7E, 0x0E, 0xFF, 0xFF, 0xF3, 0xF0, 0x3F, 0xE0, 0xCF, 0x3F, 
  0x7E, 0x18, 0x7E, 0x1C, 0xDF, 0xC3, 0xFC, 0x8F, 0x0F, 0x00, 0x86, 0xFF, 
  0x07, 0xFC, 0xFF, 0xF9, 0xFF, 0x63, 0xDE, 0xFC, 0x7F, 0xF0, 0xE1, 0xFF, 
  0xFF, 0xFF, 0xFF, 0xFF, 0xFF, 0xFF, 0xFF, 0xFF, 0x58, 0xB5, 0x6A, 0xD5, 
  0xF9, 0xFF, 0xFF, 0xFF, 0xFF, 0xFF, 0xFF, 0xFF, 0xFF, 0xFF, 0x5D, 0x88, 
  0xFE, 0xFD, 0xB7, 0xFF, 0xBF, 0x5F, 0x5F, 0x5F, 0x77, 0xDD, 0xEF, 0xEB, 
  0x5F, 0x78, 0xDD, 0xFF, 0xBE, 0x2C, 0xBD, 0x58, 0xDF, 0xCD, 0xFD, 0x5F, 
  0xBF, 0x80, 0x4A, 0xFD, 0x57, 0xFD, 0x5F, 0xFE, 0xFF, 0x2F, 0xDF, 0xD9, 
  0x37, 0x4A, 0xFA, 0xFF, 0xFF, 0xFF, 0xFF, 0xFF, 0xFF, 0xFF, 0xFF, 0xFF, 
  0x1C, 0xE0, 0x7F, 0xC0, 0xFC, 0xFF, 0xFF, 0xFF, 0xFF, 0xFF, 0xFF, 0xFF, 
  0xFF, 0xFF, 0xF9, 0x99, 0xFF, 0xFF, 0xE7, 0xFF, 0xFF, 0x3F, 0xCE, 0xFF, 
  0x33, 0xCC, 0xFF, 0xFF, 0xCF, 0x3D, 0xF8, 0xFF, 0xF9, 0x79, 0xF8, 0xFC, 
  0xFF, 0xF9, 0x8F, 0x27, 0xFF, 0x81, 0x19, 0xF8, 0xFF, 0xFF, 0x0F, 0xFF, 
  0xFF, 0x1F, 0xFE, 0x8C, 0x67, 0x1F, 0xFF, 0xFF, 0xFF, 0xFF, 0xFF, 0xFF, 
  0xFF, 0xFF, 0xFF, 0xFF, 0x58, 0xF5, 0x7F, 0xD5, 0xF9, 0xFF, 0xFF, 0xFF, 
  0xFF, 0xFF, 0xFF, 0xFF, 0xFF, 0xFF, 0x5E, 0x65, 0xFF, 0xD7, 0xFB, 0x7D, 
  0xFF, 0x7D, 0xDF, 0xFF, 0x76, 0xDA, 0xFF, 0xFF, 0xDD, 0x5D, 0xF7, 0xFF, 
  0xF5, 0xB5, 0xF4, 0xFD, 0x7F, 0x7E, 0xDF, 0x71, 0x7E, 0x42, 0xA6, 0xF4, 
  0xFF, 0xFF, 0xBF, 0xFE, 0xFF, 0x2D, 0xFA, 0xD9, 0xB9, 0x5E, 0xFF, 0xFF, 
  0xFF, 0xFF, 0xFF, 0xFF, 0xFF, 0xFF, 0xFF, 0xFF, 0xFC, 0xFF, 0xFF, 0xFF, 
  0xFC, 0xFF, 0xFF, 0xFF, 0xFF, 0xFF, 0xFF, 0xFF, 0xFF, 0xFF, 0x0F, 0x33, 
  0xFF, 0x83, 0xFF, 0x79, 0xFE, 0x3C, 0xFE, 0x3F, 0x38, 0xE6, 0x8F, 0x8F, 
  0xE0, 0xCF, 0xF3, 0xFF, 0xE7, 0xE7, 0xE1, 0xFF, 0x3F, 0x3F, 0x8F, 0x20, 
  0x3F, 0x07, 0xF3, 0xE1, 0xFF, 0xFF, 0xFF, 0xFF, 0xFF, 0x79, 0xFC, 0x9C, 
  0xFC, 0xFF, 0xFF, 0xFF, 0xFF, 0xFF, 0xFF, 0xFF, 0xFF, 0xFF, 0xFF, 0xFF, 
  0x50, 0x5D, 0x55, 0x55, 0xF9, 0xFF, 0xFF, 0xFF, 0xFF, 0xFF, 0xFF, 0xFF, 
  0xFF, 0xFF, 0xBF, 0x56, 0xFF, 0xE7, 0x7F, 0xBC, 0xFF, 0x3B, 0xFF, 0x7F, 
  0xD5, 0x70, 0xFF, 0x97, 0xF8, 0xD7, 0xF7, 0xDF, 0x5B, 0xAF, 0xDA, 0xFE, 
  0x57, 0x77, 0xDD, 0x79, 0x7E, 0x21, 0xCA, 0xD2, 0xFF, 0xFF, 0xFF, 0xFF, 
  0xFF, 0x35, 0xFA, 0xCD, 0xD9, 0xFF, 0xFF, 0xFF, 0xFF, 0xFF, 0xFF, 0xFF, 
  0xFF, 0xFF, 0xFF, 0xFF, 0x00, 0x00, 0x00, 0x00, 0xFC, 0xFF, 0xFF, 0xFF, 
  0xFF, 0xFF, 0xFF, 0xFF, 0xFF, 0xFF, 0xFF, 0x8C, 0xFF, 0xF3, 0x7F, 0xF8, 
  0xFF, 0x1F, 0xFE, 0x8F, 0x87, 0x21, 0xFE, 0x03, 0xFC, 0xF3, 0xFF, 0x9F, 
  0x0F, 0x1E, 0x0E, 0xF8, 0x83, 0xF3, 0x8C, 0x3C, 0xFF, 0x30, 0x9C, 0x87, 
  0xFF, 0xFF, 0xFF, 0xFF, 0xFF, 0x67, 0xE6, 0x9F, 0xCC, 0xFF, 0xFF, 0xFF, 
  0xFF, 0xFF, 0xFF, 0xFF, 0xFF, 0xFF, 0xFF, 0xFF, 0xAA, 0x52, 0x55, 0x55, 
  0xFA, 0xFF, 0xFF, 0xFF, 0xFF, 0xFF, 0xFF, 0xFF, 0xFF, 0xFF, 0xFF, 0xFD, 
  0xFD, 0xF7, 0x9F, 0xFC, 0xDF, 0x8F, 0xFF, 0xFF, 0xE1, 0xF4, 0xF7, 0x8D, 
  0xFA, 0xF5, 0x7F, 0xFF, 0x3F, 0x5A, 0xBD, 0x7E, 0x6D, 0xF5, 0x5A, 0x59, 
  0xFE, 0x28, 0xD0, 0x4A, 0xFF, 0xFF, 0xFF, 0xFF, 0xFF, 0x35, 0xE9, 0xE7, 
  0xB9, 0xFF, 0xFF, 0xFF, 0xFF, 0xFF, 0xFF, 0xFF, 0xFF, 0xFF, 0xFF, 0xFF, 
  0xFF, 0xFF, 0xFF, 0xFF, 0xFF, 0xFF, 0xFF, 0xFF, 0xFF, 0xFF, 0xFF, 0xFF, 
  0xFF, 0xFF, 0xFF, 0xFF, 0xF9, 0xFF, 0xCF, 0xF9, 0x9F, 0xDF, 0xFF, 0xFF, 
  0xF0, 0xF9, 0xE7, 0xC9, 0xFF, 0xFC, 0x7F, 0xFE, 0x7F, 0xFC, 0xFC, 0x3F, 
  0x38, 0x3C, 0x33, 0x98, 0x79, 0x18, 0x30, 0x18, 0xFE, 0xFF, 0xFF, 0xFF, 
  0xFF, 0x79, 0x9C, 0xF3, 0xFC, 0xFF, 0xFF, 0xFF, 0xFF, 0xFF, 0xFF, 0xFF, 
  0xFF, 0xFF, 0xFF, 0xFF, 0xFF, 0xFF, 0xFF, 0xFF, 0xFF, 0xFF, 0xFF, 0xFF, 
  0xFF, 0xFF, 0xFF, 0xFF, 0xFF, 0xFF, 0xFF, 0xFF, 0xFE, 0xFF, 0x1F, 0x75, 
  0xCF, 0xAF, 0xFF, 0x7F, 0x69, 0x7D, 0x71, 0xD6, 0xFF, 0xFB, 0x9F, 0xFD, 
  0xBD, 0xE8, 0xFB, 0xFF, 0x3E, 0x3A, 0x36, 0xC6, 0x9D, 0xAD, 0xE0, 0xAE, 
  0x57, 0xFF, 0xFF, 0xFF, 0xFF, 0xBC, 0xA0, 0xC7, 0xFD, 0xFF, 0xFF, 0xFF, 
  0xFF, 0xFF, 0xFF, 0xFF, 0xFF, 0xFF, 0xFF, 0xFF, 0xFF, 0xFF, 0xFF, 0xFF, 
  0xFF, 0xFF, 0xFF, 0xFF, 0xFF, 0xFF, 0xFF, 0xFF, 0xFF, 0xFF, 0xFF, 0xFF, 
  0xFF, 0xFF, 0x0F, 0x66, 0x9E, 0xFF, 0xFF, 0x3F, 0x7C, 0x26, 0x20, 0xE7, 
  0xFF, 0xFF, 0xCF, 0xF8, 0xF9, 0xF1, 0xFF, 0xFF, 0x0F, 0x0F, 0x0F, 0x83, 
  0xCF, 0xFF, 0xF0, 0xFF, 0x03, 0xFE, 0xFF, 0xFF, 0xFF, 0xE1, 0x70, 0x82, 
  0xFF, 0xFF, 0xFF, 0xFF, 0xFF, 0xFF, 0xFF, 0xFF, 0xFF, 0xFF, 0xFF, 0xFF, 
  0xFF, 0xFF, 0xFF, 0xFF, 0xFF, 0xFF, 0xFF, 0xFF, 0xFF, 0xFF, 0xFF, 0xFF, 
  0xFF, 0xFF, 0xFF, 0xFF, 0xFF, 0xF7, 0x3D, 0xAD, 0xFF, 0xFF, 0xF7, 0x2F, 
  0xA8, 0x5A, 0x58, 0xDA, 0xFD, 0xFF, 0x55, 0xFF, 0xF6, 0xEA, 0xFF, 0x7F, 
  0x55, 0x8F, 0x8E, 0x66, 0xBF, 0xDF, 0x55, 0x5F, 0x03, 0xD5, 0xFF, 0xFF, 
  0x7F, 0xE0, 0x61, 0xF5, 0xFF, 0xFF, 0xFF, 0xFF, 0xFF, 0xFF, 0xFF, 0xFF, 
  0xFF, 0xFF, 0xFF, 0xFF, 0xFF, 0xFF, 0xFF, 0xFF, 0xFF, 0xFF, 0xFF, 0xFF, 
  0xFF, 0xFF, 0xFF, 0xFF, 0xFF, 0xFF, 0xFF, 0xFF, 0xFF, 0xE7, 0x7C, 0x98, 
  0xFF, 0xFF, 0xE7, 0x03, 0x87, 0x0D, 0xCC, 0x8C, 0xF9, 0xE3, 0x60, 0xFE, 
  0xE7, 0xFF, 0xFF, 0x3F, 0xF0, 0xC3, 0xC3, 0x73, 0xFE, 0xC8, 0x0F, 0x1E, 
  0x00, 0x80, 0xFF, 0xFF, 0x3F, 0x80, 0xF7, 0xFC, 0xFF, 0xFF, 0xFF, 0xFF, 
  0xFF, 0xFF, 0xFF, 0xFF, 0xFF, 0xFF, 0xFF, 0xFF, 0xFF, 0xFF, 0xFF, 0xFF, 
  0xFF, 0xFF, 0xFF, 0xFF, 0xFF, 0xFF, 0xFF, 0xFF, 0xFF, 0xFF, 0xFF, 0xFF, 
  0xFF, 0xFF, 0x6B, 0x68, 0xFF, 0x7F, 0xFB, 0x83, 0xA2, 0x08, 0x9C, 0xBD, 
  0xFE, 0xF7, 0x98, 0xAD, 0xD3, 0xFF, 0xAA, 0x6A, 0xF5, 0xA5, 0x97, 0x25, 
  0xFF, 0xAD, 0xBF, 0xAF, 0x02, 0x48, 0xFD, 0xFF, 0xFF, 0xC0, 0xF7, 0xFB, 
  0xFF, 0xFF, 0xFF, 0xFF, 0xFF, 0xFF, 0xFF, 0xFF, 0xFF, 0xFF, 0xFF, 0xFF, 
  0xFF, 0xFF, 0xFF, 0xFF, 0xFF, 0xFF, 0xFF, 0xFF, 0xFF, 0xFF, 0xFF, 0xFF, 
  0xFF, 0xFF, 0xFF, 0xFF, 0xFF, 0xFF, 0xF3, 0x31, 0xFE, 0x3F, 0xFF, 0xC0, 
  0x60, 0x07, 0x0F, 0x7E, 0xFE, 0x3F, 0xCC, 0xD8, 0x87, 0x7F, 0x00, 0x80, 
  0xFF, 0xF0, 0x79, 0x18, 0x3E, 0xF2, 0xFF, 0xFF, 0x07, 0x18, 0xF8, 0xFF, 
  0xFF, 0x81, 0xFF, 0xFF, 0xFF, 0xFF, 0xFF, 0xFF, 0xFF, 0xFF, 0xFF, 0xFF, 
  0xFF, 0xFF, 0xFF, 0xFF, 0xFF, 0xFF, 0xFF, 0xFF, 0xFF, 0xFF, 0xFF, 0xFF, 
  0xFF, 0xFF, 0xFF, 0xFF, 0xFF, 0xFF, 0xFF, 0xFF, 0xFF, 0xFF, 0xF7, 0xA1, 
  0xFD, 0x77, 0xFE, 0xA1, 0x19, 0x87, 0xAE, 0xBF, 0xFF, 0x6F, 0xB5, 0x8D, 
  0xF7, 0x15, 0x80, 0x6A, 0xFF, 0xF0, 0x95, 0x86, 0xB7, 0xE7, 0xFF, 0x77, 
  0x0B, 0x84, 0x54, 0xFD, 0xFF, 0xEA, 0xFF, 0xFF, 0xFF, 0xFF, 0xFF, 0xFF, 
  0xFF, 0xFF, 0xFF, 0xFF, 0xFF, 0xFF, 0xFF, 0xFF, 0xFF, 0xFF, 0xFF, 0xFF, 
  0xFF, 0xFF, 0xFF, 0xFF, 0xFF, 0xFF, 0xFF, 0xFF, 0xFF, 0xFF, 0xFF, 0xFF, 
  0xFF, 0xFF, 0xFF, 0xC7, 0xF8, 0x83, 0xF9, 0xF0, 0xCC, 0xDF, 0xF3, 0xFF, 
  0xFF, 0x83, 0xE3, 0xC9, 0xFF, 0x00, 0xC0, 0x7F, 0x3E, 0xFC, 0xC3, 0xC3, 
  0xC3, 0xF3, 0xFF, 0x67, 0x1E, 0x80, 0x01, 0xF8, 0xFF, 0xFF, 0xFF, 0xFF, 
  0xFF, 0xFF, 0xFF, 0xFF, 0xFF, 0xFF, 0xFF, 0xFF, 0xFF, 0xFF, 0xFF, 0xFF, 
  };
