/* XPM */
static char *pagoda_256[] = {
/* columns rows colors chars-per-pixel */
"512 384 2 1 ",
"  c #EBAA41 s c0 ",
". c #FFC365 s c1 ",
/* pixels */
"                                                                                                                                                                                                                                                                                                     ..  ..  ..  ..  ..                                                                                                                                                                                                         ",
"                                                                                                                                                                                                                                                                                                    ..  ..  ..  ..  ..                                                                                                                                                                                                          ",
"                                                                                                                                                                                                                                                                                                 .   ..  . . . . .   ..                                                                                                                                                                                                         ",
"                                                                                                                                                                                                                                                                                                ..  ..     ..  ..   ..  ...                                                                                                                                                                                                     ",
"                                                                                                                                                                                                                                                                                                 ..  . . ..  ..  . . .   .                                                                                                                                                                                                      ",
"                                                                                                                                                                                                                                                                                                ..    ....  ..  .....   ...                                                                                                                                                                                                     ",
"                                                                                                                                                                                                                                                                                                 . .  . . .  . .  .  . . .                                                                                                                                                                                                      ",
"                                                                                                                                                                                                                                                                                                  ....     .. ...   ....                                                                                                                                                                                                        ",
"                                                                                                                                                                                                                                                                                                   . .   ..  .   . .  . .                                                                                                                                                                                                       ",
"                                                                                                                                                                                                                                                                                                        ..   .. .....                                                                                                                                                                                                           ",
"                                                                                                                                                                                                                                                                                                   .   . .  .     .        .   .   .                                                                                                                                                                                            ",
"                                                                                                                                                                                                                                                                                                  ..  ...                 ..  ..  ..                                                                                                                                                                                            ",
"                                                                                                                                                                                                                                                                                                   ..  .   .           .   ..  ..  ..  .               .   .                                                                                                                                                                    ",
"                                                                                                                                                                                                                                                                                              ... ..   .. ..          ..  ..  ..  ..  ..              ..  ..                                                                                                                                                                    ",
"                                                                                                                 . . .                                                                                                                                                                         .   .. ..   ..  .       ..  ..  ..  ..  ..          .   ..  ..  .                                                                                                                                                                ",
"                                                                                                                 .....                                                                                                                                                                    ... ... ..   .  ..  ..      ..  ..  ..  ..  ..          ..  ..  ..  ..                                                                                                                                                                ",
"                                                                                                               .. ... .          . . .                                                                                                                                                     .   .   .. . .  ..  ..      ..   .  . . .   ..      .   ..  ..  ..  ..                                                                                                                                                               ",
"                                                                                                              ..   ..  ..        .....                                                                                                                                                     .. ...    .    ..  ..  ... ..     .. ..    ..  ... ..  ..  ..  ..  ..  ...                                                                                                                                                           ",
"                                                                                                        . .    .. ..  ..       .. ... .             .                                                                                                                                     ..    . . ...  . .   ..  .   . . ..  . . .  .    .   ..  ..   .  .   ..  .                                                                                                                                                            ",
"                                                                                                      ....... ..   ..  ..     ..   .   ..         .....                                                                                                                                    ..    ...   ...    ..   ..   ....  ..  ....    ... ..  ..     ..   ..   ..                                                                                                                                                           ",
"                                                                                                       ... .   .  ..   .       .. ... ..           . ..                                                                                                                                      . .. ... .. .. .  .  .  .  . . .  ..  . .. .  .   ..   . . .  .  . . ..                                                                                                                                                            ",
"                                                                                                     ..  ..        ..     ... ..   .   ..        .. .....                                                                                                                                   ....     .     ....     ....     ..  ..    ....   ..     ...  ....     ..                                                                                                                                                           ",
"                                                                                                     . .      . . .            .  ...          ..  . . .        .                                                                                                                      .     . .. . .. . . . .       . .. .. . . . . .. .      . . .. ...  .. . . .                                                                                                                                                             ",
"                                                                                                       ..   ......                 .          ..  ..  ...     .....                                                                                                            .. ...  ..        ...  .....              ....  ..  ...          ....     ..   ....                                                                                                                                                              ",
"                                                                                                      .    . ..... .     .       .. .           .  ..  .      ...  .                                                                                                          ..   .  ..   .     . .    .  . .           . .  .   . . .           ..   . .  .  . .                                                                                                                                                              ",
"                                                                                                           ..  .  ...    ..     ..                ..  ...   ....  ..                                                                                                      ...  .. ...  ..  ..             .....           ...                          .. .....                                                                                                                                                                 ",
"                                                                                                          ..  ..   .   ... .     ..            .   .   .     .. . . .                                                                                                      .  ..   .. ..  ..                .  .         . .                     .   ..    . .                                                                                                                                                                  ",
"                                                                                                           ..  .. ... .......      ..         ..    ...     ..  ..   ..                                                                                                   ...  .. ..   ..  ..                  ..       ..                  ... ..  ..                                                                                                                                                                          ",
"                                                                      .           .  .                     .  ..     .  ...  .     . .     .  . .   ...      ..  ... .                                                                                                     ..   .  .. .   ..   . .            .  .   . . .               .   .   ..  ..  .                                                                                                                                                                      ",
"                                                                    .....       ......                         ..   ... ..  ...      ..   ....    .......      ..  ..                                                                                                  .. ..     ..  .     .. .....             ..  ....                ..  ... ..  ..  ..                                                                                                                                                                      ",
"                                                            .       ...  .       .... .                              .   ..  .      ..   .  ..     ... . .    ..  ..                                                                                                  ..   . .. . . ... .. .   ..  . .           ..  .. .                ..  .  ...  ..  ..                                                                                                                                                                     ",
"                                                           ....   ....  ..     ..  ..  ..                           ... ..  ...      ..  ..     ...  ..  ..    ..  ..                                                                                                  ..   ....  ..   ....   ..  .....         ..  ..                  ..  ...  .  ..  ..                                                                                                                                                                      ",
"                                                         .. ..     .. . . .   ..  ..  ..        .                        ..         .. ..        .  ..  ..     .                                                                                                       . .  . .. . .. . .   .  .   .  .          . . ..              .   ..   . . .  .   ..  .                                                                                                                                                                  ",
"                                                        ..   ..   ..  ..   ..  ..  ..  ..     .....                     ..           ...        ...  ..  ..                                                                                                              ...    ...  .    .....        ..         ....              ..  ..     ..  ..   ..   ..                                                                                                                                                                 ",
"                                                         .. .  .   ..  .. .   .   ..  .        ....                      .          ... .           ..   . . .                                                                                                          . .. .   . .. . .  . .        . .          ....              ..  . . ..  .. . . . . ..                                                                                                                                                                  ",
"                                                      ...  .  ..  ..  ..           ..       ...  ....                                .               ..    ....                                                                                                             ..... ..  .....              ..       ....              ..    ....  ...  ...     ..                                                                                                                                                                 ",
"                                                          ...  ..  .   .. . .      . . .    . . . ..       .                      . ... . .          .    ...  .                                                                                                              .     .  . .              . .        ...               . .  . . .  . .. .. . .                                                                                                                                                                    ",
"                                                          ..  ..         ......      .... ..   .   ..      ..                      .   ......              .  ...                                                                                                                                          ..     ..                  ....     .. ..    .....                                                                                                                                                                   ",
"                                                           .   .       .. ... . .  .. .. . .  ... ..   .. ...      . . .        . ..   . . . . .   .     .. .  . .     .                                                                                           .   .                           . . . ....    . ..                   .. . ..    . .  . .                                                                                                                                                                     ",
"                                                                      ..   ..  .  ..   ....   ..   .. .........   .......        .           .... ...   ..   ..  ..   ..                                                                                       .. ..  ..                          ............. ....                      ....  ... ....                                                                                                                                                                        ",
"                                                                       .. ..  ...  .. ...  .   .   . .  ... ..   . ....  .    . ...         . .  . .. .  .. . . .    . ..                                                                                     ..   ..  ..  .                   . . .. . . . ... ....                       . .. .    . .       .   .                                                                                                                                                            ",
"                                                                      ..   .. ..  ..   .  ...        ..  ..  .. ...  .  ...    ...              .........  ..  .    .......                                                                               ...  .. ..  ..   ..                 .......        .....                             .              ...  ..                                                                                                                                                           ",
"                                                           . .         .  ..   .   .  ...  .     .  ..  ..  ..   .  ...  .  . .....             . ... ..  .   . .  .  ... .                                                                                .  ..   ..  .. ..                  ... .          . .... .                         ...          .   .  ..   .                                                                                                                                                        ",
"                                                           ....            ..          .   ..   ...  ..  ..  .. ...  .  ...  ....  ..         ..  ..   ..          ..  ..  ..                                                                             ...  .. ..  ..   ..               ....                 ...                           .          ..  ...  .. ..               .. ...                                                                                                                                   ",
"                                              .  .       ....  .     . . ..           . .  .         .  ..   .      ...     ...  .. . .        ..  .. ..     .    ..  ..  ..                                                                               ..  .  . . . .  .   .            ... .                ....                        .. .      .   ..  .  ..   ..             ..   .   .                                                                                                                                ",
"                                            ......      ....   ..   ......                               ..          .      ..  ..   .        ..  ..   ..   ...    ..  ..  ..                                                                          .. ..    ..  ..    ...  ..         ....                     ....                     ..         .. ..  ...  .  ..  ...     ...  .. ... ..                                                                                                                                ",
"                                            ... ...    .  ... ..   .  ... .      . . .         . .. .    .          . . . .  .   .. . .        .   ..  .    .. .   .  ..  .                                                                           ..   . .  .. . .. .  .  ..          ... .                    ....                  . . .        ..   ..   ... .  ..  .   .   .. ..   .   ..                                                                                                                               ",
"                                          ....  .....  .. ..   ..  .. ..  ...   ......        ......                   ......   ..                ..      .......      ..                                                                              ..   ....  ...  ....    ..       ....                         ....                ....          .. ..     .    ..  ... ..  ..   .  ... ..  ...                                                                                                                           ",
"                                           .. .  ...  ..   ..  .  ..   ..  .   . .. ...        .... .      . . .     .. ... . .  .                 .      . ...  .     .                                                                               .  .  .. .  . . . .  . .  . .     ...                         . ..          . . .. .           ..   .. .. . . . .   .   ..  ..  ..  .   ..  .                                                                                                                            ",
"                                           ..  ..  ..  .. ..       .. ..  ... ....  .....   ...  ..  ..   .......   ..   ..  .                          ..   .  ...                                                                                     .....    ..  ..   ....  ....    ..                            .....        .....               ..    .... ....    ... ..  ..     ..   ..   ..                                                                                                                           ",
"                                          ..  ..  ..  .    .           ..      ....  ...     .  ..  ..   .  ...  .   .. ..  ...                          .. ...  .                                                                                       . .  .. . .  . .  . .   . .. . ...                            ..        .... . .               . . . .   . . . .  .   ..  .. . .  . . .  ..                                                                                                                            ",
"                                           ..  ..  ..                 ..      ..   ..  ..   ...  ..  ..  .. ..  ... ...  .. ..                          ...  .  ...                                                                                         .....  ..  ....          .....                            ...       ....                     ...    ..     ....   ..     ...  .....    ..                                                                                                                           ",
"                                           .  ..   .   . . .   . .. .  .       .  ..   .        ..  .   ..   ..  .      ..   .                           .  ...                                                                                               .   .   .  .           . . .                              . .. . . ..... .                . ...  . .. ... .      .. . .. ..  .   .. .                                                                                                                             ",
"                                               ..      ...... ......               ..            ..      .  ..   ..      ..                                  .                                                                                                                                                           ..................                  ....  ...           ...     ..   .....                                                                                                                             ",
"                                               .     .. ...  . .... .      . .     .             .      . .  ..  .       .           .             .         .                                                                                                                                         .               .... ... . . . . ... .                . .   . .           . .. . . . .  . .                                                                                                                              ",
"                                                    ..  ..  ..   ..  ..   .....                             ..                      ..             ..                                                                                                                                                  ..             ....  ..           ......                                      ....  ....                                                                                                                                 ",
"                                                   . . . .   ..  .  ..   . ... .   . . .                 .   .   . .                ...        . ... .         . .                                                                                                                                    .  . .       . .  ...  .          . . ... .            . .           . . .     . .   . .                                                                                                                                  ",
"                                                  ..  ..    ..  ...  .. ...  .... .......               ..      .....             .......     .........       .....                                                                                                                                     .....     ..... .....                ...            .....         .......                                                                                                                                               ",
"                                                   ..   .    .   .  .  .   . ...    . .  . .           . .     . ..               . ... .      .. ...  .     . ..  .                                                                                                                                      .  . .  ...  . . .                . ... .      . .  .        . .  . .                      .                                                                                                                          ",
"                                                  ..            ...   ... ...  ..       .....         ..      ....              ..   ..  ..    ..  .   ..   ....  ...                                                                                                                                       ........  ..                       ......   .....         .....                     ... ..                                                                                                                          ",
"                                                   .                   .   .  ..          .  . .       ..      ...       . . .   ..  . . . .  ..  ... ..     ... .  .                                                                                                                                         ..... .  .                      . . ... .  .         .   .                     .   .   ..  .                                                                                                                      ",
"                                                                      ..  ...  ..           .....     ..      ..        ......  ...    ..  ..  .. ..   ..   ..  ...  ..                                                                                                                                       .....  ..                            ......         .....                     ..  ... ..  ..                                                                                                                      ",
"                                                                       .                      .. .     ..     ...    . .  . . .  . . ..   ..   .   .         ..  .  .                                                                                                          .   .   .                       ..  ..                             . . .. . .. . .  . .                   .   ..  .  ...  ..                                                                                                                     ",
"                                                                                              ....    ..    ....    .....     ..  ....     ..               ..   ..                                                                                                           ..  ...  ..                     ..  ..                                   ............                     ..  ..   ..  .  ..   ..                                                                                                                 ",
"                                                   . .             . .                         ....    ..    .. . .  .         ..  ..... ..     . .          .   .                                                                                                         .   ..  .  ..   .                   ..  ..                                 . . . . . .                        ..  ..  . . .   .. ..                                                                                                                  ",
"                                                   ...            .....                          .... ..    ...  ....            ..  .....    .......                                                                                                                     ..  ..   ..  ..  ..                 ..  ..                                                                    ..  ..     ..   ..   ..                                                                                                                 ",
"                                           . .   .. ...    . .    . .. .                         ...   ..   .. .. .             ..  ... ...  . . .. ..     .   .                                                                                                           ..  .. ..  ..  ..                  . . ..                                                                     ..  .. . .  . . .  ..                                                                                                                  ",
"                                           ...  ..  ..     ...  ..   ....                          .. ..   .....                 ..  .   .  ..  ...  ..    ..  ..                                                                                                         ..  ..   ..  ..  ..               ..  ..                                                                      ..     ...  .....    ..          .. ... ...                                                                                             ",
"                                         .. ...   .  .   .. ...  .. ...  .  . .                   ..   .. ......                    ... ..   ..  .  ..    .. ..  .                                                                                                     .   ..  .. . . .   ..   .             ... ..                                                                      . . . . ..  .  . . .           ..   .   .   .                                                                                          ",
"                                        ..  ..     ..   ..   .  ...  .  ...  .                     .  ...  ...                       .   .. ..   ..  ..    ...   ..                                                                                                   ..  ..     ..  ..    ..  ..           ......                                                                        .....    ..    ....       ... ..  ... ... ..                                                                                          ",
"                                         . . . .  ..   . .  .       ...  .  ...                    ..  . .... .                     . .  .   .  ..  ..   .. ... ..                                                                                                     ..  . . . . . . . ..   ..             .. ...                                                                         .  .. . . .. . .         .   ..  .   .   ..                                                                                         ",
"                                       .. ..  ...  ..  ..            .   ..  ....                    ..  ...                                     ..  .. ..  ..   ..                                                                                                   ..    ....  ..  ....     ..           ..  ..                                                                            .....  ....           ... ...  .. ... ..                                                                                          ",
"                                       .   ..  .  .   .  . .        . .  .  ... . .                  . .. . .                           .  .     .       .   ..                                                                                                        . .   . ..  ..  . .. . .              ..  ..                                                            .   .            .   ...              .     ..  .     ..                                                                                         ",
"                                          ..   ..       .....                ..  .                    ..                              .......               ...                                                                                                         .....    ..  ..    ....             ..  ..                                                            ..  ..  ...            .          ... ...   ..  ...   ..   ..                                                                                     ",
"                                           ..  .         ... .     . . .    ..  ...    . .         .  ...                . . .        . ...  .                                                                                                               .   .        . . . .  . .  . . .    .           .. . .                            .   .   .                   .   ..  ..  .   .        . . .        .    . . . .  . . . .  ..                                                                                      ",
"                                          ..          ...  ....   .......    ..  .     ....       .........             .......     ..  ..  ...                                                                                                         ... ..  ..           ...  ..  ....      ...         ....                              ..  ..  ..                  ..  ..  ..  ...  ..          ....     ...    ...  ..  .....    ..                                                                                     ",
"                                           .           . . ...   .  ...  .   .  . .  . ... .      . ... ..     . .      . ...  .     ..  ..  .                                                                                                           .   ..  ..         . ..   .   . .         . .       .....                         .   ..  ..  ..  .               ..  ..  ..  .  ..          . ...      . . .. .. . ..  . . . ..                                                                                       ",
"                                                    ...  ..  .  ... ..   ..          ..  ....   ..   ..  ..    ....   ..   .  ...   ..  ..   ..                                                                                                     ... ... ..  ..  ...                           ....      ......                        ..  ..  ..  ..  ..              ..  ..  ..   ..  ..            .... ..  ....    ...  .    ....                                                                                        ",
"                                                        ..   .   .   .. ..          .  . ...     .. ..  ..   ..... .   .. ...  .     ..  ..  .                                                                                                       .   .   ..  ..  .                              . . .  . .... .                        ..  ..  ..  ..  ..          .   ..  .  . . .   ..   .        . .. . .    . .    . . ..    . .                                                                                        ",
"                                                         ..     ... ..   ..       ..  ...  .    ...  ..  .. ........  ...  .   ..   ..  ..                                                                                                           .. ... ..  ..   ..                               .......  ..  ..                     ..  ..  ..  ..  ..          ..  ..    ..   ..    .  ...          ....       .....  ..  ....                                                                                           ",
"                                                        .          . .   .         .   .  ...       ..   .  . ... ...     ...  .     .   .     . .         .                                                                                        ..    . . .  .  ..   .                             . .     . ....                  .   ..   .  .   .   ..          ..  . .  ... .. .... .  .           ...         . .   .   ..                                                                                             ",
"                                                                  ...                 ...  .         ..   ..   .  ..       .                   ....        ..                                                                                   ...  ..    .   ..    .. ...                                      ......               ..  ..     .. ...   ..  ...     ..    ....  ..   ...     ..            ..                                                                                                                 ",
"                                                                                          .          .     .. ...  ..     . .      . . .     ..... .     ... . .                                                                                 .  .  .. .... . . ..    .                                      . . ...                ..  . . ..  . .  .  .   .       . .   . .   .. . . . . .             .. .                                                                                                                ",
"                                                                            ...                           ...  .  ..               ......   .........   .........                                                                               ...   ....   .  ....    ...                                          ....             ..    ....  ..  .....   ...       .....   ... ..     ....              ....                                                                                                               ",
"                                                       . . .                                   . . .          .    .             .. .... .   .. ...  .   .. ... . .                                                                               .  .  ... . .  . .. .  .                             . . .. .  . .. . . .             .   . . . . .  . . .  .           . . .  .   .. . . .    . .        ....         .   .   .                                                                                              ",
"                                                      .......                                 ......  ...                    .. ..   .....  ..  ..  ..  ...  ..  .                                                                                 ....    ..  ..    ...                              ..............     .              ....    ..   ..   ....               .... ...  ....     .....        ....        ..  ..  ..                                                                                             ",
"                            .  .                       ....  .       . . .       . . .       . .. ...      .. . .      . .  .    .. ... ...  ..  ..  ..  .  ..  ...                                                                                . . . . . ..  . .. . .                          .   . . . . . ....   . .              .. . .  .. . . .  . .               . .   .   . .        .  . .    ....     .  ..  ..  ..   .                                                                                          ",
"                          ......                    ...  .   ..     ......      .......     ..... ..      ......      .....     ...  .  ..  ..  ..  ..   ..  ..  .                                                                                     ...  ..  ....                              .....            ....    ..               .....  ..  ....                                         .....    ....   ...  ..  ..  .  ...                                                                                         ",
"                      .   ..... .                    . . .. .      . ...... .   . .... .     ..  . ..    .  ... .     . .. . .   .  ...  ..  .   .   .  .   ..  . .                                                                                   . . .   . . . .                          .  ...  . . . . .   ....   ..                 . .   .   . .. .                                         .  .  ....     .  ..  ..  ...  .                                                                                          ",
"               ..   ..........                    ...  ..  ..     ..   .....  ..   ......   ..  ...  .. ...  ..  .. ..   .....  ...  .  ..                   ..                                                                                               ..                              ......  ...........    ....  ..                           ....                                            ...  ....   ...  ..  .. ..   ..                                                                                         ",
"             ..  .  ..........                        ..  ..      . . ... ...  .. ... ..    . .  . . .   .  ..  ..   .. ... ...     ...   .       . .       .                                                                                                  .   .  . .                . .   .. . .   . . . .  . . . ..  . .                           . ..            .   .                            . .... .   .  .  ..  . .  ..   .                                                                                      ",
"             .  ............                           ..  ..   ..  ....  ..  ...  .   .. ..   ..  ..   ...  ..  .. ...  .  ..       .          .......                                                                        .. ...                             .........             .....  ..               ..... ..     ..                           ..            ..  ..                             ........  ..   ..  ..     .  ...                                                                                     ",
"            ... ....... ....                          .    .     .   ... . .      ... ..   .  ..            ..  .    .  ...  ..     .            .... .                                                                       ..   .   .                            . .  . . . . .   .  ...  ...                  .   ....  ..                             ..        .   ..  ..                           ..... ..  .  .  . .  .. ... .  .                                                                                      ",
"             .........  ..                                          ..  ..        ..   ..      ..            ..     ...  .  ..                ...  .   ..                                                                 ... ..  ... ..                                   .......  ......  .....                   .......  ..                           ..        ..  ..  ..  ...                        ...   ..   ....   ..  ...     ..                                                                                     ",
"           ........ . .  . .                           . .           ..  .         .       .  .      . .    .        .  ...  .                 .  ... ..                                                                   .   ..  .   ..                                 . . . . . ... .    ..                      .....  ..                            ...    .   ..  ..  ..  .   .                   .... .    . . . ... . . . . . ..                                                                                       ",
"           .......        ...                          ....         ..                    ...       .....                .                     .. ..   ..                                                             ..  ... ..  ... ..  ...                                      ...      ..                         ....  ..                         ....    ..  ..  ..  ..  ...  ..                 ....      ....     ..  ..   ....                                                                                        ",
"         ..  . . .   .                               .. .. .         .       . . .       . ..      . ..  .              .                      .   ..  .                                                               ..  .   . .     ..  .                     . . . . . . . . .... .      ..                       ....  ..                          ....     ..  ..  . . .  ..  ..                   ....       . . . .  ..  .   . .                                                                                        ",
"        ..          ..  ...                         ...  ...                ......      .......   ....  ...                                       ..                                                                  ..  ...   ...   ..   ..                   ....................        ..                         ....  ..                       ....      ..  ..... ..  .....  ..                 ....          ....  ..  .....                                                                                           ",
"          ..   .     ..  .                   . .     . .. ...   . .          .... . .   . ... .    ....  .                                         .                                                                   ..   . .   . . . . ..              . .  . .. . . . . . . . . .        ..                       .. .   .          . . . . . . . ... .       .  . .  . .  . . ..                     ...          . .   .    .                                                                                             ",
"           ..  ..   ..  ...                  ...  ...  .  ..  .......     ...  .  ..  ..  ..   ..    .   ..                                                                                                           ..     ....  ...     ..           ...........                         ..                         .    ...       ..................           ..   ..   ..   ..                      .....                                                                                                                 ",
"        .. . ..      ..                    .. . .     ...  ..  .. ...         ...  ..  ..  .. ..   .. . .                            . . .                                                                             . . .. . . .. .. . .          .  ... . . .                            ..                       ...        . .  ..... . . . . . . .  . . .  .  .  .. ..  .   .                       .... .                                                                                                               ",
"      ....  ..      ..                    ..           .  ..   ..  ....        .  ..  ..  ..   .. ..   ..                           .......                                                                             ....     .     ...           .....                                     ..                      ....     ..........              .........   ....  ..  .....                          ...                                                                                                                ",
"       . ..  ..  .   ..                     .   . ..  ..   . ..  .. ..   . .  .    .   . . .. .    .  .        . .   . .   . .      .....  .     . .                                                                      . . ... . . .. .         .... . .                                    .                     ....  .   . .. . . . .              . .  .       ..   .    .                           .....                                                                                                               ",
"        ..  ..  ..  ..                        .......  ..   ..  ..   .. .....            ..  ..               ....  ....  .....   ......   ..    ....                                                                       ....  ....            ....                                                              ....  ... .....                                                                       ......                                                                                                                ",
"         ..   .  ..  ..                        . ..   .     . . . .. .  ... .      . .  ..   .   .            . ... ... .  ... .   .... ...  .  ...  .   .                                                                   . .   . .. . .       ... .                                                              ....    . ..                                                                       . ... . .            .   .                                                                                              ",
"     .. ..      ..  ..                       .. ..        ..  ..   .  .....  ..   .....  ..      ..         ..   ......  ..  ...     ..  .   ..  .  ..  ..                                                   .. ... ...                ...      ....                                                                ....    .....                                                                     ......                ..  ...                                                                                             ",
"     .  . .      ..  .                      .  . .   . .   .   ... .   ..  .. .     ..       . ..        .   .  ... ..  ..  ... .   ..  ... ..  ...  ..  ..                                                 ..   .   .   .            . .. . . . ....                                                                ....   ...                    .                     .   .   .                     .... .            .   ..  .   .                                                                                          ",
"      ...  ..   ..                            ...   .....        ..   ..  ..   ..    ..     ....        ...     ..   ..  ..  .  ...  .  ..   ..  .  .....  ..                                           ... ..  ... ... ...               .......  .                                                                ....  ....            ... ... ..                     ..  .. ...                 ...  .              ..  ..   .. ...                                                                                         ",
"   .   .  ..     .                                 .  .. .     ... .   . . .  .     ..       ....    .   .. .    .. ..  .    .   .  . .   .     . .  ...   .                 . . .                       .   ..  .   .   .                  . .  . .                                                                 .. .  ....        .   .   .   ..                .  ..  ..   .   .           .   . . .               ..  .. ..   .   .                                                                                      ",
"  ..  ...  .. ...                                 ...  ....    .....    ...          ..     ....    ..  ....... ..   ..         ...                ..  ..                    ........                    .. ...  .. ... ...                     ...                                                                  ..  ..  .        ..  ... ... ..  ...            ..  ..  .  ... ...          ....  ..           ... ..  ..   ..  .. ...                                                                                     ",
"   ..  . ..    .                                   . .. ..   .. ... .          .    .. .   . ....    . . .. ..   .   .   . .               .      ..   .                   .. ..... .                   ..     ..  .     .   .                  ..                                             .   .   .            ..  .  .. .        ..  .   .   ..  .            ..  ..  ...  .   .          ... . .              .   ..  .. ..  ..   .                                                                                      ",
"  ....  ..                                      ..  ..   .. ..   ..  ..        ..    ....  ..  .  ..  .....  ..          ....         ...  ..      ..                     ..   ....  ..             ...  ..   ..  ...   ...  ..                ....                                           ..  ..  ..             ..   ..          ..   .. ... ..  ...            ..  ..  .  ..  ...          ..  ..              .. ..  ..   ..  .  ...                                                                                     ",
"    ...  .   .     .                             ..  .. ..   .  ..  ..        .     . ..  ..  ..   .   ..  .. . .      .. ..   . .    .....  ..    .                        .. .   ..                .  .  . . . .  . .  .  ..                ....                                         .   ..  ..  ..  .        ..     ..      .   ..  .  .  . .   .   .     .  ..   . .. .  .   .   .      .. ...              ..   .. . . .  ....  .                                                                                      ",
"       ..   ..     ..                           ..  ..   ..      ..  ..                ..  ..  ..     ..  ..   .      ..   .  ..... ......  .....                            ..   ..                ...   ....  ...  ....    ..                ....                                       ..  ..  ..  ..  ..         ..   ..      ..  ..    ..  ...   ... ...   ...  ..   ..   ..   ... ...      ......              .. ....  ..  ....   ..              .. ... ...                                                             ",
"  .    .  . ... . .  .                           .   ..         ..  .                 ... .  ..        ..  .. ...      .. ... . .    .. ...  . .. .                        ... . .....                .  . . ..   . .. .  . .              . ... .                                         ..  ..  ..  ..  ..       .. .   ..      ..  . .  . .  .  .  .   .     .   . .   .. . . .  .   .      ... ..               . . . .. . . . . . .               ..   .   .   .                                                          ",
".....   ..........  ...                             ..           ..                    ...  ..        ..  ...  .    ...  .....      ...  ...  ....                        .............                ....    ..  .    .....              ......                                         ..  ..  ..  ..  ..         ...  ..      ..    ....  ..  ....    ...    ..    ....  ..  ....    ..      .   ..                ..    .  ..     ..           ... ..  ... ... ..                                                          ",
"..... .  . ........ .. . .                           .           .                    . ...  ..        .   .  .         .......  .   .  . ...  ...                         ...........                 . .  . . ... .   . .          . . ....  .                                           ..   .  .  .    ..       .....  ..      . .  . .. . ..  . ..   .     .  .. . . . . . . .  . ..       ... ..                  . . .. . .. ...              .   ..  .   .   ..                                                         ",
".........    ..............                                                             ..  ..            ...           ..   .   .  ...   ..     ..                       .............                   .....  .  ....             .......                                          ... ..     .. ..    ..  ...    ...  .....     ....    ...  ..    ...        .....    ..  .    ....        ..   ..                  ...  ...  ...          ... ... ..  ... ... ..   ..                                                     ",
"........     ............. . . .                                             .           ..  ..    .                   . .  ...  .   .     ..    .                         .. ..... ..                     . .   .   .. .        . ...... . .                                          .   . . ..  . .. . . .  .    ... .  ...        .. .   . . . . .. ..          .  . ..  ....  .  . .        ... . .                . ..       . .           .   .   ..  .  .    .. ..                                                      ",
".........      ..................                                            ..         ..  ..    ..                   ..    .      ...   ..                               ..  ...   ..                                         ........                                              ...   ....  ...  ...     ..    ..  ..  ..         ....  ..  ....                ....  ..   ....           .....  ..                                       ... ...    .  ..    ..   ..                                                     ",
"... . .      . . ............... . . .                                   .  .        .   .  ...     .   .             .     . .            .                               .  . . .                            . . .  . . . . . ... . . .                                                .  . . .  . .. . . . .      .   . . .            ..    .   ...                ...   .   . .              .. ..  . . . . . . . . .  .                    .   . . .. .  .. . ..  ..                                                      ",
"..          ...    ...................                                  ...         ..    ....        .....                                                                                                    ...................                                                      ....    ..  ..    .....           ..  ... ...               ..                ..                           ...  .......................                  ..   ....   ..  ...     ..                                                     ",
". .              . .................... . .                      . .         . . .    . . .....       ... . . .                                                                    .                        . . . . . . . . . . . .                                                      . .. .  ..  . . . . .         .   ..  .   ..   .            . . .            . .                         .....   ... ... ... ... ... . . .          . ..  .   . ... . .. .. .   . .                                                    ",
"                ...  ........................                   ....         ......    ..........   .....  ...                                                              ...    ..                     .....                                                                              ....  .  ....            ..  ..   .. ..  ..              .....         ..                             ...     ..  ..  ..  ..  ..  ......       ....  .....    .. ..    ...    .  ...                                               ",
"   .   . .      .  .......................... .              .   ....      .. .... .  ... ... ..     ..  .. .. .                                                             . . ..  .                     . .                                                                           .  . .   . .   . .        .   ..  .. ..   ..  ..               .  . . . .  ...                           . ...    .   .   .  .   .   .... ... .    ... .   . . . .   . .      .  ...  .   .                                            ",
"  ..  .....   ..  ...............................           .....  ....   ..   ...... ..   ..  ..   ..  ..     ..                                                         ... ....  ...                 ...                                                                         ... ...                       ..  ..  ..   .. ..  ..  ...             ...............                            .                         .  ....... ....         ...  ..  ..    ...  .   .. ..                                            ",
"   ..  ..      ..   . .........................             ... . . ..   . .  ... ..   .. ..  .  . . ... ..   ..                                                                .                                                                                                    .   .   .   .                 ..  ..  .. .  . .   ..  .              ... ... .....  .                          ...  .                    .    .. .. . .. .       . ..   .   ..    .  ... ..   ..                                           ",
"  ..  ..      ..       .......................            .....  ..  ..  ..   ..   .. ..   .    .........  ..  ..                                                                                                                                                               ... ... ... ..  ...               ..  ..     .  ...   ..  ...           ....  ..  ....  ...                          .  ..                        ...  .....                       .. ... ..   .. ..   ..                                       ",
"   ..   ..     ..      . ................ . . ..           ..  ..  ..   .    . .. .  . .  ...   ... ....  ..   .                                                          ..   . .   . .                                                                                         .   .   .   ..  .                 ..  . . .. .  .  . .    .            ... .   .   ... .  .                       ...   ..                           ... ...                     ..   .   . . .   .. ..                                        ",
"  ..     .    ..           .............       ..         ..  ..  ..         ..  .  ...    .  .....  ....  ..                                                           ....  ..... .....                                                                                        .. ... ... ..   ..               ..    ....  ..  ....    ...         ....          ....   ..                     ..... ..                            ..  ..                       .  ...   ..    ..   ..                                       ",
"  . .  ....   . .  .     . . ...... . ....   ..            .   ..  .   . .  ..   .. .. .  .    ..  .. ..   .                                                             .. .  . . . ...   .                                                                                 .  ..     .  . . . ..   .             . .   . . . ..  . .. .  .          ... .          .... ..                      ...  . ..                            . . ..                     ...   . .  ..  . .  ..                                        ",
"..    ....  ..     ..    ..    ...    ....  ..                ..      .....  ..    ......     ..  ..   ..                                                           ... ...  ..   ..   .  ..                                                                                 ..  ..   ...  .     ..  ..             .....   ...  ..    ....         ....               .   ..                   ....  ....                              ...  ..                    .     ....  ....    ..                                       ",
".. .   .. .  ..   ..    .    . . .. .  . ..  .                 .     .  ..   .   .. ...    .   ..  ..  .           .             .     .                             .  .  ..  .   .. . .  ..                            .                                                  ..   . . .  . .. . . .  ..                .  .   . . . . .. .           ... .             ...  .                    ... . . ..                                 . . .                  . . .. . . . .  . ..                                          ",
"  ..  ..    ..     ..        ..    ....    ..                        ..  ..     ..   .    ... ..  ..      ...     ..            ..     ..                         ... ..  ..  .....  ..  ..  ..                         ..    ...           ...     ...                      ..    ....  .  .....    ..                 ....  ..  ....            ....                 .  ...                 ....  ..                                    ..  ..                     ....    ..    ....                                         ",
"    .  ..    ..  .     .    ..   .. .  .   .                       ..  ..  .     .. ...        ..  .       . .     .   .         ..   ..   .                       .  . .  ..   .   ..  . . . .                      .   ..    .              .      .   .                    . . . .  ...  . .   . .                    . .    .   . .           ... .               ...  .               .  ... .  .                                     .. ...                   .   . . . . .. .                                            ",
"      ..    ...  ..   ..     .  ..    ...                         ..  ..  ..    ..   .        ..      ...   ..  ...   ..    ...    ..  .  ..                     .. ..    ..         ..    ..  ..                   ..  ..   ..   ...   ...    .. ...    ..                    ...    ..  ..    ....                                            ....                   .   ..             .......  ..                                        ...                         ....  ....                                             ",
"       ..    . ...     ..  .. .  ..    .                           ..  ..  ..    .  . .    .   .       .     .. .. . . .     . .  ....... ...                  ... . .    . . .    . . .   . ....                .   .. ......    .       . .... . .   ..                     . ...  . .  . . . .....           . .               .             ... .                .... ..         . .  ... ..  .                                         ..... . . . . . .           . .  .. .          .                                    ",
"      ..   ..  ....   ..  ..    ..   ..                           ..  ..  ..               ..           ... ..........         ..  .........  ...              ......   ..  ..    ...  ..    ......             ..  ........... ..         .......... ..                           ...  ...  .......          .......           .....         ....                  ....   ..       .........  ..                                            ..................             ..            ..  ...                               ",
"       .. ..  ....     .   ..    .  .                              .   ..  .             ..  .       .   .. ... . . ... .   . .  ... . . ....  .             .. ...    . ... .. . .. ... .  . ...  .              . ... . . .. . .. .    ....  . .... ...  .                       .. .     . . . ...         ... .    . . . . . .... . .    . ...                   .. . .    . .  ..... ..  .                                              . .... . . . ..... . .         . .        .   ..  .   .                            ",
"      ..   ..  ....       ..   ..                                     ..                 .  ...     ..  ......      ....  ....  .....      ....             ..   .    .....................    .  ...              ...       ....  .... ....       .....   ..                                     ..        ....      ..................... ....                    ..  ..    ...........  ..                                                 ....         .......        ..          ... ..   .. ..                            ",
"       .. ..  .. .   .     ..  . .     . . . .                         .                ..   .        .  .... .      ....  . .. .. .       . ..             ..... .   . ... .. . . . . ..  .   . . ..            .... .      ... .. .    ....      . ....                                          ..        . .   . . .. . . . . . . . ... ....                    ...  .. . ....... ..   .                                                   . .        . . ..... . . .  .       .   .   .. ..   ..                           ",
"      ..   ..  ..   ..    ..     ..   .........                                          .. ...          ...        ....       ...          .....         ......    ..  ..            ..  ...   .......         ....           ...      ....        ....                                             ..           .......                .....                    ....     .........   ..                                                                      ............       ..  ... ..   .. ..   ..                       ",
"      . . .   ..     ..    .. .       ........ . .                                      ..   .         .. ...        ....     ... .          ..            .... .   ... ....  . . . . ... .. .    ... .           ...          ....      ....        .... .                                          . . . .     .  . .                 .  . .                     .. . . ... ... ...  .                                                                      . . . .....          ..  .   .. .    .. ..                        ",
"     ..  ..    .    ..       .      ...............                                      .  ...        .  ..        ....       .            ..          ...  .     ...........................    ..   ..         ..             .      ....        ..   .                                             .....     ..                                               ..  .......  .  ..                                                                                 ...          ..   ..   ..    ..   ..                       ",
"     . ..    ....    .   .  . . .  . ...... . .... .                                    ...  .        ...  ..       ... .     ...           . .      .  ... . .  .. ... . . . . . .  . . . ....    .. ... .        . .          ...      ....        .. ...                                           . . . . . .  .                                            . ... .....  .. .  .                                                                                . ....         ..  . .   .. . ..  ..                        ",
"      ..    ....         ..   ..  ........     ......                                    .   ..        .  ..      ....         .          ..        ........     .  ..                    ..   ..    ........       ..           .         ....     ...  .                                                  ....  ...                                         ............  ..                                                                                         ....       ..     ....  ...     ..                       ",
"       ..    .. .  .    .. . . ..  . . ....   . . .                                     ... ..        . .  . .     . .         . .         .     .  ... ....   .... .... . . . . . . . .  ... ...   . ... ... .      .         ..          . .      .  .. .                                             .    ....  .                                        . ..... ... . .  .                                                                                        . .. . . .   .. . . . . .. . . . .                        ",
"      ..    ...  ....    ..........      ....                                            .   ..          .. ..                  ..              .......  .    .....................................    ..  ......             ..                  ..  ..                                              ..... ..   .                                        ........  ..                                                                                                   .......     ....    .    .....                         ",
"      . .   ..  ....    ... ..... .    . . .                                            ... .. .        .. . . .                 ..          .  ... .. .. .   ... ... . . . . . . . . . .. .... ...   .  .... ... .            ..                . . . ..                                               .  . .  ...                                       ..... ...  .                                                                                                  ..... . .    . . . ... .  . .                           ",
"    ..    .....  ....    ..  ....  .. ...                                                .   ....        ...  ..                ..          .......  ...    ....   .                         ..  ....   ....   ......         ..                ..  ....                                                  ...   ..                                      ......   .                                                                                                       ...            ....  ....                              ",
"     .    ...  ....  . ..  ....  ..  .                                                  ... . ..         ....  ..                .      .  . .. .. .. . .   ......... .  . . . . . . . .  . .. ......    . ...... ... . .    . .                 .. ....                                         . . . . .     . .                               . . .  ... ...  .                                                                                                       ..... .          .     ..                              ",
"        ....  ....  ....  ....  ..  ...                                                  ....  ..          ....  ..               ... .........  ...       ............................................      ...   ........  ..               ...  ...                                           ..........   ..                                ..........  ..                                                                                                             .....                                                ",
"        ... . .....  ....   . .  ..                                      .              . ..  ..           .... . . . . . . .       .  .... ... . ..   . .... ... . . . . . . . . . . . . . . . ... .. .  .   . ..... ... . .      . . . . .  . . ... .                                    . . .. . . . .      ..              . . . . . . . .  ....... ...  .                                                                                                             . .... . .                                           ",
"      .....  .....  ....        ..                                ...   ..                 ..  ..            ....  ............      ..  ..  ....     ......   .                                ..   .....       ...   ..  ..     ............   ...                                      ......              ..              .........................  .                                                                                                                     ........                                         ",
"       .   ........  .. .       . . . .                            .    ...               ... ..             . .. . ... ... ..       . . .   . .    . ... ....... . . . . . . . . . . . . . . . ....... ... .   . . .  . . .       .. ... ..... ....                                   .   . . .     .       . ..          .  . ... ....... ... ... .  .. .                                                                                                                    . . . . . . .                                    ",
"          ........  ...  ..   ..   ...                        ...     .......              ......             ....  ..  ..   ..        ..         ......   ...........................................  .......          ..       ..  ..  ..   ...                                     ....         ..      ....          ....   ..  ......  ..  .    ..                                                                                                                               ......                                   ",
"           ......    .  . .    .... .. .                      ...     ... ...             ... ..               ..... .. ...... .       .     .  . ... ....... . . . . . . . . . . . . . . . . .  . .... ... ...  . .   . .        ... ... ... ....                                   .. .            ..      ...           .... .  .. . .  ..  .. . .  .                                                                                                                               . . . .                                  ",
"  ...     ......    ...    .. ....     ..                   ....... ....   ....            ..  ..                ................        .. .........  .....                                         ......  ........  ..       ................                                    ..              ..  ... ..             ..  .  ..      ..  ...  ....                                                                                                                                      ..                                 ",
"    .      ......    .   ..  .... .  ..                .    ... .. . ........             .. ...                 ...... . .  . . .      .  . . . ... ........ . . . . . . .  . . . . . . . . . . . ....... ...... .  ..         . . . . . ......                                     .               ..  .   ..  .       ...  .... .   .  . .     . .                                                                                                                                        .                                  ",
"     ..      ...    ... ..  ....     .                ..  ....   ....  .....               ......                  ...           ..       ..    ................................................................    ..        ..          ....                                                      ..   .. ...  ..      ....  ...    ....                                                                                                                                                                                      ",
"    ..     .... .        ..   . .  .. .                .   ........    . . .  .           ... ..                   ..... . . . ...         .. .  . ...... . . . . . . . . . . . . . . . . . . . . .  . ...... . . .  .         ... . . . . ...                                                       .. .. . .  .  .    ...  .... .    . .                                                                                                                                                                                      ",
"     ..   ....          ..        ..                ...      .....             ..          ..  ..                    ..............          ....    ...                                                 ...    .....         ..............                                                        ..   ......    ..    .  ....    ...                                                                                                                                                                                         ",
"   . . .    . . .        ..    .   .                 .   .   . .. .  . .  .    .          ..  ..                     .  . ... .. . .         . . . . . .   . .   .   .   .   .         .   .   .   . .   . .. .  . .           .... ... . ..                                                         ... ......   .    ....  .. .    .                                                                                                                                                                                          ",
"  ..  ..      .....     ..     ....                      ..   ..    ......                 ..  ..                          ..  ..  ..            ....     ....  ..  ..  ..  ..    ...  ..  ..  ..  ....      ....           ...  .   .                                                              .....  ......     ....  ..     ..                                                                                                                                                                                           ",
"   .   ..    . . .     . ..   . .                      ... .   .    ... ...               ..  ..                           .   .                 . .        . .   .   .   .   .    .  .    .   .   .         . .                . . . .                                                              . .. . ...  .     ....  ..  ...                                                                                                                                                                                            ",
"    ...  .. ..  ...   ...  ..                          .....      ....  .....              ..  ..                                                                                                                                                                                                     .....  .  ..    ....  ..   ....                                                                                                                                                                                           ",
"     . . .  . .  . .   .. .                          .... ...    . . .. ... . . .      .    . . . .                                                                                                                                                                                                     .  ....  .     .. . ... .. .                                                                                                                                                                                            ",
"      ..  ..  ..  ..  .....                          ...   .... ..  .......  ...      ...    ..  .                                                                                                                                                                                                        ....        ...  ...   ..                                                                                                                                                                                             ",
"       .   ..  .   . .  .                        .  . ....... . ... . . .   .... .    .. .  .  ....                              .   . .   .   . .    .    .       .    .    .         . .   .   .   .   . .   . .       . .   .                                                                           . . .       .  ... .  .                                                                                                                                                                                              ",
"     ..   .....     ...                          ..    ......  .....         .  ..  .......   .......                            .. ....  ..  ....  ..... ..  ... ..  ..... ..    ... ....  ..  ..  ... .....  ...  ... ....  ..                                                                              ..       .. ..    ...                                                                                                                                                                                             ",
"   ..      ....      . .           . .       .   .     ... . .... ....      ... ...  .. ..    ... ... .    .                    .. . . .. ...  .. .  ...   .. .  . ..  ..  . . .   .  . ...  ..  .. ..   ..  .. ...  ..  . .. ...                                                                              ..    ...   ..    .                                                                                                                                                                                              ",
"  ..         ....    ....         ....       ..          ..  ...   ....      .....   ..  .. .....  ...     ..                    ...     ...   ..  ..  .. ....  ....  ..  ..  ..... ..   .  .....  ...  ..  ...  .   ....    ...                                                                              ..     .... ..    ...                                                                                                                                                                                             ",
"    ..      .....   ...           . ...    ... .            . .......    .  . . . . .. ...   . .. ....   ... .                   .... . ... .  .  .    .   .... ... .  .   .    .    .  .     ... ... .  .      . .  . .. . ... .                                                                              .   ....    ..     .                                                                                                                                                                                             ",
"     ..      ...... ..          ..  ..    ......  ...          .....     ..          .....    ......    .......                    .......                   .....                             .....                  ........                                                                                    ....    .....    ..                                                                                                                                                                                           ",
"    ..   .   . ....  .. .        .. ...   ... ...  .   .. .    .... .  ... .       . .... .    ... .    ... .. .                   . . .. .                  . . .                            . . . .                  . . . .                                                                                    ... .   . ...   ...                                                                                                                                                                                           ",
"     ..  ..   .......  .        ......   ...   ....   ....       .    ......       ..  .      ..      ....   ....                                                                                                                                                                                               ....    ...  ....  ....                                                                                                                                                                                         ",
"        .     . . ... .. .       .... .  ........      ...   .   .    ... ...    ... .. .     ...      . ......                      . . .                   . . .                             . . .                    . . .                                                                                    . ..    .  . .... ....                                                                                                                                                                                         ",
"            ..     ...   ..        .       .....      ..     ..      ...  ..... ......       ......     ......                      ......                  .......                           ......                  ......                                                                                      .......      ....  ....                                                                                                                                                                                       ",
"       .     ..   . .....  . .     .   .   . .. .. . . .   ... .    . ... ...  . .. ...    .... ...      .... .                      .. ...                  .. ..                             .. ...                  .. ...                                                                                      . ....    .. .. . . .. .                                                                                                                                                                                     ",
"      ..       ..    ...  .....        ..   ...  .....    .......      .....  ....  .....  ...   ....      .                         ..  .                   ..  ..                           ..  ..                  ..  ..                                                                                           .... ..   ...  ....                                                                                                                                                                                      ",
" . .   ..    . .    . ...  .         ... .      ... ...   ... .. .    . ... .   ... ...   . .......  .     .                        .. ....                 .. ...                             ... ..                  ... ..                                                                                          . ..  .. . ... . ...                                                                                                                                                                                     ",
".....    .. ...        ....         .......      ..  .  ....   ....     ..      ......       .....  ..        ...                    .....                   ......                           ......                  ......                                                                                            .....  .  ....  .....                                                                                                                                                                                   ",
".....    .         .  ...  .       . .. .. .    .. ....   .......  .     . .     .... .      .  . . ...      . ..                   ... ...                 ... ..                             .. ...                  .. ...                                                                                             ..  .. . ....  ...                                                                                                                                                                                    ",
".......            ..  .  ...     .....  ....    .....     .....  ..      ..       .               ......   ....                     ..  .                   ..  ..                           ..  ..                  ..  ..                                                                                               ..   ...  ....  ..                                                                                                                                                                                   ",
"....... . . . .   .   .             .. ....   . . . . .   . ... .  ..      .       .     .       .... ...     ..                    ..  ...                 ..  ..                             ..  ..                  ..  ..                                                                                             .. .   . . ... . .                                                                                                                                                                                    ",
"..............                      ......     ..            .    ..  ...                ..     .....  ....                          ..  .                   ..  ..                           ..  ..                  ..  ..                                                                                               ...   ....  ....                                                                                                                                                                                     ",
"........... . .      .   .       .   .... .    .     .      . .    ..  .               ..         .. ....  .                        ..  ..                  ..  ..                             ..  ..                  ..  ..                                                                                             . ...  ...   ...                                                                                                                                                                                      ",
"..........      ... ..  ...     ..     .             ....         ..   ..             ..           .....  ...                        ..  ..                  ..  ..                           ..  ..                  ..  ..                                                                                                ..     ..    ....                                                                                                                                                                                   ",
"....... . .     ..   ..  .       .     .   .        . ... .        . ...             . .          . . . . .. .                      ..  ..                  ..  ..                             ..  ..                  ..  ..                                                                                                .. .  .. .  ...                                                                                                                                                                                    ",
"......    ...  .... ..  ...                ..          ......       .....            ..                  ......                      ..  ..                  ..  ..                           ..  ..                  ..  ..                                                                                                ....  ....  .....                                                                                                                                                                                   ",
"..... .    . ....    ..           .      ... .        . . .. .       ..             ..       . .       .... .. .                    ..  ..                  ..  ..                             ..  ..                  ..  ..                                                                                                ....  ....  ...                                                                                                                                                                                    ",
"....  ...   ....    ..          .....   .......            ...      ..               ..     .....     ....   ....                    ..  ..                  ..  ..                           ..  ..                  ..  ..                                                                                                ....  ....  .....                                                                                                                                                                                   ",
"... .  .     ....  . .           ..    . .. .. .   . . .  . ...      ..            ..  . . . ..    .   ........                     ..  ..                  ..  ..                             ..  ..                  ..  ..                                                                                                ....  ....  ...                                                                                                                                                                                    ",
"..    ...   ....   ..           ...   .....  ...  ......    .....   ..            ..  .........   ..     .....                       ..  ..                  ..  ..                           ..  ..                  ..  ..                                                                                                ....  ....  .....                                                                                                                                                                                   ",
". .          ...  ..              . .   ... ... .   . . . .  ... .   ..            .. ... . .    . ..    .... .                      .                          ..                             ..  .                   .   .                                                                                                 ....  .. . ....                                                                                                                                                                                    ",
"            ..     ..              .     .....          .....  ...  ..            ......        .......    .                                                     ..                           ..                                                                                                                            ....   ..  ......                                                                                                                                                                                   ",
"       .     ..   .               . .   . ....           . . . ....  ...          ... . .       ... ... .  .                 . . . .  . .. . . . . . . . . .. .  .   . . . . . . . . . . . .   ..   . . . . . . .  .  . . . .  .  .                                                                                          .... ..  ..... . .                                                                                                                                                                                 ",
"  ...  ..      ..                         ..                 ..  .  .....       ....          ....  ....                    ..................................  ... ........................  ..  ...................................                                                                                       ....   ..  ...   .                                                                                                                                                                                  ",
"   .  .    .   .                           .                 .  ...  ...        ... .          .... ... .                    .. ... .. . . . . . . . . . . . .   .    . . . . . . . . . . . .  ..   . .  . . . . . . . . . . .... ..                                                                                         .... ..  ..... ...                                                                                                                                                                                 ",
"...        ..                                                    ....  ..     ....               .....                      ..  ..                              ...                           ..                               ..  ..                                                                                       ..   ....  ...   .                                                                                                                                                                                  ",
"..     .  ..                                                     . .. ..      ... .              .... .                      .. ...   . . . . . . . . . . . .    .   . . . . . . . . . . . .   ..  . . . . .  . . . . . . .   .. ..                                                                                          .. ....  ..... ...                                                                                                                                                                                 ",
"...    ..  .  ...                                                 .......   ....                   .     ..                    ...  ..........................  ... ........................  ..   ..........................  ...                                                                                          ..   ....  ...   .                                                                                                                                                                                  ",
"... .  . .. . . .    . . .   .                                      ....   . ...                   .   ...                     . . . .. ... . ...  . .. . ... .  .   .... . ... . ... . ... .  ..  .... . ... . ... . ... ... . . .                                                                                          .. ... . ....  ..                                                                                                                                                                                  ",
"....    ..  ..   .. .......  ..         ...                          ...  ....                         ....                       .....  .     .    ..     .     ..    .    ..    ..     .    ..     .    ..    ..    ..   ....                                                                                                ...   ...     ..                                                                                                                                                                                 ",
" ....    ..  ..  . . . ... ..  . .       . . .   . .                .....  ...          .          .  ....                         ...  ...   ...    ..   ...   ..    ...    ..    ..   ...    ..   ...    ..    ..    .. ....                                                                                                ..... .....   ..                                                                                                                           . . . .                                                ",
"   .    ..  ..    ..     ...  ....    ..  ....  ....                 ...  ..          .....       ...  ....                       ..... ..     .    ..     .     ..    .    ..    ..     .    ..     .    ..    ..    ...  ....                                                                                                ....  ...     ..                                                                                                                         .........                                               ",
". .      ..  ..     . . . ...  . .     .. ... .  . .. .             ..... ...    . .   . .          . . ..                         ...   . .  . .    .. . ...   ..   ..      .     ..   . .    ..   ...   . .   . .    .  ....                                                                                               ....  ......   .. .                                                                                                                     .  ... . .  . .                                            ",
"...     ..     ..   ....  .....          ....  ..    ....            .......    .......              ..  ..                       .....   ...    ..   ..   .     .  ..    ...        ..   ..  ...    .  ..    ..     ..    ....                                                                                             ....  ......     ....                                                                                                                    .....      .....                                           ",
" .   .   ..  . . .   . ..  . .   .     . .   ..  .   . . . .   .    . ..... .     ...               ..  .. .                        .. .  .. . .... . .......   ...  ... . .. . . . ... . ...  .   .... ...  . ... ... . ... .                                                                                              ... .  ..... .  ....                                                                                                                   ........ .  . ... . .                                        ",
"    ..  ..  ..  ..       ..      ..    ..   ..  ...      ....  ..      ...        ..    ...          ..  ....                        ..........................  .  ........................   .. ...........................                                                                                             ....    ....  ...  ....                                                                                                                 ......................                                        ",
"      .  ..  ..  ..      .      ..    .    . . .     .  . .  ..       .....      . ..    ..         ..  ....                        ... ... . ... . ...  . ...  ...   ... . ... . ... . ... . ..   .... . ... .. .. . ... ..                                                                                            . ... .   .....  .  .... .                                                                                                                ............... . . . . . .                                   ",
"        ..  ..  .....       ...  ..       ..  ...   ..      ..         ...      ..   .. ..           ..  ....                        .  ..    ..     .    .....  .    ..    ..     .    ..     .  ....    ..    ..    ..   .                                                                                          ......     .....   ..  ......                                                                                                             ................        .......                                 ",
"     .   .   .  . ...        ..   .         .  . . . ..      ...      .....       . . . . .         ..  . ..                        ... . . .  .. .. .. .  ...  ...    .. .  .. ... . .  ..   ...  .. . .  .. .  ..  . .. ...                                                                                         ... . .   ....... .. .. ....                                                                                                               ...... . . . . .        . . . . .                              ",
"    ..    ... ..   ....     ..     ..       ..  .........   .....      ...        ...  .    ...      ..    ..                        ...  .....  ....  ....  ..  .  ...  ....  ...   ....  ..  .  ..  .....  ....  ....  ...                                                                                        ....     ..  .....   ...   ....                                                                                                             ......                        ....                              ",
"     ..     . .. .. ... .    .  . . .      . .   ..... .     .        .....           . .           ..   . . .             . .      . ..   . .   .     . .   .  .    .   . .   . .  . .   .   . .  .   . .   . .   . .   . .       . .                                                                            .  . .   ...  . ... .  ..... . ..                                                                                                              .... .                         . .                             ",
"    ..       .  ...  ......      ..  ..   ..    ....      ...          ...                           ..  ..  ..            ...                                                                                                    ....                                                                          .....     .....    .       ...  .....                                                                                                           ....                                                            ",
"     .    .  .   . .. .... . .   . ....    .     . .                  .....          . .         .   .   . . .            . ... . . .  . .  . . . .. . . . . . . .       . . . . . . . . . . . .     . . . . . . . .  . . . . . . ... .                                                                       .  . . .   .  . .   . .. . .. . .  . . . . . .                                                                                                      ....                                                          ",
"  ...   ..    ..  ..   ........    ......                              ...          ....        ...       ..                 ......................................     ........................... ................................                                                                        .....    ..  ..    ..    .....     ..   .........                                                                                                     ....                                                          ",
"   .   . ..    .   . .... ...  .  .  . .           .   . .   .. .     .....       .  . ..  . . .  .    .   ..  .   .        . . . . . . . . . . . . . . . . . . .         . . . . . . . . . . . .     . . . . . . . .. . . . . . . .                                                         .   . .   .     . . . ..  ..  .  . . .. .... . .. .  .  .... .  . .   .                                                                                               ....                                                         ",
"  ...  ..  ..       ....  ..  ...     ...         ..  ....  ....       ...      .....    ........  .. .....  ....  ..                                                                                                                                                                        ..  ...  ..  ...    ...  ..  ...    ....  ..  ...  .....  .    .....  ..                                                                                                ....                                                       ",
"   .  ..  ..         .... ... .. . .   .   .       .. ..... . . .     ....       . . . .. ... .  ... .  . . .... ..  . .         .   .   .   .   .   .   .   .   .   .       . . . . . . . . . . . . .     .   .   .   .   .                   . .   .                     . .   .   . .     . .. . .   .  . . .. . . ... .. . ..... ... .. . .  .  . . .  .  .  ..  .                                                                                              .....                                                       ",
"   ..  ..  ..     ...  .............       ..   ...  .......           ....         ....  ..    .......    .......  .....       ..  ..  ..  ..  ..  ..  ..  ..  ..  ..      ...........................   ..  ..  ..  ..  ..  ...       ...   ....  ..                     ....  ..  ....      .        ..  ....     .....................     ..    ..  ....   ..   ..                                                                                              ......                                                     ",
" ..   .  ..  .      . . . ... .......     .       . . ... .. . .      ....            . .  ..  . . ..  . .. . ... .   .           .  .   .   .    .   .   .   .   .   .      .........................      .   .   .   .   .  .         . .   . ..  .. .    . .   .   . .. .  ..   . .  . . .. . .   . ... ..... .......................... .... .... .. .  . . .. ..                                                                                               . .... .                                                   ",
"..      ..  ...      .     ..  ........            ..  .    ....       ....      ..      ..  ...  ..  ....    ..                                                            ...........................                                    ....    ..  .... ....  ..  ....    ..        ......   .......................................................    ......   ..                                                                                               ......                                                    ",
". .     . .  .   .  .. . ..   . ... ...      .     .   ..    . .      ....       . .   .. . ... . . . .... . . ..  .   . .       .       .    .  .   .   .   .   .   .        . . . . . . . . . . . .          .   .   .   .           .   . . . ... . . ..  . .    .  . . .  . . .  .  ................................................................ . . .. ....  .                                                                                                ......      .      . . . . . .                           ",
"      ..   ..    ..   ....       ..  ....    ..          ....          ....       ..  ...  .... ..  ....  .....  ....  ....     ..  ... ..  ..   .  ..   .  ..   .  ..                                        ..  ..  ..  ..  ...      ..      ........ .....        ..   ....   .....................................................................  ......  .....  ..                                                                                             ......      ..    ...............   ... ...               ",
"   .   .. ..     .    . . .. . ..   . .  .  .            ..           ....          .    .. .    .   . .  . .    .  . . .        ..  .   ..  .. ...  .. ..   .. ...  ..          . . . . . . . . . . . . .     ..  ..  ..  ..  .             .. .  .  .  . .  . . .... .  . ......... ..................................................... . ..... ...  . ....  . .. ..                                                                                               ......       . . .............. .  .  . .    .           ",
"   ..    ....     ....     .....        ...                            ....             ..              ..           .          ..   .. ..  ..   .  ..   .. ..   .  ..  ...      .........................    ..  ..  ..  ..   ..           ..         ..   ..............  .........  ...................................................     ...   ....    .    ..   ..                                                                                             .........      .....................  ..    .....         ",
"  ..   ....  .    .. .. .  . .... . .  .   . .   .   .   . . . .      .... .       .   . .   . .   . . . . .   .  .. ..    .     ...... ... ....... ... ... ....... ... ..      ...........................    .. ... ... ... ..      . .   . . . .  . .  .  ...... ...... . .. . .. ........ ......... ....... ..... ..... ....... ..... .. .... .....  .  ...   . . .                                                                                               ........   . ......................... ..    . .    .     ",
"   .  ....  ... ..    ..       .......... ....  ...  .. .........      ......     ..  ..    ....  ......  ..  ...  ..  .. ..    ...........................................      .........................    ...................      .  ..   ...  ..  .....  ...   ...  .....    ..........  ........  ......  ...   ...   .....   ....  ......  ...  ...  .  ..  ..                                                                                              ........... ............................   ..       .....   ",
". . .  . .       .     .   .   .... . ..    . .    ..    .. . .      ... ... .    ...  .. . ... . ..... . ...  . . .   .   .      .  . . . . .  . . . . . . . .  . .  .  .      . . . . . . . . . . . . . .     .  . .  . . . .       . .  .  . . .  ..  . .. . . ... . .  ... . .. ... . .  .... ...  .... .  .... ..... ... . . .. . . .. ...  .. ...     .    ..  ..                                                                                              .........   ............................  ..     .  . .    ",
"...  ..                    ..    .     ..         ..    ...         .....  ...  .......  ......  .....  ......  ..                                                                                                                                  ..... .....    .     ..  .....  ..      ....  ..  ....    .....  ....  .       ..   ..   .  ..   .          ..  ..                                                                                              ........... ............................  ..... .....     ..",
" .  .    . .     . .   .  .  .   .    .      .   . ...   . .          .   ... .   . .    ... . .. . . .  . . .   .          .    .     .       . .   . .   .   . .   . .   .         .   . .     .             . .   . .   .   .. .  . .     .   .    .    . .   .. .. ..  .. . . . . .    . . ..  ..  . ..  .  ..  .  . .. .      .      .  .   .  . .          .   .                                                                                              ..........   .......................... .  . .  .  .    .  .",
"        .....   ....  ..    ...             ..  .........  ..              .               .  ..       ..             ... ..... ...    ..     ....  ....  ..  ....  .....  ..   ...  ..  ...    ..         .. ..... ....  ..  ....   ...    ..  ..              ...  ...  ..      ..   .. ..     ..  ..    ....  ..     ..                                                                                                                                         ...........  ...........................  ..   ..      ..... ",
".    . . ..  . . . ..  ..  .  . .  .   .   . .    . ...    .   .   .   .  . . .    .   .. . .   .  .  . . .       .   .  . . .   . . ..  .    . . .  ....  .. ... .  . . ..  . . . ..  .. ... .  ..    . ..  .  .  . .. .  ..  ...... . . . ...  . .   . .       . .. . . ... . . ....... ... . . . . . . ..  .. .       .     .                 .      .    . . .                                                                                                ............. . ........................  ... . ....  .  . .  ",
"... ......  ....     ..  ....  .  ..  ..  ..         ..        ..  ..  ..    .... ..  ....         ..    ....   ..  ..  ...   ...  ...  ..  ..     ..  ....  ....  ..    .  ....  ..  ..   ......  .. ....   ..   ....  ...  ..  ...     ........ ..  ....... ...  .    .........................  ..  ...     .  ... ...     ..       ..        ..    .... .......                                                                                                .............   ........................  ..............     ",
".. . ....... .... . ... . .  ..    ..  .   . . .   ... ..    ..  ..  ... . ......  ..  . ..  . . . . .   .... . ... ... .. .  ... . . .  .. . .. ..  . . . . .   ..  . ....  .... ... ....... .  ... . . ....  . . ..... .. . . . . . . . . ...  . ... . . .   . .. . . ........................ ... .. .. .. . .               .     .  .     ..  .  ... .  . .  .                                                                                                ................ ..................... . . .  . . . . .  . . ",
"........................    ..       ..     ....  ......... ..  ..  ...............  ..    ........  ..    ........................    ..  .   ...  ...    ..   ..  .........  .............    ......     .  ...............  .     ....    .  ......      ... ..   .................................    ....                  ...     ...   ..  ..  ..   ..      ..                                                                                                .............   ...................   ..             ......",
" ...... ...... ........... . .. . . .  . .  ..... ........ . .. ... ............... ... . .. ..... ... . ......................... . .. . ..... ...  . .   .  . ... ... ..... ............... . ... . . . . . ... ........... .... .. .  . .... . . . . . .  .   .. ... ...............................   . ...          .     . . .     .   . .   ..  .  .. .   ..                                                                                                 ....................... . . . . . . .... .   . . . .   . . .",
"   ...  ....     ............  .....  ....................................................     ........................................  .....   ....  ..   ...........  .........................    .....  ...  ..................    ........       .....  ...  ....  .................................  ..          ...    .  ..     .. ..    ..       .... ..                                                                                                   .....................               .....  ........        ",
". . . .  .... . ..... . ...  .. .... . .. ... ....... . ............. . ................... . .......................................  .. . ..... . . .  .  ..... .... ............................ .  . . .. ... .................... . .... .... . .... . .  . .. .  ................................... . . .     .   .    ...  ..  ...   ..    ..    ....    ..                                                                                                  . .................... .  . . . .  . . ... ... . . .       ",
"..      .............    .  ..  ..  .....  ..  .....     ...........     ...........................................................  ..    ....     .  .........  ....................................   ..   ..........................  .  ..........    ..  ..    ..................................  ..  ..    ..  ...    .  ..   .... ..    ..    ....    ..                                                                                                    .................................     ......              ",
" .   .   .. . ...... . .... ...  .  . .  ..   . ... .. .... . .......  .. ... ........................................................ ... . . . . .. . ... ...  .... ..... . ................... ...  .   ... .................... ...  . . . .. ........ . ..  . .   .. ... ..... .....................  .   .   . ..  .    ...  .. ....   . .  . .   ... .  . .                                                                                                     . . .................... . . .        . . .              ",
"    ..   ..   ................... ..    ..       ..  .....     .....   .  ..   .............................................................    .....  ....  .  .....  ...     .................  ..  .....  ..  ..................  .   .. ....  ...........  .  ..  ...  ..  ....  ...............   ....       ....   ..    ....  ......   ....     ...     ..                                                                                                            .................                                  ",
"   . .  .      .. . ..... .....  . .. . . .  .  .   . . . .  .. ....  . . ............. ... . . ..... ............................. ..... ...    . .  ...  .. . . .. .... . . ....... . ..... . .  .. . . . .. . .............. .. .. ...   . .. . ......... .. . ...    ..  .. .  .... ..... ... ... . .    .      ...  . .  ...   ......    ..... . ... .  . .                                                                                                             . . . . . . . . .. . .       . . .                 ",
"  ...         ..    .....  ...  ...  ...     ..             ..  ..       ..............  ..      ...   ............................  ...  ..   ..      .  ..  ..   .....  ..........     ...    ...  .     ......  ............  ....  .  ..    ..............  ....    ..  ..    ....   ...  ..  .....     ..      ..     ..  .     .....  ....   .....    ..                                                                                                                                 ......   .........               ",
"               .     ..  .. ...  . . . .    .        .   .   .   .   . .......... ...  ..    .  . ......... ................. .... ..... . .  .       . .  .   .. . .....  .... ... .. .. ...  . . .. .    ....  .............. . ..  .    ..    ............ .   ...    .   .      . ... . .  ..  . .       .   .   .. . .. .. .  ...... . ... . ...... .    .                                                                                                                              .... .    . .... .                 ",
"                    ..  ...  ....  ..                .  ..          ............   .  ..    ...    .......   ................  .......  ..                       .  ....     ..  ..  ...  ..   .  ..         .  .................  ..        .  ............      ..                   .     ..  ..              ..    .   ...    ......  ....  ......  ..                                                                                                                                  ....      ......                    ",
"     .   .           .      ... . .          .     .. .  .           ........ . ... .  .         .. ........... ... ... .... ...... . .   .    .                . .  .. .       ..  ... .  .  ...   .        .   .... ............ .   .    . .  .............     .           .     .. .   .    .              ..    ...  ....    ......  .. . ... . .   .                                                                                                                                  .. .     ... . .                   ",
"    ...  ..                  ..  ..         ..    ..   ..         ...  .....     .              ..   .........  ..   ..  ..........            ..                   ..           ..  .         .                ....   ............    ..       ..............          ...   ..    ..              ...          ..    .     .    ......  ..  .....                                                                                                                                         ..      ....                        ",
"     .  ..               .  .    .   .   .    .    .. .            . ........  ..        .   .   .. . ......... ... .. ........ ..      .      .                     .     .    .  .. .       .                  ... .... .....      ..    .     ............ .           .    ...   . .  .       .  . .     . ...   .. . . ..    ..... .  . . .   .                                                                                                                                        ...   .  . .         .              ",
"  ...    ..             ...          .. ..    ...    ..         ...  .......  ..         ..  ..    ..  ...........   .........   ..   .....             ...                ..     ..     ..                     ..  .....  ...      ..    ..       ..........  ..          .. ....    .......   .....  ..   ....... ..  ..   .. ......      ..    ... ...                                                                                                                                 ....  .....           ...             ",
"   .   ...   .           .   .     ..    ..    . .   . .         . ..........  .. .    ..   .. .  ..  ... ...................... .      .                    .        .  . .       .    . .    .                 ..  ..  .......     ...   .      ... ...... ..        .  .    . .     ......    ...  .      .....   ..  ..  .   .. . .      ..    .   .                                                                                                                                   ....  . .               .            ",
"  ...  ....  ..       ...    ..   ..       ..    ..    ..     ...  ............  .    ..     ....  ..  ..  ......................                 ...       ..      ..   ..                .. ...   ...         ..  ..  .........   ....      ...  ..  .......         ..             ......... .....       ....... ..  ..  ... ..     ..      .. ...                                                                                                                                     .......                 ...           ",
"   .  .. . ..          .   . . .    .      . .  ..    .        .  .. . ...... . ..     ..   ...    .   .  ..... ......... .....        .           .       . ..      .  ..           . .   .         .           .   ..  .. ....     ....      .  ..  .........    . ..    .           ........ ....   . .    ....   ..  ..      ..  ..      . . .                                                                                                                       .              . ... .                    .            ",
"...    .  ..           .. ..  ..             ..  ..         ...    .. .......  .      ..     .             ....  ........  ...    ... ...       ...       ...  ..        ....       .....           ...             ..   ..  ....      .  ...      ..  .......    ....     ..       ...  ............ ....     ...  ..  ..      ..  ..       ..  ..                                                                                                                      ..           ......                       ..           ",
".  .  . .  .          ..   ..   .          ..   .. .          .    .  ...... .. .      ..   . .            . .. ..... .. .... .     .  .         . .       .   .        . ..         .              .    .          . . .  ....        .   .       . .. ......   . .. .  ..  .       .. . ..... ...     ...   ..... . .  ..      .   .     ..  ..                                                                                                                       ..            . . ...                     .. .          ",
"  ...    ..            .. ..        ...   ..     ....          ..   ..........    ... ..              ...   ........   .....         .        ..  ..       ..              ..     ...             ..    ...       ..   .. ....          ...         ..   ...    ....    ..  ..      .....  ....  .      ..     .....    ..                ..  ..                                                                                                                         ..         ..    ..                       ....         ",
"   .    ..             .  . .     .  . .   ..   ...            . .   .... ... .    .   ..    .         .    . ... .... . ....       ...      . ..  ..     ..              ..       .             . ..              ....    . .           .   .       .. .....    ...     . . .        ..  . .. ....  .   ..   . .....    ..        .   . . . . .                                                                                                                       ...          . .    ..                     ....          ",
"  ...    ..             ..   .. ....  ..  ..     .              .....  .  ..  ..  ...    ..  ....         ..   ..  ....    ....     ..       ..  ..  ..    ..              ..   ...             ....                 .                  ...  ..      ..  ...... ..     .. ..           ..    .....   ..    ..   ....    ..        ..  ....  ..                                                                                                                         ....       ..      ..                       ....         ",
"   .    ..   .           .. ..   ....  ..  ..    ..          .    . . . .   .. .    . . . . . . .          .  ..  ...  .  ...    .   .      .  . . . .   ..    .     .    ..     .   .   .      . ...        .      ...       .          .  ..       . .. ...    .   ..   . .  .      .  .  . ....  .. .  ..      ...    .       . ..   . .   .                                                                                                                       ....        . .      ..                    . ...          ",
"   ..    ..  ..         ...  ..    .  ..  ..       ..        ..      .       ..      ....  ..    ..            ..  .  ...  .    ..            ...  ..   ..     ..    ..    ..       ..  ...   ..  ..        ..       .      ..          ...  ..       ..   ..       ..  ..    ..        ..    ..     ....  ..     .....         ....                                                                                                                                   ....     ...  ..   ..                     ..  ..         ",
"   . .   .  .  .         .  ..   ...   ..  ..    . .        .  .    . .     .  .   ....  ..    ..        .    .   ...     . ..   ..      .     .. .  .   ..   ..    ..   ..    .      .  .    ... . .    .   .       .   .   .            . .           .. . .     . .. ..     ..    .   ..    . . .. ..  ..     . ...     .    . ..                                                                                                                                  ....       .  ..     ..                   ..   .          ",
"     ..        ..       ...  .  ..... ..  ..    ...            ..       ...    .. ....  ..    ..         ..        .         .  ..      ..    ....  ..  ..     ..    .  ..    ..      ..    .......  .. ...             ..                 ..            ..  ..   ...  .      ..    ..     .    ....   ..  ..   .......   ..  ..                                                                                                                                       ....     ...  ..   ..                     .  ...         ",
" .  ..     .  .          .  . .  ..  . ..  ..    .           ...     .    .   .    . .. . .  . ..        .   . .  . .    . .. .  .        .     ... . .  ..  . .   ....  ..   . .    . .    ... .   .  .   .     .   .   ..    .          ..     . .   ..    .     . ....      .      .   . .     . . .. . . .    . ..   . .   .       .                                                                                                                              .... .      . .      ..          .       .. .  .          ",
"...  ..   ..           ..       ..  ....  ..... ...          ....   ..     ..          .    ....            .....    .. ....               ..   ....    ..  ..    ....  ..  ..       ..   ....        ... ..    ..  ..  ..... ...          ..   ....  ..        ...  ...    ...        ..              ...  ..       .. ..            ..                                                                                                                               .....       ..     ..           ..     ..    ...       ..",
".   ..     ..         ..     .   ..  ....  ...              ...  .    . . ..        . ..     .. ..     .      .     ..   ....     .      ..  .   ....    . . ..    ....   .  ..   . .    . . .   .       . .     .   . . ... .             .    . . .   .  .      . ... .  . .   . .  . . .        .   . .    .  .  .. . .         . . .                                                                                                                               . ....    .... .    ..        ...       ..    .     .  ..",
"     ..   ..           ..    .  ..  ....  .....              .   ..   ..   ..     ....     ..    .    ..             ..    .    ..      ..  ...    ....   ....    ....      ..   ...    ..      ...     ...           ..   ....               ..          ..       ....  ...    .....    ....      ..            ..  ...          ....                                                                                                                                  ....... ......    ..        .....     ..  ..      ......",
"     .     . .     .   . .  ...  ..  ....   ..             .. .... .   .. ..   . . ...   ..  . .. . .  .     .   .  .      . .   .       ..  . .   ... .   ....   ... . .    ..  . .. .  .   . .     . . .   .    .     . . .. .              . .  .        .    ....  .. . .  .  .    .. .  .    .  . .       ..  ......    .     .. .                                                                                                                                  ...... ... ...    ..        . .      . .  ..     ......",
"            ..     ..    ..  .  ..  ....     ..           ..   ...... ..   .  ......    ..  ....  .....     ..  ...         ..          .....  ..    ...  ....   ....  .... ..       ....   .....   ....... ..  ..       ..  ....           ..     ....         ....  ..     ....     ..    ...     .....     ..  ......     ..   ..                                                                                                                                       .......   .... ..      ..  ...   ..    ..    ........",
"              .  ...    ..  ..   ..  ....   ..             .. ... ..   .. ...  ......  . . . ...   ..    .    .  . .   .    ...          ... .  .    ....  ...  ....  ...  . .. .  ....    . ..  .   .. .. . .   ..   . ... . ..             .. . . ..     .     .. . . .. .. .  .     . .       .    .  .      . . ....   ..      .                                                                                                                                 . . ..........  ... ....   .  .   .. . ...    ..   ..... . ",
"    ...          ....    ..  .. ..     .     ..              ...   .  ...  .  ......  ..  ....    ..    ..     ..  ..  .. ....             ....  ..    .  ..     ....  .  ...  .  ....    ....  ...  ..  ...    ..  ..   ....  ..              ....  ..   ..... ..  ..   ...    ...     ..      ..      ...     ..   .    ..                                                                                                                                        ..............     .....  .....   ........    ..  .......   ",
"               ....  .   .  ..   . .  ...   ..             .....  ...  .  ...  .....   ..   .. . . .   . ..   .  . . ..    ...             .... . . .  .   ..   .. .  ...  .  .     . ..  . . . ..  .  .. . .   ...  . .. ... . .          .  ..... .     ...    .   ... . .              .       .          .   .  . .   . .       .                                                                                                                            .  ... .  . . .....   ...... ...    . ...... .    . . ....     ",
"              ....  ...      ..   ...  ....  ..           ....    ..  ...  .  ....    ..      .....   ....      ...  .       ..              ....  .      ..     ..    .   ..          ...     ....   ..    ...  .    ..   ....  ..        ..  ......   ....           ..                                    ..         ..        ..                                                                                                                            ......        .......    .......    ........     .. ......      ",
"         .     .. . ..      .. .   .  ....  ... .          .. .    ..  .  ...  ....   . .      ..      ...   .   .. . .  .   .               . .... .    . ..  ...   .. . .        . .. .. . .....   . .     .. ..     . .. ... .        ..  . ... .     . .                                                .  . .      ...       . .                                                                        . . . . .       . . .                              ....... .      . ... .   . .... .  . ........  . .  ... . .  . .",
"        ..     ..  ....      ....  ..  ....  ...           ..  .. ..  ...  ....  .  ..   ..   ..      ..    ..  ....    ..        ...         ....   .. .....  ....  ..  ..       ....    ........  ..      ..   ..     ..   ....       ..  ...  ..                                                           .....   ....   .. ..                                                                          ...........     ......                            .............        ....   ....    ....   ...   .. ....      ....",
"         .   ..  ....  .   . ...  ..  . ..  . ...  .   .  .  ..    ..  .  . ..  ...  .. .      ..      ..     .  ....     .        .       .  . .....    ...  .. .  .  .... .  . . . ..   ....... .  .     . .   .       .... .. .       ..    ...                                                              .       . . ..   .                                                                     . .  .......... . .   . . .. .    .                    ... . . . ... .      ... .   ...     . .. ....  ..  ... .  .   . .",
"            ..  ....  ...  ..  ..  ..    ..    .   .  ..    ..    .....      ..  .     ..     ..      ..       ..  ....   ...     ...     ....   ...    .....  ..     ......   ....    ..........  ..     ..        ... ....   ....     ..    .....                                                                       .....                                                                        ......................      ....  ..                 ....         ......      ...  ..    ...    ...     .....     ....   ",
"            . .  . . . .  ..  ..  .. .  ...   ...  .   ..   . .    ..  .    ..  ...   ..      . .  .   ..     ... . .. .   ..      .        ... . . .  . ..   .        .....  . .  . ..........   ..     . .         .  . .... . . .     .    ..       .           .                                                       . .                                                                     . ........................ . . . . . .  .                 . .        .  ... . . . ....  ..   .    .... .  ..... .. . . .  .  ",
"          ..   ..   .....  ..  ..  ....  .... ..      ..  ..      ..  ...    ..  ....  ..   ..    ..     ..    ...  ....  ..... ...            ..      ....       ... ....        ............     ..   ..      ...   ..   ....    ..       .....      ..         ...                                                                                                                             .................................    ..  ..             ...                ........  .  ..  ..    ....    ....     ....   ....",
"           .  .     ...   .  .    ....   . .   .       .   ..      ...   .   . .. ..  .    . .     ...  ..    . ...  ....  ... . .         . . .   . ....    .     .  ... .       ......... . .  ..       .    . .    ... . .. .   .         . .     ... .        .. .                   .     .                                                                                               .  ................................ . ..  ..  .   . .                         . . .  . . .  . . .   . ...    ... .  . . . . . . .",
"                  ....      ...    ....   ...                ..   ....  ...   ..   ..     ...     .....  ..      ....  ....  ......       .....    .....    ..  ... ....    ... ...........     ..            ..    ..   ..  ....         ...       .......     .......                 ..    ..                                                                                               .......................................  ..  ..  ....                                 .       ..   ....    ....     ..    ....   ",
"               .   .. .  .   .    ....     .     .     .    ..    . ...  . .   .. ..     .          ..   .      . ... . ... . ...    .      .  .  ..... .  . ..    . ...       . ...... .    .  . .         .  .    . .  . .. .. .         .       . .. .. .   . .. ... .    .          ...     .           .                                                                                 ..... ........... . . . . . . ........... . .  ..  . .                           . ......       . . . . .    . .   ..  . .. .  . .",
"              ..  ..    ..  ...    ....   ...   ...    ..    .. ..  ..  ....  ..   ..    ..          ..            ....  ....  ..   ..        ...  ...    ....    ....        ........      ....          .....   ..      ..   ...       ..       .....  ...  .....  ...     ..       .......     ...     .....                                                                                ...   .........               ............  ..  ..                             ...........      ...      ...     ..  ....    ....",
"                .  .     ..  ...  . .. .    .      .  .    . .  ...  ..   ... . . .  .  ..       .  ..           .. ..  ....  ..     ..          .... .   ....   . ...      . ... . . .. .    ..           .       ..      . .. ...    ..           .. .....    ... ....    .    .    ... ...     ...      .. . .                                                                            ........ . . . . . .  . . . . .. . . ....... . . .  .   . .                   .  . . ....... . ......             .  . . . .  . .. ",
"                        ..   ....    ....    ..   ...     ..  ....  ..    ....  ..  ...  ..      ..  ..         ..   ..  ....  ..   ..          ....     ...    ....      .......      ....       ...             .....     ..  ..    ..            ......       .....          ..  ....   .... .......   ...  ....                                                                         ........          ..............      .........  .  ..  .....                 ....     .............               .. ..    ....... ",
"             .           .. ....    ....    .  .   .       .  ... .  . .   ..... .   .  .       ..  ..           .. . . . ... .      ..       . . . .  .. . .   ....   . . .. .    . ....  .       . .             ... .     .. . .  .  .            .... .     . ....     .     .   ........  . .. ...    .. ...                                                                            ........ .  . . . .............. .    .......... . . .  .                 .  . ..   . . . . ........ . .        ..  . . . . ....   ",
"            ..  ...     ..   ....    ....     ..  ...       .....  .. ..  ......    ...          ..  ..            ..  ..  ....     ..      ....      ..      ....    ......      ......   ..        ..              ...    ....   ....           ...  ..  ..     ..      ..           .....  .....  .... .......                                                                           .....................................    .......  ..   ..                 ....       ..     ...............     ..  ..  .........   ",
"              .  .   .   ... . ..    . ..      . .  .        ..  ...   .. . . ... .  .       .   .  ..     .     . . ...  .... .     .    .  . .   .    . .    .. .   ... ... . . ... . ...      .   .       .       ....    .... ...             ... .   .    .   .      ...          . .. .   .. ....     ...                                                                              .................... . . . .........    ........ .. .. . .. .              .. .   ..       . . ........... . .  .   . . ......  . .",
"                    ..  ....  .....   .....     ...  ..     ..  ..... ....    .......       ...      ..    ..    ..  ....  ......       .....     ..    ....  ..    ....     .......     .       ..          ..        .   ..  ..  .            ......        ..        .......         ..      ......       ..                                                                           ...  ..................        ..........    .......  ..   ......               ..  ..  ... ..     ................     ........  ....",
"                      .  ....  ...     ...         ..        . . ..  . ....    ..... .       ..       .   .  .  .  .. . . . .....    .   ...     .  .  . ....  .     . .   ...... . .. .. . .   ..         ..  .      ... ..   .   .            ... ...      . ..       ... ...    . .   .    .  .... .  .  .                                                                              .. . . . ......... .    .    . ... . ...   .........  .. . . .                  . . ..  . . .. ...................     ... . .... . .",
"              ...          .   ....   .....       ..          ....  .....  ..    .....       ....      ..   ..    ..     ..  ...... ..  .....    ..    ...   ..           ......     ...  ..     ..       ..  ...      .   ..                 ....  ..      .......   ....   .... ....      .....  .     ..                                                                               ....       .......       ..     ..     ....  .......... ..                        ....     ..  ...................... ....    ....    ",
"                   .       .   ... .    ...      . .   .       .... ....   . .   . ....     . ... . .  .     .    . .  . .   .....   . . . . . ..  . .. .. . .              . . .   . . .  .   .          . .   .     ...  .. .                 ...  ..    . ..... .   ........  .  ...    . ...  . .  ... .                                                                                .... .  . . . . .  . ... . .   ...  ....  .........   .... .                      ... . .  .. .  ..................  . .. .  . ..   ",
"                  ..  ...        ....    ....   ..    ..  ... ..   ......    ..      ....      .....            ..     ..      ....   ..    ....  ....    ...                                  ..   ... ..   ..  ..    .  ....                   ....  .. ....   ...     .....  ... ..... ..   ..      ......                                                                               .......           ..........  .....  ....  .......  .........                     ......  ..       ..................    ....    ...",
"                   .   ..        ...    . ...    ..    ..  .   .. ... ... . ..   .   ....      ..... .           .   .     . . . ..    . .   .... ... .                                       .      . . .... .. .   .. . . ...        .        . . . ...  .... ....     . .. .  . . ..    .. ..     .... .. .                                                                                . .. . . . . .  ... . . . .   .. ....    . . .... . . .  .                       ......  ..      . . . ..........  . .. .  . .. ..",
"                      ..           ..      ....    ..    ..      ...   ...   ..  ..    ....      .  ..      ...      ..   ....  .....   ..  .........  ..                                             ......   ..   ..  ..   .         ..            ......  .....        ..    .......   .......    ...   ....                                                                                  ...............             .....        ......                              ..   .  ..               .......  ....    ....    ",
"                       .   . .   ... .     . .     . .   .      ..... .....   . .  .   . .. .    .  . .      . .    .    . .. .  . .     ..  .... .  ..                .     .                         .......  .    ..  ....        ... .     .   .... ... . ....         .      ...      ....  .  . .......                                                                                   . . . . . . . . .  .        . .....  .     . . .                               .  ... ...    .         . ...... . . .   . . .   ",
"                          .....  ......             ..    ...    .   .....     .  ...   ....      ..   ..      ..       ....  ..  ...   ..  ....    ..                ..    ..            ...         ..   ....  ..    ..  .        ......    ..  .....  ...  ..                   ..        .  ...    .....                                                                                                      ..           ...  .....                                          .....    ..          ........      ..     .. ",
"                           ..   . ....   .            . .  . .  . . ... ... .  .   ..    . .. .    ... .      .  .       .... ...  .     .   ...   . .                ...    .   .        ...          . ... . . .    ..  . .       ... ...    .    .. .....   ..        .        .        .. .      .. ... .      .               . . . .                                                                          . . . .   .....  ..                                           ... ...    .. . . .    . ....... .  .... .... ",
"                      ... ...      .... ..            .....  ..   ....  ....      .....      ....    ..   ...    ..     ..   ...  ...       ..     ..               .......     ..  ... .......         .....  ..      ..         ....  .....        .....       ..     ..                ..        ..   .        ...              .......                                                                          .........  ...   ..                                            .   .   ..  ........      ...................",
"                             .     . ..  ..            . .. .      .... .....  .    ...      . . .        . . . .      . .. ...    ..        .. ..                  ... ...     ...  .  ... ...           .. ..    . . .           .... ...      .  . ... .     ..       ..      .       . .       . .... .          .         . .... . . . .                                                                . .  .  . . . .  ... .  .                                            . . ... ..   . . ..  . . ...... ......... . ..",
"                            ...     .....  ..   ...     .....     ..   ......  ..    ....        ..     ..   ....      ..  ...    .....     .......               ....   .... ......  ....   ....          ...    ....               ......      ..   ..         ..     ..      ..      ..        ......     ..     ...       ......      .....                                                             .........          .                                                       .   ..     ..  ..........   .......    ..",
"                                      .    . .       .  . .. .     .. ... ..  .. .  ..... .  .   . .     .  . .. .    .   ..... .  . .      . . .                  . ..... .  ... ...  ........           .....    .. .              . .       ... .   .         . .     ..      ..    . .        ... ...   .        .        ... . .      . . .                                                       . .   . . . . .        ...                                            .        . .   . . . ... . . ......... . . . .    .",
"                                            ..      ....   ....      ....  ..  ....  .....   ..    ..          ....        .   .... ...   ..                        ....... ....  .....  .....             ...... ..                          ......      ...      ..   ..      ..    ..        .....  ....         ...     ....               ..                                                      ......        ..        .                                             ..              .........     .......         ..   ",
"                                   .   . .    . .     ........ .   .. .  .... . ..  . ..... .      . . .     .. ..   .    . .  ..    ..    ..                       . .  .   .... ... . . ... .           ... ... . .            .     .     . .. ...    . .. .  ...     . .     ..   ...        . ......            ..     ... .             ..                                                     .. . .        ...        ...                                          .           . . .... . . .. . ........ .       .  .  ",
"                                  ..  ....    ..      ..........  ..    .......  ..    ......        ....   ..   .. ..        ...   ..... ..                      ..           ......  ..  .               ..  ...              ..     ..   ....  ..... ......   ....     ..    ..  ....       .. ......             .... ....                 ..                                                   ..            .....        .                                           ..          .......        ..........            ..  ",
"                               .    .   . .  . . .     .......... ...    .. ..  ...   . . ... .    .. .  .   .. .. . ..        . . . . .   ..                      .   .  .    ....  ... .. .   .          . .. . .               .  ... .    ... ...  . ...... . ..       ..    ..  .. .   . .     ... .  .        . ..   ...               ...                                                    . .            ...        . .                      . . . . .          ..          . . . .... .      ......... . .        .  ",
"                              ...           ..  ...      ...........    ..   ..  ....      ...    ..    ...    ......  ..   ...  ...  ...    ..                       .......    .  ......    .....         ..                       ......   ......  ....   ....  ..     ..    ..  ..    .....      .    ...          .. ..        ...      ....                                                 ..   ..          ....                                ..........          ..                .....       ..............         ",
"                               .       .      .  .   .  ... ....... .    .. ... . .  . .  . . . .  . .         . ... . . .      ... . ... . ..                       . ... .. .  . . .. ...    . .            .                    .... .. .   .... .   ... ...      .     . .   ..  ..   . .       . .               .. ....         . . . .. .                                                   .. ..          . ..                             . .. . . . .. . .     ...                . . ... .   . . . . . . . . .    .  ",
"                               ..     ..         ..  ..  .   ......  ..    .....    .....      ...  ..             ...  ..       ..  .....   ..                     ....  ....    ....  .....                                      ...   ....    .      .......     ..      ..  ..  ......                             .....           ........                                                   ...  ..            ..                           ....         ......   .....                    ......                ....  .. ",
"                              .        .         .  ..  ... ... .. ...    .......     .    .  . ... . .        .   ....  ..     .  .... ...  . .                      ... ... .    .... ...  .                                    . .......      .       ....        ..       . ... ..... .                            ... .           . . . .                                                        .             ..                            . . .       . . .. .   ..                     . . . . . .    . . . .. . . ..  ",
"                                                     ..  .   ..  ......    .....          ..    ....          ...    ....  ..     ....  ..     ..               ...   .......  ..    .....  ..                                       .....          ...    .           ..      .......                                   ..                                                                                          ..                         ..                 ...  ..                             ...... ........     .... ",
"                                 . .           .     . .. . .   . ....    .......      .    .    . ..  .           . ... ..       ... . ...    .                  .    ... .  .  .   .... . . .               .  .  .                . . .           .     .   .       . .    . ..... .                 . . . .        ...               . .   . .                           . . . . . .                            ..                           .                . ...  ..    . . . . .               . . ..  .... ...  ....   ",
"                                ....           ..     ..   ..      ....    .....  ... ..             ...          ...  ...      ....  ....                         ..    ..     ...    .  ..                ...........                                       ...       ..       ...                  ...........      ....             ..........                          ............                             ..                                              .  ..    ...........                 .....  .  ..  ....    ",
"                                  . .    .     .       .. .  .    . ..    . ....  ..   .   .      .  . .. .           ......     .. .  .. .                        .      .      .    . . . .             .  . . . . .. .                                       . .       . .   .....              .   . . . . . . .  .. .           .  . . .. .... .                    .   . . . . .... .          .              ..     .             .                          ... ...   . . . . .. . .                ... . .  .    ...   ",
"                                    ...  ..         ..  ..  ...      ..      .  .....     ..    ..       ....          ......   ...    ..  .. ...                          ..    ..     ..              .....       .......                                      ....     ..     ...              .....         .....  .            ....         ......                  ....          ......        ..              ..   ..             ..                          .....  ..         ......                ....  ..     ..    ",
"                                     ..   .          ..  .         . . .    ... ...  .   . ..    .. . .  ....        .. .... .       ..  .. .  . .                         . . ..        ..             . .          . . ..            . . . .                  . ... .    . .  ... .             . .             . . ...         .  .. .        . ....                ....            . ...        .. . .          ..     ..            .           . .  .         . .....  .         . ... .              .  . ..  .   . .    ",
"                                    ..     ..   ...    ..          ..  ..    .....  ..  .......    ...     ....     ..   ......     ..  ..   ..  ..                         ....        ..            ..                .....          ........                    ......   ...  .              ..                   ...        ....                 ....             ....                 ..        ......          .    ..              ...        ........          ......              ....                 ..  ...  ..     ",
"                                     .    ..     .     .      . .  .    . .. .... . ...  ....      . ..    . . .     .  ......     . ..  .. ..  .  .                          ...        ..            ..                 ..       . .. . . .  .                  . . ...    .  ...              ..                 .....       ....                 . ..              .. .               .. .      . ...  . .      ...    ..              .. .    .. . . .  . .      .....          . . . ... .   .              . ..  .       ",
"                                           ..                  .         ....  .   ...  .....          ..      ..        ......   ....  ...  ..   ...                         ..        ..            ..                   ..     ....        ...                      .... ...  .              ..                   ...      ....                    ..              ..                   ....       ..  .....      .    .....           ....    ..        .....      ...          .......  ....  ..              ....         ",
"                                          ..             .    . . .     ...   ....... . ...   .       ...      . .      . ...  .   ....  . ..  .     .                         ..        ..            ..                 .  .    . . .                                . ..  . ....              ..                 . ...      .. .                    ..             . .                  ...         .. . .  . .  ...    .. .           .....     .         .  .    .....      .  ... .     ..  .  .            . ..          ",
"                                           ..            ..      ....    .     ......  ...     ..      ....      ..        .  ...    .  ....  ..    ...                       ..        ..               ..                 ..  ..                                      ....  ....              ..                    ..      ..                      ..            ..                       ..       ....    .....  .    ...  ..       ......                  ...    ...      ......         ..    ..              ..         ",
"                                           . .       . ... .. ... ... .  .. . . ...  .... .  ..        . . . . ..  . .    . .  . .   .   ...   ..     .                        ..       ...              .     . . . .       .. . .                                      ....  ...               ..                    ..     ...                     . .      . .   ..   .                 ..         ....     ... .      .. . .        ......                    . ......     ... . .       ..    .  .             .          ",
"                                            ..      ............   ...     ....  .  ....    ..            ......  .....      ..  ..        .. .....    ..                        ..   ....                    ........      ....                                           ....  ..                ..                 ....  ....            ...     ..         ...  ..  .....                ..   ...    ....    ....      ....  ..   ...  ...                    ........    ....             ..      ..                       ",
"                                              .       . . . . .... .....  ...   . . ... .   . .  .        ... . . ...  .   ..  ... .      . .  .... .. . .                      ..    ... .                    . . . ..      ...      .  . .                               ... ...                 .                   ....  .. .            . . . . .      . . . .  ..  . . . .             .     ..    ... .  . ..       . .  .  .  .  ....         . . .        ........   . . .           ..      ..                        ",
"                                               ..              ....  ....  .       ...    ..    ...     ....     ...  ..  ..  ......    ...  ..  .....  ...                      .. ....                    ...        ..   ..      ........                                 ......                                      .  ..                 ......     .....     ..       ....           ...   .....    ....    ..       ...   ....  ....        .........        .....  ..                 ..      ..                       ",
"                                              .                . .. . .. .. .. .  . . .    ..   .        .. ..  . . . ...  .    . ...     . . . . ... .                           . ... .                              . .   ..  .   . . . .. .                             .... .                         . . . . .    ...  ..                . .         . .       . .    . .. .          .      .. . .  ...    .. .       ..    ... . .. .       ... . . . .      . .... . .      .       . .     . .                        ",
"                                                                .....  ....  ....        ..  ...        ...  .       ......       ..       ..  ..  ..  ..                          ...                                  ..  ..  .....        ....                            ....                         .............  .  ..                          ...           ..       ....       ..      ...  .     ..    ....     ..... ..  ....        ....       ....     ......        ..      ...     ..                          ",
"                                                                  .. .. ..  . ..     . .. . .. .     .     .. .    .. . ..   . .   . .     .  .. ..   . . ..                 .   .. . . .                                 . ...  . .         ....                           ....                     . .    . . . . ......   ..             . . . . .                   .      ...        . .      . .. . . .  .  . ..      ....   .. ....         .. .      ... .     .....          . . .          .                          ",
"                                                                   ...   ..    ..   ....   .        ..    ...  .. ..     .. ....    ..         ...       ....                .. ..    ....                                .......              ....                          ...                    ....             ...... ..            ..........                             ..     ..        .....  ...  ...    ..   .......    ...          ..           ....   ....             ......                                   ",
"                                                               .  ..... ..    .. .    . ... . .      ..      ..  . .. . .  . ....   . .  .     .. . .   . .  . .         . ..  . . . . . .. .                              ....                . ...                       ......                    . .            .  . .. ...         .  . . . . . .                           .     . .          .. .. . . ..    ..   . .. ..    ... .          ...     .   ...     ....           . . .                                     ",
"                                                              ..  ....   ..    ...       .  ..      ..      ..  ...  ...  ..   .....     ..       .....     .....       ....  ..  .....    ....                           .....                 .....                     ......                  ...                   ......        .....         ...                         ...    ..           ....     ....    .  .....  ..    .            ....     ..    ..   ....                                                      ",
"                                                       .        .  .... ..     ....  .  . . ...      ..      ..    .. .... .. ........ ..        . . . .     .     . .  . ... ...  .   . ....  .                          ...  . . . .            ..                       ......                  .                     ......       ...              .       .  . .            .   ..    . . .     .....  . .. .  . . ...  ...    ...      .     . .. . .     ..    .... . . . . . . .                                        ",
"                                                      ..          ....   ..      .   ..    ......   ..      ..    ..  ..........   .....      ....    ..   ..     ......   ........   ......  ..  ...                   ....  .........            ..                     ......                ...                     ......      ....              ...     .........         ... ..    ......       ....    ....   ....  .....    .      ..         ....      .  ....  ..............                                        ",
"                                                        .          .... .    .  . . .  .  ......     .   .   .     . . .............. ... . . . . .    .. . .    . .......... . .    . .. ... ...  . . .   .            ..... . . . .  . .        ..                       ......                        . . . . .       ......      .. .                      . . . . . .       .. . . .  . . ..      . ..   . ..     .. .  ...    ...      ..        . .      ...  ....  . . . . . .... . .                                   ",
"                                                            ...      ...    ...   ..  ...  ......        ..         ................   .......       ..  ..  .. ............        .....  ........ .....  ..         ........        .....        ..                     ......                        ..........         ...      ..                      ...        ...      ....   ....      ..     .....    ..   ..    .....    .      ..                   .  .......            .....                                    ",
" . . . . . . . . . . . . . . . . .                            . .   .....    .     ..  .  .......       .        .  ..... ...................... . .... ... ... . ... ... . .    . . . . .........  ...  ..  . .   .  . ... ..          ..        ..                       .. ...                    .   . . . . .. .     .....     ...                      .         ....     ....... .        .   .  .....   .. .   ..   ...   . ...     ...                 ... ... .              . ....                                   ",
"...................................                            ....  ...     ..   ..  ...  ........             ........  ......................................  ..  ..     .. ....     .............  ..  ....  ....   .               ..        ..                      ..  .                    .....          ....    .....  ....                                   .... ........              ...........  ...  ..   ...     ...     ...                   .....                     ....                                 ",
"... . . . . . . . . . . . . . . ..                            . .   . ...    .  . . .  . .. ......   .            ... .... .............................. ... . .  .. . .. ..     ... . ... ... ....... ...  ....   ..... .             ..       . .                      .. .. .                   . .            . . . . ......  .. .                . . .             ...   .... . .              . . . . ... .... . ..... .   ... .   .....    . .         ...... .. . . . .           ... .                                ",
"..                               ..                                   ..      ....  ..  ..   ...... ...           ..  ......   ..........................  ..    .. ..   ...      ........  ..  .............  .    ....                 ..     ..                         ....  ..               ..                   ....  ...  ..                  ......               .  ....                ...       .....  ...   ...      ..    ......     ...        .......  .........             ....                               ",
"...  . .     .       .     . .  ..                             .      . .      ....  .   .... . .. . .   .       . . . . . .. ... ..... ......... ... .   .    ..    .  . . .  . . ..... ..  .. ... ... ... . . .  . .. .              ..       . .                        ... ..  .               ...     .          . .  ...... ...              .   . . .. .           ... ... .                . . .      .. .. ....... .     ...   ..... .    . ..       ...... .... . . . .            ...                                ",
"..   ...    ..      ..     ....  ..                           ..    ..        ....      ....     ...... ..      ..  ..       ...   ....  ........  .          ..  ...         .....  .     ..  ...  ..  ..   .     ...                ..      ..                             ...  ..              .....    ..             ..........               ....      ....          .....                ..  .......    ...  ......      ....   .....           ..   ............        ...            ..                               ",
"...  . .     .   .    .   . .   ..                              .    . .       ....      ....   . . .  . .   .    .  .   .  . ..... .. .. .....  .. .      .   . . . . . . .    .. .. .    .   . ..  .. ..... ..   .. .            .  . .      .                            .....   . .            . .. .. .                . .......            .. .        . ..         ........  .  .         ..  . . . . .. ...  .... .   . ... ........          ..    ..... . . . .        .            ..                                ",
"..        ...   ..    ...        ..                                   ..         ....      ....       ..    ..     ..    ..   ....   ....  ...  ...  ..   ..    ..  ........     ...   ..          ..  .....   .                  ....                                       ...    .....           ......                     .....            ..            .....        .............        .....     .....  ....  .     ......  .....             .. ......                               ..                               ",
"...  .   . .     ..    . .   .  ..                                      .        ...      .....    . . .. .  ..   .     .       . .  . . .. ...  . .. .    ..    .    ... . .   . . .  .     .     .   . . .... .    .              ..                                 .   .. . .    . . .            . . .           .  . .  . .....            ..      .     . ..      ...... . . . . . .      . .        .  ...... ... . . ...  .... . .          . .  ... . .    . .  .                   ..                                ",
"..  ..  ..      ..      ..   ..  ..                                         ...    ..      ...... ....   ....  ..                        .  ....  ..   ..    ..       ..                     ..              .   .. ..... ...                                         ..  ..     ..     ..                          .........    ......         ..       ..     ..      ......          .....                 ...............  .  ....              ..  ....         ........                  .                                ",
"...   .  ..      ..      ..     ..                                            . .   .      . ....  . .. . .  ..          .   .       .   .   . ..  .. . . . .. . .     .             . .   ..      .     .   .  .     ...  . .                                   . .  ... . .   . . .     .    .                    . . . .  . .. ....           ..     ..       ..     ... . .          . . .             . . .......... . . ...   . .             ... ... .   . . . . . ... .              . .                                ",
"..      ..      ..      ..       ..                                            .     ..     .......    .    ..           ..  ..      ..          ..  ..  ..........                 ....  ..       ..    ..            .... ..                                  ..........   ..    ....    .. .....               ..        .....  ....         .....    ..     ..    ....                  ..             ..............    ...                  ........    .......      ......           ...                                 ",
"...  .    .     ...      .  . .  .                                            . . .  . .     . ..  . .. .   . .    . .  .  ..    . ..    .       . . . .. ........ . . . . . .        . .  .   .  .. .  .  . .   .    .  .  ...    .                         .  ..... ..... .    .. .  . ....  . . .               ..         .  ......          .... .. .      . .   ... .                  ..    . . . ........ . . .  .  ....                . ..... ...  . . . .      . . ..         .   .                                  ",
"..  ..     .. ......  ...    .  ...                                             ..     ..     ..  ....    ..      .....   ..    ....     ..       ..  ..   ...................  ...           ...  ....   ....  ...       ....... ..                        ........  ....      ..    .........    ..             ..            .........          .....      ..    ....                    ..... ..............        ... ..                .........  .....                 ..       .....                                   ",
"...   .   .  . . . ..  .    .    .                                               .    .        . . .... .  ..       .     . . .  . .   ..  . . .    .   ..... ................. ... . .  .      . . ..     .. .  . .       . . . . .. .                  .  .........  . .   .   .      . ...  . ..  .             ..             ......           . . .      . .   ..... . . .               ..    ..............   .  ..   . .          .  . .. .... .. .. .                ..          .                                     ",
"..          ..       ..         ...                                                             ...  ......  ..         ..   ....     ..  ......         ....  ...........................       .  ..    ...  ..  ..   ...     ..   ....                ..............      ..            .  ....  ..               ..            ......                   ..     ..............              ..    ..............  .....    ...       .........  .....                       ..                                               ",
"...  . .   . ..     ..   . . .   .                                                                 ........ .  . .       .. ...      . . . .... . .     .  .  . ..... ..................... .   ..   ..     ....  .. .   . .  .  .   . . . . .     . . .... ....... ... . ...  . .        . . ... .  .. .            .            .....                     . . . ... . . . . ... . .         ..    . . . . ... .  .. ... .      . . .  ... ..... . . ..                     . .                                                ",
"..   ....  ...       .  ......  ...                                                               ..........  .....        ...      ..  ......  .....            ....  ........................        ..    ....  ....    ......        ......    ........  ......  .......  .....          ....  ..  ....                        ...                    ..  ......           ........        ..           ..    ..  ..        ..........  .......                         ..                                                  ",
"...  .    . ... . .  .   . . .   .                                                       . .       . . ....... .       . .....      . .  . .... . . . .  .   . .. .. .. . .....................  . .   .      .  .. .. .  . . .. . . .  . . .  .  ..... .. .... .  .. ... ...  .       .    . .  .... . .. . .                   ......                .  ... ........         . . ... .       .       . .   ..  . .   . .      ..... . ...  . . .                           .                                                  ",
"...         ......              ...                                                      ...    ...   ........        ......      ..   ..    ...     ......  ...   ...     .........................            ..   ....      .......         ..  ...   .....    ...  ..  ....       ...       .......  .....                  ......                ................               ....              ......  ...      ..    ......     ....                                                                                   ",
"..   . . .   . . .. . .    . .   ..                                                     . . .     .   . ..... . .  .    . . .    . .. .    .......   . . . .... ... . ..  . ..........................  .        .. . .  .    . ... . .  .    .  ..............      ..  .. .  . .                . .  .. .....              .  . ... .        . . .  ....... . . . . . .            ... .            . . ... ... .      . .   . ..... .. .                                                                                     ",
"... ......         ...    ....  ..                                                           ..    ....  ...  ..   ..            ..  ..   .........        ....  .     ..    ..............................        .    ..       ..   ....      ..............      ..  ..    .....                   ..  .......           ....   .           .............          .....            ....                .....  ...     ..       .....                                                                                        ",
"..   . .. .   . .  . . .    . .  ..                                                         ..    . .  .. .... .. .  . .        .    .   . .... .  ..     . ..  . .   .. . .. ... . ......... ............. . .   ..    . . .  ..  . . .. .    .  ....... . . .      ..  .     ..                      . . . ...         .   ...... .    . . .. ... . . . ..           . . .           ... .             .. .....   .      ..      .... .                                                                                       ",
"...         ....      ..        ..                                                           ..       ...  ....  .  .....               ......    .....      ..        .....  ..     ........  ..................     ..  ..  ..  ....      .....  .....            ..        ...                       ..     ..        ....  ...       .....   .                         ..            ....           ..  ....     ..   ..  ...    .                                                                                          ",
"..    .      . ..      ..  . .   ..                                                          .   .        . .  ... .  .  .              ......    ...      . . .      ... . .  ..   . ...... .. . . .............  . . .   .    .   . .      . . .. ... .            .    .          . .        . .  .    . . .  .   . .. . . . . .  . .. . . ... .                .       . .           ...              .  .....  .  .   ..  .     .                                                                                          ",
"... ....  ...    ..   ..  ....  ..                                                               ..           ..  ...    ..           ......    ....       ..  .       .      ..       .......       ..................                    ..   ..  ..                  .....       .....     ........    ....  ..  ....     .    ......       .                   ..        ..            ..              ..  ....   ..  .....                                                                                                 ",
"..   . .   .    .      ..   . .  ..                                                             .        .      . .. . ..    .        ... . .   .....     .   . .     . .      .      . . . ..     ................... . . . . .  . . .   .  .   .   .                   ...   ..     .  .     . .... .    . .. . . ......  ... .  ...... . .  .    .            ..         ..             .              .   . .. .   .   ...   . .                  .                                                                         ",
"...       ...         ..        ..                                                                      ..       .......    ..      ....      ......                                              .......................................   .....                       ..... .....     ...        .  ...      .  ........     ....  .......      .....         ..           ..           ...                    ...      ..... .....               .....                                                                       ",
"..   . .   . .       . .   . .   ..                                                                      .. .   . ........  . .     ... .  .   . ...                             .     .       .   .... ....... . . ..... . ......... .    . ..                       .  ... .  . . .      . .     .. ..      ... ... . . .    . .   .........   . . . .         ...       .               .                 .   .... .    . .   ... . .   . . . .   . .                                                                        ",
"..  .....    ..     ..    ....  ..                                                                         ....    .........      ....     .    ..               ..   ...        ..    ..     ..  .....  .....       ....    .......       ....                     .....  ....    ....   ....       ....      .....                   .......  ..     ..       ....      ...             ...               ...    ......   ...    .....  ........                                                                              ",
"...   .      . . . . .      . .  ..                                                                        . .     ..........  .   . .   ..      .     .         .    ..      . .     ..      ...   .   . . . .    .. .  . .. . . ..   . ....        .                ... . .. .   . . . . .... .   ...    .. . ... .                ..........  .. . .          .... . .  .               .                 . .   ....  .         . .... ... . ...                                                                             ",
"..             .....            ..                                                                                   ...........        ..             ..           .....   .....      ..   ....                  ..    ....          .......       ..        ...      ....  ....      ...   ...     .    ....  ..          ...     .............  ....            .......               ..               ...  ..    .  ..             .....     ....                                                                           ",
"...  . . . .  . . . .  . . . .   ..                                                                              .   . .... ... .        .         .  .               .      . .     . .     . .   .   . .   .      .     . .        . ....    . .   .          .     . ..  . .. .    . ...  . .     .   .  ..   .           . .      . ....... . . .. . .         . . . .           . ..                   . ..     .   ..  .     .  ... . .. .. .                                                                             ",
"..   ........          .......  ..                                                                               ..      ..  ..                    ..                         ...   ..            ..  ....  ..                      ..   .    .....              ..      ..    ....     ..               ..         ...    .. ..         ......  ..  ......                         ....                     ....       ..  ...    ..  .     ...                                                                                ",
"...  . . . .           . . . .   ..                                                                             .    . . . ..  .           . .    .      .     .         .     .     .          .  .   .. .  .                   .   .   .   . .   .             . .     . .  . .. .     .             ..      .     .   ...   ..      .. .... ..  .. . .. .                          . .                .  . ... .      ..  .   ..   . .    . .                                                                                ",
"..                              ..                                                                                  ....  ..  ..          .....          ..    ..       ..    ...             .....   ...  ..       ...     ... .....       ..    ..               ..      ..    ....                 ..      ..    ... ..... ..      ..   .....  ..     ....                                            ..    ...      ..   .. ..                                                                                              ",
".... . . .   . . . . . . . . . . ..                                                                                   . .  . . .           ..          ...    .           .   ..               . . . .  ....   .           . .. ...        . .     .         .    .  . .    . . . .  .  .          . . .   .   . .   .   ..    ..      . .... ... . ..  . .. .                                           . .  ... .      .  ..   ..  .                                                                                          ",
"..................................                                                                                      ..  ...           ..           ....                  ....           ...    ....  .... ...         ........        ..                 ..     .....    ....   .......       .....   ..    ..  ... ..    ..        ....  ....   ..    ....                                            ..  ..  ..        .. ..  ..                                                                                          ",
". . . . . .. . . . . . . . . . .. .                                                                                      .       .         .         .. ..           .      ...                  ....   .. .       .     .  ... . .      . .           .              ... .  . . .    . .      . .  .  . . .    . .  . . ..  . ..       ... . ...... .  . . .. .                                         . .  .. .. .      ..    ..   .                                                                                         ",
"                                                                                                                                 ..                 ..   ..          ..      .                  ....     ..        ..    .. ..          ..             ..              ...      ..            .....   ....    ..  ..  .....  ..  ..    ....  .......  .....  ....                                        ..    ...   ..   ..    ..                                                                                              ",
"                                                                                                                                .                    ... . .   .    ..      . .                . .. .  . .     . ...   ..  . .            .          ..  .       .    . ... .     .             .     ... .   ...  .  ...  ...   .   ..  .  . . .....   .   . .    . . .                                ..    . ..... .    ...   .                                                                                              ",
"                                                                                                                                                    .....  ..  ..    ..                       ....     ..  .. ....... ..   ..                       ..  ...      ..      ...                        ....    ....    ....  .....     ..          ....              .......                                ....   ....   .. .....                                                                                                 ",
"                                                                                                                                           .     .    .. .  . .                    .        . ..... . . . .  . ....  . .. .  .   .               . . . .        .  .    . . .                  . . . . .    ... .   ... .  ..  .      .      .   . . . .     . .  ...... . . .                         ......    ....  . . .                                                                                                    ",
"                                                                                                                                           ..   ..     ....  ..                    ..     ......   ....  .  ......  ..  ..  ...  ..       ...   .....  ..          ..                         ......      ....    ....    ..   ..       ... ..      .....    ..................                       .........    .    ..                                                                                                      ",
"                                                                                                                                                  . .  .... .  .               .  .       ..... . ... . ... ......   ..  .    . .          .    ...  ..  .  . .   .. .          . . . . . . .  . . .     . .. .    . ..  . .. ..         .  . .       .     . . . ......... .. . .                      ......     .      .                                                                                                     ",
"                                                                                                                                                  ..     ...  ...             ..        ......  .....  .   .....    .....      ..             ....  ..  ...  .     ....        ................         ....     ..    ....  ....     ... ..                       ........  ......                      ......                                                                                                                 ",
"                                                                                                                                                   .     .... .  .         .   ..        .... .  ..  ...   .... .   . .       .             .  . . .  .  .  ...    .     . . .......... . . .  .        ....     . . .. .  ....    .  .    ..              .   .  . ...... .... .. . . . .              . . .                                                                                                                   ",
"                                                                                                                                                           ...  ...       .....  ..     ....    ..  ..       .    ..                      .....   ...    .. ..          ..............         ..     ....        ....    ....    ....    ..               ..  ..    ..........  ..........                                                                                                                                     "
};
