/* XPM */
static char *xearth_256[] = {
/* columns rows colors chars-per-pixel */
"512 512 60 1 ",
"  c black",
". c #000800",
"X c #000008",
"o c #001000",
"O c #001800",
"+ c #000010",
"@ c #000018",
"# c #002000",
"$ c #002900",
"% c #003100",
"& c #003900",
"* c #000020",
"= c #000029",
"- c #000031",
"; c #000039",
": c #004100",
"> c #004A00",
", c #005200",
"< c #005A00",
"1 c #006200",
"2 c #006A00",
"3 c #007300",
"4 c #007B00",
"5 c #000041",
"6 c #00004A",
"7 c #000052",
"8 c #00005A",
"9 c #000062",
"0 c #00006A",
"q c #000073",
"w c #00007B",
"e c #008300",
"r c #008B00",
"t c #009400",
"y c #009C00",
"u c #00A400",
"i c #00AC00",
"p c #00B400",
"a c #00BD00",
"s c #00C500",
"d c #00CD00",
"f c #00D500",
"g c #00DE00",
"h c #000083",
"j c #00008B",
"k c #000094",
"l c #00009C",
"z c #0000A4",
"x c #0000AC",
"c c #0000B4",
"v c #0000BD",
"b c #0000C5",
"n c MediumBlue",
"m c #0000D5",
"M c #0000DE",
"N c #0000E6",
"B c #0000EE",
"V c #0000F6",
"C c blue",
"Z c white",
/* pixels */
"                                                                                                                                                                                                            Z                                                                                                                                                                                                                                                                          Z                                        ",
"                                                                                                                                                                                                                                                          Z                                                                                                                                                                                                                                                                     ",
"                                                                                                      Z                                                                     Z           Z                                                                                                                                                                                                                                                                                                                                       ",
"                                                      Z                        Z                                                                                                                                                          +X+X+X+X+X+X+X+X+X+X+X+X.o.o.o.o.o.o.o.+X+X                                                                                                                                                                                                                                           ",
"                                                                                                                                                                                                                                 X+X+X+X+XX+X+X+X+X+X+X+X+X+X+X.o.o.oX.o.X.o.o.oX+X.o.o.o.o.o.o                                                                                                                                                                                                                                 ",
"                                                                                                                                                                                                                          X+X+X+X+X+X+X+X+X+X+X+X+X+X+X+Xo.Xo.X+X+X+X++Xo.o.o.o.+X.o.o.o.o.o.o..o.o.o.                                                                                                                                                                                                                          ",
"                                                                                                                                                                                             Z                      X+X+X+X+X+X+X+X+X+X.o.+X+X+X+X+X+X+X.+X++o.oX.+X.o.o.o.o.o.X+X+X+X.o.o.o.o.o.o.o.o.o.o.o                                                                                      Z                                                                                          Z                                  ",
"                                                                                                                                                                                                              X+X+X+X+X+X+X+X+X+X+X+X.+o.o.o.+Xo.o.+X+X+.o.XX.oX+oo.o.o.o.o.o.o+X+X+X+X+X+X+X+X+X.o.o.o.o.o.o.o.o.                                                                                                                                                                                                              ",
"                                                                                                                                                          Z                                               X+X+X+X+X++X+X+X+X+X+X+X+X+X+Xo.oX+X+X+X+X+X+XX+X++X++XX+X+X+X+X+X+X+X+X+X+X+X+X+X+X+X+X+X+X.o.o.o.o.o.o.o.oX                                                                                   Z                                                                                                                     ",
"                                                                                                                                                                                                     X+X+X+X+X+X+X+X+X+X+X+X.o.o.o.o.+X+X+X+X+X+o.XX+X+.o.X+Xo.o.o.X+X.o.+Xo.o.+o.o.X++X+X+X+X+X+X+X+X+X+Xo.o.o.o.o.o..o.o.                                                                                      Z                                                                                                              ",
"                                                                                                                                                                                                 X+X+X+X+X+X+X+X+X+X+X+X+.o.o.o.X.o.o.o.+X.o+.o.X+X+X.oo.oo.+X.o+X+X+.o.oX+.o.o.o+X+o.o+X+X+X+X+X+X+X+X+X+X+X.o.o.o.o.o.o.o.o.o                                                                                                                                                                                                 ",
"                        Z                                                                                                                                                                    X+X+X+X+X+X+X+X+X+X+X+X+X.o.o.o+X.oo.o.o.o.o.o.oo.o.+X++X+Xo+X+X.o.X+X+Xoo.o.oX.o.o..o..o.o.X+X+X+X+X+X+X+X+X+X+X+X.o.o.o.o.o.o.o..o.X                                                                                                                                                                                             ",
"                                                                                                                                                                                          X+X+X+X+X+X+X+X+X+X+X+X+X+X+X+X+X+X.o.o.o.o.o.o.o.o.o.oX+XX+X++X+Xo.o.oX+X+X.o.o..o.o.oo.oo.o.o.o.o.X.+X+X+X+X+X+X+X+X+Xo+Xo.o.o.o.o.o.oo.oX                                                                                                                                                                                          ",
"                                                                                           Z                                                                                          +X+X+X+X+X++X+X+X+X+X+X+X+X+X+X+X+X+X+X+.o.o.o.o.o.o.o.o.o.o.o.++XX+X+.o.o.X+X+X+X+X+X+X+X.X+Xo.X.o.o.o.oo.o.+X+X+X+X+X+X++X+X+o+X.o.o.o.oo..o..o.+X                                                                                                                                                                                      ",
"                                    Z                                                                                                                                              X+XX.+X+X+X+X+X+X+X+X+X.+X.o.X+.Xo.o.X+X+Xoo.o.o.o.o.o.oX+.o.o.X+X+X.o.o.X+Xo.o.oX+.+X+X+Xo.oo.X++X++X+X.o.o.o.o.o.oX+X+X+X+XX+X+XX.o+.o.o.o.o.o.oo.o.o.oX                                                                                                                                                                                   ",
"                                                                                                                                                                                +X+.o.o.o.o.o.o.X+X+.X.o.o.oo.o.o.o.o.o.o.o.o..+Xo.X+X+X.o..o+X+X+X+X+X+o.+X+X+.o.o.o.oo.X+X.o.o.o+XX+X+X+X+X+Xo.o.o.o.+X+X+X+X+X++X+X+XX+X+Xo.o.oo.o.o.o.o..o.X                                                                                                                                                  Z                             ",
"                                                                                                                                                                             X+.o.o.o.oo.o.o.o.o.o.o.oo.o.o.o.o.o.o.o.o.o.o.oX+X+X+o.X+Xo.oo..o.o.o.o.o..oo+o.oo.o.o.o..o+X+o.o.o..++X+X+X+.o.+.X+o.o.o.o.o+X++X+X+X++X++X+X+Xo.o..o.o.o.o.oo.o.o.X                                                                                                                                                                             ",
"                                                                                                                                                                          +X.o.o.o.o.o.o.o.o.o.o.o.o.o.o.o.o.o.o.o.o.o.o.o.o.o.o.o.o.o.+o.o.oo.o.o.o.o.oo.o..o.o.oo.o.oo.o.o.o.o.o.oX+X+X+XX+XX+X+Xo.o.o.o.o.o.+X+X+XX+XX+X+X+.o.oo.o.o.o.o.o.o.o.o.+X                                                                                                                                                                          ",
"                                                                                                                                                                        X.o.o.o.o.o.o.o.o.o.o.o.o.o.o.o.oo.o.o.o.X+o.oooooooooooooooooooooooooooooo.o.o..o.oo.o.o..o.o..o.o.X+X.oX+X+X+X+X++X++X+X.o.X+Xo.o.o.o.o.o.++X++X+X+XX.oX.o.o.o.o.o.o.o.oXoX++X                                                                                                                                                                        ",
"                                                                                                                                                                     X.o.o.o.o.o.o.o.o.o.o.o.o.o.o.o.o.o..o++ooo+++++oooooooOooOooOooOooooooooooooooooooooo.oo.o.ooo.ooX.o.o+.oX+X+X+X+X+X+X+XX+X+o.o.o..o.o.X+X.o.o.X+XX+X+X++X+o.oo.oo.o.o.o.o.o..+XX+X+X                                                                                                                                                                     ",
"                                                                                                                                                                  X+.o.o.o.o.o.o.o.o.o.o.o.o.o.o.o.oooooooooo++o@oOoOOOOOOOoOoOoOOoOOoOOOOOOOoOOoOoOoooooooooooooooo.o.oo.o.Xo..o.+X+X+X+X+X+.o.+.o.oo.oo.o.o.X++Xo.X+X++X+X+X+X+X+X.o..o.o.o.o.o.oo.o+X+X+X+X                                                                                                                                                                  ",
"                                                                                                                                                                +X+o.o.o.o.o.o.o.o.o.o.o.o.o.oooooooOooOOOOOOOOOOOOOoOOOOOOOOOOOOOOOOOOOOOOoOOOOOOOoOOOOOoOoOooooooooooooo.X+.o.o.o.o.X+X+X+Xo.o.o.o..o.+X.o.oo.oX+X++X+X+X+X+X+X+X+X.oo.oo.o.o.o..o.o.X+X+X+X+X                                                                                                                                                                ",
"                                                                                               Z                                                             X+.Xo.o.o.o.o.o.o.o.o.o.o.oooooooOoOoOOoOOOoOOOOOOOOOOOOOOOOOOOOOOOOOOOOOOOOOOOOOOOoOOOOOoOOOoOOoOO+ooOoo+++++++ooo.o.X+o.o+X++X+X+X+X+X+Xo.o.o.o.o..o.X+X+XX+X+X+X+X+X++X+oX.o.o.o.o.o.X++X+X+X+X+.X                                                                                      Z                                                                       ",
"                            Z                                                             Z                                                                .o.o.o.o.o.o.o.o.o.o.o.o.ooooooOoOOOOOOOOOOOOOOO#OO#OO#O###O#O#######O#O#O#O#OOOOOOOO@OOOOOOOOOOOOOOoOOoOo@+@+@+++++oo+++X+X+X+XX+.+X+X+X+X+X+Xo.o.oXoo.oo.+X++X+X+X+X+X+X+X+X+.o.o.o.o.o.oX+X+X+X+X+X+.o.                                                                                                                                                           ",
"                                                                                                                                                         X.o.oo.o.o.o.o.o.o.o.ooooooOoOOOOOOOOOOOO#O##O####O########O#####O#O**O##O##O#O#####O#OO#OOOOOOOOOOOOOOOO@@@+@@+@+@+@++++++ooo+X+++XX+X+X+X+X+X+X+X.o..oX+X.oX+XX+X+X+X+X+X+X+X+XXo.o.o.o.o.o.o+X+X+X+X+XX+Xo.                         Z                                                                                                                               ",
"                                                                                                                                                       +.X+oo..o.o.o.o.o.o.oooooooOOOOOOOOOOO#O##O##O###############*######*#############O#O#####O######OO#OOOOOO@@@@@@@@@@@@+@@@+@++++++++o.+Xo.o.X+X+.X++X+X+X..o.oX+X++X+X+X+X+X+X+X+X++X+Xo.o.o.o..o.+X+X+X+X+X+X+Xo.                                                                                                                                                       ",
"                                                                                  Z                                                                  X+X+o..o.o.o.o.o.o.oooooOOOOOOOOO#O############################******####################O#####O#O###O####@@*@@@@@@@@@@@@@+@@+@@+@+++++++++.o.o.o.oo.o+X+X+X+X+X.+X+X+X+X+X+X+X+X+X+X+X+X+X.o.oo.o.o.+X+X+X+X+X+X++Xo.                                                                                                                                                     ",
"                                                                                                                                                  X+X+.o..oo.o.oo.o.ooooOoOOOOOOOO#O#########################*##$#*=*=#$##$#$##$###########################O#O**@*@**@*@@@@@@@@@@@@+@@@@@+@++++++oooo.o..o.o.X+X+X+X++X+X.X+X+X+X+X+X+X+X+X+X+X++Xo..oo.o.oX+X+X+X++X+X+X+X+.X                                                                                                                                                  ",
"                                              Z                                                                                                 X+X.o.o.oo..o.o.ooooOoOOOOOOO#O###############$#$#$$$$$$$$$$$$$$#*$#$$#$#$$#$#$#$$$$$$$#$$#$$#$##############*********@***@@*@@@@@@@@@+@@@+@@+@++oooooooo.o.o.o.o.X+XX+X+X+X+X+X+X+X+X+X+X+X++X+X+X+o..o.o.o.+X+X+XX+X+X+X+X+X+X                                                                                                                                                ",
"                                                                                                                                              +X+o.o.o.o..oo.ooooooOOOOOOO#############$##$$$$#$$$#$#$$#$$#$#$#$$$$$#$$$$#$$$$$$$$$$$$#$$#$$#$#$$$$$#$#$#####***********@**@*@*@*@@@@@@@@@@+@+@+@+oooooooo.o.o.o.o+X+.+X+X++X+X+X+X+X+X+X+X+XX+X+X+XX+Xoo.o.o.+X+X+X++X+X+X+X++X+X                                                                                                                                              ",
"                                                Z                                                                                           X+X.o.o.o.o.oX.oo+oOOOOOO#O#########$#$$$$$#$$$#$$$$$$$$$$$$$$$$$$$$$$$$$$$$$$$$$$$$$$$#$$$$$$$$$$$$#$#$$#$#$$#$$*******************@***@@@@@@@@@@@@@@@OOoooooooo.o.o..+X+X+X+XX.+X+X+X+X+X+X++X++X+X++X+X++X+X+o.o+X++X+X+X+X+X+XX+X++X                                                                                                                                            ",
"                       Z                                                                                                                  +X+.o.o.o.o.o.oo++@OOOO#O#########$#$$#$$$#$$$$$$$$$$$$$$$$$$%$$$$$$$$$$$$%$$$$$$====$$$$$$$$$$$$$$$$$$$$$$$$$$#$$#=====*=***************@****@@*@@@@@+@OOoOoOoOoooooo.o.o+X+X+X++Xo.X+X+X+X+X+X+X+X+X+X+X++XX+X+X+Xo.+XX+X+X+X+X+X++X+X+X+X                                                                                           Z                                              ",
"                                                                          Z                                                              X+.oo.o.o.oXoooo@@@@@@*@*#*####$#$#$$$#$$$$$$$$$$$$$$$$$%$$%$$$%%%%%%%%%%%$$%%%=-%$%$%$%$%$%$$%$$$$$$$$$$$$$$$$$$$$$$$$*==*===*=*************@***@*@*@@@@OOOOOOOoOoOoooooo.X+X+X+X+X.oo.X+X+X+X+X+X+X+X+X+X+X++X+X+X+X+X++X+X+X+X+X+X+X+X+X+X+                                                                                                                   Z                     ",
"                                                                                                                                       X+X.o.o.oo.Xoo@+@@@@@@*******#$$$$$$$$$$%$$$$$$%$$%$%%%%%%$%%$%%%$%$$%$%$%$%%%$%$%%%%%$%%$%$%$%%$%%%$%$%$$%$$$$$$$$$$$$$$$====*==*===*=*=************@*@*@*@@OOOoOOOOoOoOooooooo.X+X.o.o.o.X+X+X+X+X+X+X+X+X+X+XX+X+X+X+X+XX+X+X+X+X+X+X+X+X+X+X+X                                                                                                                                       ",
"                                                                                 Z                                                   X+.o+o.o.Xo++o@+@@@@*******=*==$$=$$$$$$$$$%$%%%$%$%$%%$%$%$%%%%%%%%%%%%%%%%%%%%%%%%%%%%%%%%%%%%%$%%$--%%$%%$%%%%$%$$$$$$$$$$========*==*=*=****************@*@*@OOOOOOOOOoOoOoooooo.oo.o.o.oo.+X+X+X+X+X+X+X+X+X++X+X+X+X+X++X+X+X+X+X+X+X+X+X+X+X+X+                                                         Z                                                                           ",
"                                                                                                                                   X+X+Xo..o.oo+@+@@@*@*****=*=*=====$=$=$$%$%%%$%%$%%%%%%%%%%%%%%%%%%%%%%%%%%%%%%%%%%%%%%%%%%%%%%%%%%%%%%-%%%%%%%%$%$%$%%%%%%$%$$===$$==============*=********@****@*@#OOOOOoOOOOOoOoooooo.o.o.o.o.o.X+X+X+X+X+X+X+X+XX+X+X+X+X+XX+X+X+X+X+X+X+X+X+X+X+X+X+X                                                                                                                                   ",
"                                                                                                                                 X+X++.X.+o.o+@@@@@@*******=*=======$$=$-%%%%%$%%%%%%%%%%%%%%%%%%%%%%%&%%&%%&%%&%%&%%&%%&%%&%%&%%%%%%%%%%%%%%%%%%%%%%%%%%$%$$%$%$%$%$$$$$$$=====*==*==*==**********@****##OOOOOOOoOOoOOoOooooo.o.o.o.o.oX+X+X+X+X+X+X+X+X+X+X+X+X++X+X+X+X+X+X+X+X+X+X+X+X+X+X+                                                                                                                                 ",
"                                                                                                                                X+X+X+X+ooo@+@@@@*******=======-==-%%---%%%%%%%%%%%%%%%%%%&%%&%&&&&&&&%&&%&&%&&%&&%&&%&&%&&%&&%&&&&&&&&&&%&%&%%%%%%%%%%%%%%%%%%%%%%$%%%%%$%$$==========*=====*=****#***@*O####OOOOOOOOoOoOoooooooo.o.o.o.X+X+X+X+X+X+X+X+X+X+X+X+X+X+X+X+X+X+X+X+X+X+X+X+X+X+X+X                                                                                                                     Z          ",
"                                                                                                       Z                      X+X+X+X+.o++O@@@@******========-=-=--%-%%%%%%%%%%%%&%&%&%-&&%&&&&%&%&%&%&&%&&&&&&&&&&&&&&&&&&&&%&&%&%&%&%%&&%&%&&&&&%&%%%%%%%%%%%%%%%%%%$%$%$%%$$%===========*==*==********###OO##O#OOOOOOOoOOoOooooo.o.o.o+X+X+X+X+X+X+X+X+X+X+X+XX+X+X+X+X+X+X+X+X+X+X+X+X+X+X+X+X                                                                                                                              ",
"                                                                                      Z                                     X+X+X+X+Xo++O@@@******=======-=-=--------%--%%&%%&&&&%&&%&&&&&&&%&&&&&&&&&&&&&&&&&&&&&&&&&&&&&&&&&&&&&&&&&&&&&&&&%&%&%&%&&&&&%&%&%%%%%%%%%%%%%%%$%%$$%$$============*===*=**#######O#O#OOOOOOOOOOoOoooooo.oo..o.X+X+X+X+X+X++X+X+X+X+X+X+X+X+X+X+X+X+X+X+X+X+X+X+X+X+X+X                                                                                                                            ",
"                                           Z                                                                               X++X+X+Xo+@@@@*@****========-=------------%;-&%&%&%&%&&&&&&&&&&&&&&&&&&&&&&&&&&&&&&&&&&&&&&&&&&&&&&&&&&&&&&&&&&&&&&&&&&&&&%&%&&%&%&&%&%%%%%%%%%%%%%%%%%$%%$$%$$$$======*=*=#$##########O##O#OOOOOoOoOOoOooooo.o.oo.X+X+X+X+X+X+X+X++X++X+X+X+X+X+X+X+X+X+X+X+X+X+X+X+X+X+X                                                                                                                           ",
"                                                                                                                         X+X+X+X.o+@@@@*****=*=======-----------;-;;&;-;&&&&&&&&&&&&&&&&&&&&&&:&&:&&::&::&::::::::::::::::&::&:&:&:&:&&&&&&&&&&&&&&&&&&&&&&&&&%&%&&&&%&%%%%%%%%%%%%$%%%$%$%$=======$$$$#$$#$##########O#OOOOOOOOOoOoOoooooo.o.o.+X+X+X+X+X+X+XX+X+X+X+X+X+X+X+X+X+X+X+X+X+X+X+X+X+X+X+X                                                                                                                         ",
"                                                                                                                        X++X+X.o@+@@@*****==*====----------;-;;;-;;-&;;;;&&&&&&&&&&&&:&&:&::::&::&::&::&::&:&:&:&:&:&:&&:&::&:::&::&:&:::::&:&;&&&&&&&&&&&&&&&&&&&%&%&&%&&%&%%%%%%%%%%$%%$%$-=======$$#$$#$#$########O#O##OOOOOOOO@OoOoooooo.o.o.o.oX+X++X++X++X+X+X+X+X+X+X+X+X+X+X+X+X+X+X+X+X+X+X+X+X                                                                                                                        ",
"                                                                                                                      X++XX+oo+@@@*******===-=-=-------;--;-;;-;;;;;;;;&&&&&&&:&&:&::&:&::&:&::&:::::::::::::::::::::::::::::::::&::::::&:&:::5::;5;&:&:&&&&&&&&&&&&&&&&&&%&%&%&%%%%%%%%%%%%%---=-===$$$$$$$#$$$$########O####OOOOOOOO+@+ooooo.o.o.o.+X+X+XX+X+X+X+X+X+X+X+X+X+X+X+X+X+X+X+X+X+X+X+X+X+X+X                                                                                                                      ",
"                                                                                                                    X+X+X+.++@@@@*****======--------;-;-;;;;;;;;;&;&;;;&&:&:::&::&::&::::::::::::::::::::::::::::::::::::::::::::::::::&:::::5;::5555:&:&::&:&&&&&&&&&&&&&&&&%&&%&&%%%%%%%%%%-=--=--==$$$$$$$$#$#$$#########O#O#OOOOOO@OOOoOooooo.o.Xo.oX+++X+X+X+X+X+X+X+X+X+X+X+X+X+X+X+X+X+X+X+X+X+X+X+X+                                                      Z                                                             ",
"                                                                                                                   X+X+X.++@@@@*****====-=--------;;-;;;;;;;;;;;&&;;55::5&::&::::::::::::::::::::::::::::::::>:::>:::>::::::::::::::::::::::555:::5;5:::::&:&:::&:&:&&&&&&&&&&&&&&%&&&%&%%%%%%-%%--=--%$%$$$$$$$$$#$$#$##########O#OOOOOoOOoOoooooXo..o..o.+X+X+X+X+X+X+X+X+X+X+X+X+X+X+X+X+X+X+X+X+X+X+X+X+X                                                                                                                   ",
"                                                                                                                 X+X+X.++@@@@****======-------;;;;;;;;;;;;;;;5;5:555;55:::::::::::::::::::>:>:>:>:>:>:>>:>>>::>>::>>::>>:>>>:>>:>:>::>:>::::::5:::5555:&::::::&::&:&:&:&&&&&&&&&%&&&%&&%&&%&%%%------=-%$%$$$$$$$$$$#$#$$#########O#OOOOOOOOoOoOoooooo.oo.o.X+X+X+X+X+X+X+X+X+X+X+X+X+X+X+X+X+X+X+X+X+X+X+X+X+X                                                                                                                 ",
"                                                                                                                ++X+X++@@@@*****=====------;-;;-;;;;;;;;;;55;55;:5;55555:::::::::>::>:>>>::>:>:>:>:>:>:>>>:>>>:>>>:>>>:>>:>:>>:>:>:>>:>::>>:>:5>:::555:::::::::&::::&:&:::&:&&&&&&&&&&&&&%&%&%&%--------%$%%%%$$$$$$$$$$#$#$##########O#OOOOOOOoOoooooo.o.o.oX+X+X+X+X+X+X+X+X+X+X+X+X+X+X+X+X+X+X+X+X+X+X+X+X+X                                                                                                                ",
"                                                                                                               X+X+++@@@@****======------;;-;;;;;;;;5;5555;55555:555555555:>:>:>::>>:>:>:>>:>>>>>>>>>>>>:>>>:>>>>>>>:>>>>>>>>:>>>>>>:>:>>>:>:>::>>:>::5>::::::::::::::::&::&::&:&&&&&&&&&&&&%&%&%%-----%%%%$%$%$%$$$$$$$$$$#$##########O#OOOOOOOoOOooooo.o.o..X+X+X+X+X+X+X+X+X+X+X+X+X+X+X++X++X++X++X++X++X++X+                                                                                                               ",
"                                                                                                             X+X.+++@@@*****====-------;;;;;;;;;5;;5;55;5555555555556556>:>:>:>:>>:>>>>>>>>>>>>>:>>>>>>>>>>>>>>>>>>>>>>>>>>>>>>>>:>>>>>>>:>>>>>:6>>:>>>6:>:>::>::::::::::&:::&:::::&:&&&&&&&&&&&&&&;;-%-%%%%%%%%$%$%$$$$#$$$$$$#***##O####O#OOOOOOoOOoooooo.o.oX+X+X+X+X+X+X+X+X+X+X+X+X+X+XX+X+X+X+XX+X+X+X+XX+X+X                                                                                                             ",
"                                                                                                            X+X+++@@@****=====-----;-;;;;;;;;;5;;55555;55555555656565665:>>>:>>>>>>>>:>>>>>>>>>>>>>>>>>>>>>>>>>>>>>>>>>>>>>>>>>>>>>>>>>>>>>>>:>>>:>>>:65>>:>:>:>:>:::::::::::::&:&&:&::&&&&&&&&&%&%&%&%&%%%%%%%$%$%$%$==$$$#$#$$#=*######O##OOOOOOOOoOOoooooo.++X+X+X+X+X+X+X+X+X++X++X++X+++X+X+X+X++X+X+X+X++X+X+X                                                                                                            ",
"                                                                                                          X+X++++@@****====------;-;;;;;;;;55;5555555555555565656565656>>>>>>>>>>>>>>>>>>>>>>>>>>,>>,>>,>,>,,>,>,>>,>,>,>>,>>,>>>,>>>>>>>>>>>>>>>66>>>6>:>>:>>>>:>:>>:>:>:::::::::::::&:::&:&&&&&&&&&&&%&&&%%%%%%%%%$-%$%$$$$$$$$$$#$###########OOOOOOoOOo++++X.+X+X+X+X+X+X+X+X+X+X+X+XX+XX+X+X+X+X+X+X+X+X+X+X+X+X+X                             Z                                                                            ",
"                                                                                                         X++X+@@@*****====-=---;-;;;;;;5;55;5555555555656656566566666>6666>>>>>>>>>>>,>>,>,>,,>,,>,,>,,>,,>,>,,>,,,,,>,,,,>,,>,,>,>,,>,,>>,>>>>>>>>>>>>>>>>>>>:>>>:>:>:>:>:::55:::::::::&::&:&:&&&&&&&%&&%%&&%%%%%%%%%%$%$%$$$$$$#$$#$$#####O#O#O#OOOOOOoO+@+++oo+X+X+X+X+X+X+X+X+X+X+X++X+X+X+X+X+X+X+X+X+X+X+X+X+X+X+                                                                                                         ",
"                                                                                                        ++X++@@@****====----;-;;;;;;;55;55555555555565656566656666666>>>>>>6>>,>>,,,,>,,>,>,,>,,,,>,,>,,>,,,,>,,,>,>,,>,>,,>,,>,,>,,>,,>,>,>,,>,>,>>>>>>>>>>6>>:>>>>>>>:>:>>>65::::::::::&::&:&:&:&&&&&&&&&&%&&%&%%%%%%%%%$%$%$$$$$$$$#$#*********@OOOOOO@+@+++oo++X+X+X+X+X+X+X+X+X+X+X+X+X+X+X+X+X+X+X+X+X+X+X+X+X+X+X                       Z                                                                                ",
"                                                                                                      X+XX+@@@****===------;-;;;;5;55555555555556566566566666666666666>>,>6>,,>,,>>,>,,,,,,,,,,,>,,,,,,,,,,,,,,,,,,,,,,,,,,,,,,,,,,,,,>,,,,>,,,>,>,,,>,>>>>666>>>>>>>>>>>>>::>>:>>:::::::::::::&:&:&:&&&&&&&&&&&%&%&%%%%%%%%%$$%$$$$$$$$=*=*****#***@@@@@@@@+@+oo++X+X+X+X+X+X+X+X+X+X+X+X+X+X+X+X+X+X+X+X+X+X+X+X+X+X+X+X                                                                                                      ",
"                                                                                                     X+X+@@@@***====-=----;;;;;;5;5555555555566566566666666666666676776,>,77,7,,,,,,,,,,,,,,,,,,,,,,,,,,,,,,,,,,,,,,,,,,,,,,,,,,,,,,,,,,,,,,,>,,,,,,>,,,,,,76,>,>>>>>>>>:>>>>:>>::>>>::>::::::::::&:&:&:&&&&&&%&&%&%&%%%%%%$%%%$%%$$$$#$==*==*****###***@@@@@@@oOooo+X+X+X+X+X+X+X+X+X+X+X+X+X+X+X+X+X+X+X+X+X+X+X+X+X+X++X                                                                                   Z                 ",
"                                                                                                    X+++@@@***=====---;-;;;;5;55555555556566565666666666666667677767677,,,,,77,,,,,,,,,,,,,,,,<,,<,<,<,<,<,<,<,<<,<,,<,,<,,<,,,,,,,,,,,,,,,,,,,,,,,>,,>,>>,>,>,>>,>>>>>>>>>>>>>66665:>>::>:::::::::::&:&:&:&&&&&&&&&%&&%&%%%%%%%$$%%$$====$#$#$#*****#O@*@@@@@+OoOooo++X+X+X+X+X+X+X+X+X+X+X+X+X+X+X+X+X+X+X+X+X+X+X+X+X+X+X                                                                                                    ",
"                                                                                                  +X++@@@@**=*===-----;;;;;;55555555556565656666666666667667767767777777,,,,77,,,,,,,,,<,<<,<<,<<,<,<,<,<<,<<,<<,<<<<,<<,<<,,<<<<<,<,<,<,<,,,,,,,,,,,,,,,,,,>,,,,,,,,>,>,>>>666666666>:>>:>>:>::::::::::&:&:&:&&&&&&&&%&%&%%%%%%%%%$%==$$$$$$$#$#*******@*@*@@@OOoOOooooo.+X+X+X+X+X+X+X+X+X+X+X+X+X+X+X+X+X+X+X+X+X+X+X+X+X+X                                                    Z                                             ",
"                                                                                                 X+++@@@***====----;;;;;55555555556565665666666666666767677677767777777777,,77,<,<<<<<<,<,<<,<,<<<<<<<<<<,<<,<<,<<,<,<<,<<,<<<,,<,<<<,<,<,<,<<,,,,,,,,,,,,,,,,,>,>,>,,>,>,>666666666666>:>>:>:>::::::::::::&:&:&&&&&&&&&&%&&%%%%%%%%--%$$$$$$$$$#=*********@@@@OOOOoOoooooX+X+X+X+X+X+X+X+X+X+X+X+X+X+X+X+X+X+X+X+X+X+X+X+X+X+X                                                                                                 ",
"                                                                                                +X++@@@**====----;;;;;;;5;5555555656665666666666667767767777777777777777,,<,<8,<<,<,,<,<<<,<<<<,<<<,<<,<<<<<<<<<<<<<<<88<<<<<<<<<<<,<8<<,<,<<,<<<<<<,<,<,,,,,,,,,,,,>,,,76777676666666666>>>>>:>>>:>::::::::::&:::&&&&&&&&&%&&&%%%%%-%%%%$%$$$==*====**********@OOOOOOoOoooo+X+X+X+X+X+X+X+X+X+X+X+X+X+X+X+X+X+X+X+X+X+X+X+X+X+X                                                                                                ",
"                                                                                               X++@@@***====---;-;;;5555555565666566566666666677776777777777777787787888<<<<<<<<,<<<<<<<<<<<<<<<<<<<<<<<<<<<<<<<<<<<<<<<<<<<<<<<<<<<<<<<<<<<,<<,,<,<<,<,<,<,,,,,,,,,,,777776776>7767666666>>>:>>:>:>:>::::::::::&5::&&&&&&&&&%%&&%%-%%%%%%$$%$$$$$=*==*=*****@*O#OOOOOOooooo+X+X+X+X+X+X+X+X+X+X+X+X+X+X+X+X+X+X+X+X+X+X+X++X++X+  Z                                                                                            ",
"           Z            Z                                                                     +++@@***====----;;;;;5;555555565656666666666677767677777777777787878878878<,<<,<<<<<<<<<<<<<<<<<<<<<<<<<1<<<1<<1<<1<<<<<<<<<<<<<<<<<<<<<<<<<<<<<<<<<<,<<<,<<,<<<,<,<,,77777777,,,,,676676766>>>>>>>>:>>:>>:>:::::::&:&::&:&&&&&&&&%&-%%%%%$%%%$%$$$$===*=*=*******@*@@@@@@O+Oooo++X+X+X+X+X+X+X+X+X+X+X+X+X+X+X+X+X+X+X+X+X+XX+X+X+X                                                                                              ",
"                                           Z                                                X++@@@***===----;;;;;5555556566666666666667677767777777777778788878788888788<<<<<<<<<<<<<1<1<1<1<11<11111<1<11<11<11<111111111<11<1<1<<<<<<<<<<<<<<<<<<<<<<<<,<<,<<,<,<,<,,,,,,,,,,,,,,77,>,>76>>>>>>>>>:>>:>:>::::::::::&:&:&&&&&&&&&&&&%%%%%%%%$%$%$==$===**=******@**@@@@@@o+@ooo+X+X+X+X+X+X+X+X+X+X+X+X+X+X+X++X++X++X++X++X+X+X+X+                                                                                            ",
"                                  Z                                                        +++@@***====----;;;;55555555656565666666767677677777777777788787878888888888<<<<<1<<1<11<1<<1<1<11<11<1<<11<11<1<1<1<1<<1<<1<<11<11<1<1111111<1<1<1<<<<<<<<<<<<<<<,<<<,<<,<<,<,<,,,,,,,,,>,,>,,>,766>>>>>>>>:>>:>>>:>::::::::&:::&&&&&&%&%&%&%%%%%%%%$%$$=$*===*=*##****@*@@@@@@@+o+o++X+X+X+X+X+X+X+X+X+X+X+X+X+X+XX+X+X+X+XX+X+X+X+X+X+X                                                                                           ",
"                                                                  Z                       X++@@***===----;;;;;5555565666666666666766777777777777878888788888888888888898<1<<1<1<11<111111111<11<11111111111111111111111111<11<111<1<<1<11<1<1<<11<<<<<<<<<<<<<<<<<<,<,<<,<,,<,,,,,,,,,7777676776>>>>66>>>>>:>::>:>::::::::&&:&:&&&&&&&&%&%%%%%%$%$%$$==$$$==*##********@@@@@@@+@+++++X+X+X+X+X+X+X+X+X+X+X++X+++X+X+X+X++X+X+X+X+X+X+X                                                                                          ",
"                                                                                         ++@@@***===---;;;;;5555556566566666666776777777777778787878788888888888888898<11<11<111<111<111<11111111111111111111111111111111111111<1111111<1111<111<1111<1<1<<<<<<<<<<<<<<<<,<<<<,<,,,7777777,,,67676766666>>>>:>>>::>:::::::::&:&:&&&&&&&&%&&%%%%%%%%%$%$===*==$#$#***@*@**@@@@@+@++++++X+X+X+X+X+X+X+X+X+X+XX+XX+X+X+X+X+X+X+X+X+X+X+X+X                                                                                         ",
"                                                                        Z               X+@@***===----;;;;5555556656666666677776777777777878878788888888888889899999891<1111111111111111111111111111111111111111111111111111111111111111119<111<11<<11<1<1<11<<<<<<<<<<<<<<,<,<<,<7,77777,,,,,,7767676666>>>>>>:>>:>:>:::::::::&:&:&&&&&&&%&&%%%%%%$-%$$$$$$$=$#$*******@*@@@@@@+@+++++X+X+X+X+X+X+X+X+X++X+X++X+X+X+X+X+X+X+X+X+X+X+X++                                                                                        ",
"                                                                                       +@@@**===----;;;;5555556656666666667676777777778787878888888888888989989898899111111111111111111111111121121122122122122122121212121211211111111119111111111111111<11<111<1<1<<<<<<<<<<,<<888888,,,,,,,,777777>7676>>>>>>>>:>>:>:>::::&::::&:&&&&&&&&%&%&%-------%%$$$$$===*=******@*@@@@@@+@++++++X+X+X+X+X+X+X+X+X++XX+X+X+X+X+X+X+X+X+X+X+X+X+X                                                                                       ",
"                                                                                      X@@***===----;;;5;5556565666666677776777777778787878888888888898998899899999999111111111111212121212222212212211212212212121212121212122112212111111111111111111<1111<1<1<1<1<<1<<<<<<<<<<<<<778<,<<,,,,,,776767,>,>,>>>>>>>>>:>:>::>::::::&:&::&&&&&&&&&-;---%%%%$$$%$===*==**=***@**@@@@@@@@++++++X+X+X+X+X+X+X+X+X+X++X+X+X+X+X+X+X+X+X+X+X+X+X+X                                                                                      ",
"                                                                                    ++@@@**====--;;;5;55556566666667676677777777878787888888888889898989998999999999111111211212212121212212112122122222122122221222222122121122212122221221212111111111111111<111<11<111<1<<<<<<<8887<<<,<<,<,777777,,,>,>,>,>>>>>>>6>:>>:>>::::::::&:&:&&&;;;;-;-%%%%%%%=-=========***********@@@@@@@++++X+X+X+X+X+X+X+X+X+XX+X+X+X+X+X+X+X+X+X+X+X+XX+X+X                                                                                    ",
"                                                                                   X+@@**====--;;;;;555565666666667677777777778778888888888889898989999999999999999121212121222121222222212222222222222222222222222122222222222122221121221212112112111111111111111111<1<1<1<1<<<<8888<,<<<,<,78,,777,,,,,,,,>,6666666>>>:>::>:>::::::::&&:;;;;;;;;&%%%%------=========******@*@@@@@+@+@++++X+X+X+X+X+X+X+X+X++X+X+X+X+X+X+X+X+X++X++X++X+X+X                                                               Z                   ",
"                                                                                  X@@****==--;-;;;555555666666667767677777778788878888888898989989999899999999999092121221222122222122222222222222222222222222222222222222222222212222222122212222121221212111111111111<111<1<1<1<8888<<<,<<<<<<<<787,,,,,>,7777767666>>>>>>>>:>::::::::5;5;5;;;;;-;&&&----=-=--=====*===*********@@@@@+@@+++++X+X+X+X+X+X+X+XX+X+X+X+X+X+X+X+X+XX+X+X+X+X+X+X                                                                                  ",
"                                                                                 X@@@**===---;;;;5555666666667777777777787888888888888898989899999999999990900000021222222222222222222222222222222222222222222222222222222222222222222222222222122212212121121111111111111111<11<198988<<<<<<<,<,,<7,<,,,,,,7,,,>,>,>>>>>>>>:>:>:>::::::555;5;5;;;;;;-;-;------=-=======*==*****@*@*@@@@@+@+++++X+X+X+X+X+X+X++X+X+X+X+X+X++X++X++X+X+X+X++X++X                                                                                 ",
"                                                                                +@@***==---;;;;5555656666666767677777778788887888888899898999999999999090909099091222212222222222222222222222223232323232323232323232323223222222222222222222222122221222122122121211111111111<11<89898<<<<<<<<<<<,<<,<,<,,,,7,,,,,>,,,>>>>>>>>:>>>:>::555555;5;;;;;;;;;-;------=--=======*=******@*@@@@@@@+@++++X+X+X+X+X+X+XX+X+X+X+X+X+XX+X+X+X+X+X+X+X+X+X+X                                                                                ",
"                                                                               X@@**===---;;;;5555656666767777777778788888788888898998999999999999090090900000002222222222222222323232332333332322323232323232323232322323233323323222222222222222222222122121221211211111111111119989811<1<<<<<<<8<<<87877877,,,,,,,>>,>,>>>>>>>:>>:>:5555555;55;;;;;;-;-;-------=--========*=*****@*@@@@@@+@++++X+X+X+X+X+X++X+X+X+X++X+++X+X+X+X+X+X+X+X+X+X++                                                                               ",
"                                                                              +@@**===----;;5555566666676777777777878878888888989899999999999999009099000009000022222222232323232232323233222332333333333333333333332333233222322322332323232222222222222222222222221221211111111199999<11<1<1<<<8<<<8887887<,,,,,,>,,,>,>,>>>>>>>:>>:>:65555555;555;;;;;;-;;;-----=-=-====*==**********@@@@@+@++++X+X+X+X+X+X+X+X+X+X+X+XXX+X+X+X+X+X+X+X+X+X+X+X                                                                              ",
"                                                                             X@***===--;;;;5555666666776777777788878888888898999899899999990900090000000000000022232323323233232333233323233332333232323232323232323332333233333323323323232323232222222222222212212221212212111111999111<1<1<1<188888888<<,<,<<,,,,,,,,,,>,>,>>>>>>>>>:5655555555;;5;;;;;;;---;-----=-=-=======******@@*@@@@@@+@+++X+X+X+X+XX+X+X+X+X+X+X++X+X+X+X+X+X+X+X+X+X+X+X                                                                             ",
"                                                                      Z     +@@**==---;;;5555566666676777777778778888888889899899999999909090090000000000000000323223232323323333233333333333333333333333333333333333333333333323333332333232332323323232222222222222222221222121211111111111111<<89888<<<<<<<<,<,<,,,,,,,,>,>,>>>>>:>>>>>:56555555555;5;;;;;;-;-------=-=====*===******@**@@@@@@++++++X+X+X+X+X+X+X+X+X+X+X+X+X+X+X+X+X+X+X+X+X+X+X                                                                            ",
"                                                                           X@**===---;;;555566666767777777788878888888989999989999999909900009000000000000q0qq0232333323333233333333333333333333333333333333333333333333333333333332333323333233232323232323222222222222222212212112111111111<1<111<<1<<<<<<<,<<,<,<,,,,,,,,,,>,>,>>>>>6666655655555;55;;;;;;;;;-;-------=-======*==******@@@@@@+@@+++++X+X+X+X+X+X+X+X+X+X+X+X+X+X+X+X+X+X+X+X+X+X++                                                                           ",
"                                               Z                          +@**===---;;;5555666666777777778787888888889899899999999900900090000000000000q0q0qq0q3333323333333333333333333333333333q333434343434343343333333333333333333333333332333333232323232323222222222122122122122121111111111<11<1<1<<<<<,<<<,<<,<,,,,,,,,>,67666666656665655555;55555;;;;;;;;;------=--======*=********@@@@@+@@++++X+X+X+X+X+X+X+X+X+X+X+X+X+X+X+X+X+X+X+X+X+X+X                                                                          ",
"                                                                         X***===--;;;5555666667777777787888888888989989999999990900900000000000000q0qqq0qq0q0q32333333333333333333333334343434434343433343333343343343443343333333333333333333333332333333233232232322222222222222122121121111111111<1<1<<1<<<<<<<<<,<,<<,,,,,,77>,676666666656565555555;5;;;;;;;-;-;-------==-=======******@**@@@@@++++++X++X+X+X+X+X+X+X+X+X+X+X+X+X+X+X+X+X+X+X+X+X+                                                                         ",
"                                                   Z                    +@**===--;;;5555666667677777787888888888989899999999900909000900000000q0q0q0q0qq0qqqqq33333333333333333434434443434343344344344434444434434434334343434434343333333333333333333233323323323232323222222222222122212121111111111111<1<1<<<<<<<<<<,,<,,,,,7777777666666666566565555;5555;;;;;;-;;--------=====*===*****@*@@@@@@@@++++X+X+X+X+X+X+X+X+X+X+X+X+X+X+X+X+X+X+X+X+X+X+X                                                                        ",
"                      Z                                                X@**==---;;;5556666677677778787888888898989999999990009000000000000q0q00q0qqqqqqqqqqqq3333333343434444443434434343444444434434434443434443443444444344434343434434433333333333333333332333323232322322222222222212221212111111111<11<1<1<<<<<<<<,<<,<<,,,777766767666666566565555555;5;;5;;;;;;-;-----=-=-=====*=*=*****@*@@@@+@+@+++X+X+X+X+X+X+X+X+X+X+X+X+X+X+X+X+X+X+X+X+X+X+X                                                                       ",
"                                                                      X**===---;;;5555666676777787788888888898999999999090990000000000q0q00q0qqqqq0qq0qqqqqqq33333443343434334344434434444344444444444444444444444444344344434444344434433444343433333333333333323333332332332322222222221222212121111111<1111<1<1<<<<<<<<<<,,<,777777776776666666656665555555;5;;;;;;;-;;------=-========********@@@@@+@++++X+X+X+X+X+X+X+X+X+X+X+X+X+X+X+X+X+X+X+X+X+X+.                                                                      ",
"                                                                     X***==---;;55566666677777787888888889898999999990990000090000000q00qqq0qq0qqqqqqqqqqqqqq34444344434443444444444444444444444444444444444444444444444444444434443444344343434344344333333333333332333233232323222222222221222212121111111<111<1<1<<<<<<<,<<,<7777777776676666666665565555555;55;;;;;;;-;-------=-====*=*=*****@*@@@@@@+@+++X+X+X+X+X+X+X+X+X+X+X+X+X+X+X+X+X+X+X+X+X+XXo                                                                     ",
"                                                                     ***==--;;;555656676777787878888888898999999999009009000000000q0q0qqq0qqqqqqqqqqwqqwwqwww434334434444444444444444444444444444444444444444444444444444444444444444444444444444344334434343333333333333332332323323222222222212222112111111111111<1<<<<8<<<8<8888777777776777666666665656555555;55;;;;;;-;;------=-========********@@@@@@++++X+X+X+X+X+X+X+X+X+X+X+X+X+X+X+X+X+X+X+X+X+X+                                                                     ",
"                                                                    +*===--;;;555656667777778888888889998999999909090000000000q0qq0qqqq0qqqqqqqqqqwqqqwqqwwqq44444444444444444444444444444444e4e4e4ee4ee4ee4ee44e44444444444444444444444444344434443443434343433333333333333323332323232222222222121221212111111<111<11<<8<<<8878787877777777666766666666565555555;;5;;;;;;;--;-----=-=====*==*****@*@*@@@+@@+++++X+X+X+X+X+X+X+X+X+X+X+X+X+X+X+X+X+X+X+X+X+                                                                    ",
"                                                                   +**=----;;55556667777778877888889898999999990900000000000q0q0q0qq0qqqqqqqqqqwwqqwwwwwwqwww43444444444444444444e4ee4ee4eeee4e4e4e44e4e4e4e44ee4eeeeee4ee4e4e4e44e4444444444444444444444343434434343333333333323233232332322222222222221212111111<111<1198<<<88887887877777777776666665666566555555;55;;;;;;;;------=--=====*==*****@*@@@@@+@@+++X+X+X+X+X+X+X+X+X+X+X+X+X+X+X+X+X+X+X+X+X+X                                                                   ",
"                                                                  +*===--;;5555666767777787888888899999999990009009000000q0q0qqqqqqqqqqqqqqwqwwqqwwqwqwwwwwww444444444444e4ee4eee4e4e4e4ee44e4eeeeeee4e4ee4eee44e4e44e4e44e4e4e44e44e44444444444444444444444344343433433333333333332333232323222222221222121211111111<119<88<<8888887877877777767676666666565565555555;;5;;;;-;-;------========*=******@*@@@@@+++++X+X+X+X+X+X+X+X+X+X+X+X+X+X+X+X+X+X+X+X+X+X                                                          Z       ",
"                                                                 +**=---;;;55566667777778888888899898999999099000000000q0q0qq0q0qqqqqqqqqwqqwqqwwwwwwwwwwwwwww4444e4ee4ee4e4ee4e4ee4eeee4eeeeee4e4e4eeee4eee4eeeeeeeeeeeeeeeee4ee4ee4ee4ee4e4444444444444344434444344343433333333333323323232323222222222222122121111111<1991<88888888887877777777767666666666565555555;5;;;;;;;-;---------=====*==******@@@@@@@@++++X++X+X+X+X+X+X+X+X+X+X+X+X+X+X+X+X+X+X+X+X                                                                 ",
"                                                                +*===--;;5556666777778888888899989999999000900000000q0q0q0qq0qqqqqqqqwqwwqwwwwwwwwwwwwwwwwwwww4ee44e4ee4ee4ee4eeeeeeeeeeeeee4eeeeeeeeeeeeeeeeeeeee4ee4ee4e4e4eeeee4ee4ee44e4ee4ee44444444444444444443443434433333333333333323323232222222222212211211111119818998888888887877777777767766666566565555555;5;5;;;;;;-;----=-========******@**@@@@+++@+++XX+X+X+X+X+X+X+X+X+X+X+X+X+X+X+X+X+X+X+X++                                                                ",
"                                                               +**=---;;555566676777878888898889999999090900000000q0q0q0qqqqqqqqqqqwqwqwqwwwqwwwwwwwwwwwwhwhhwhe4eeee4ee4eeeeee4eeeeeeeeeeeeeeeeeeeeeeeeeeeeeeeeeeeeeeeeeeeeeeeeeeeeeeeeeeee4ee44e4e4e44444444444444444444334443433333333333233232323222222222122121211111191998898888878878887777677767666666656656555555;5;;;;;;;-;----=---====*===*****@*@@@@@@+++++X++X+X+X+X+X+X+X+X+X+X+X+X+X+X+X+X+X+X+X+X                                                               ",
"                                                              +*==---;;55566667777788888888999999999009000000000q00q0qqqqqqqqqwqwqwqwwwwwwqwwwwwwwwhwhwhhwhhwhe4ee4eeeeeeeeeeeeeeeeeeeeeeeeeeeeeeeeeeeeeeeeeeeeeeeeeeeeeeeeeeeeeeeee4ee4ee4eee4eeee4e4e4ee444444444444343444433433433333333333233232323222222222122121211199998998988888888787787777767676666666656565555555;5;;;;;;-;-----=-=-====*=*=*****@*@@@@@+++++XX+X+X+X+X+X+X+X+X+X+X+X+X+X+X+X+X+X+X+X+.                                                              ",
"                                                              *===--;;55556667777887888889989999990099000000000q0qqqqqqqqqqqwqqwqwqwwwqwwwwwwwwwwhwwhwhwhhwhhhheeeeeeeeeeeeeeeereereereererrerrerrerrerrerrerrereerereereereeeeeeeeeeeeeeeeeeeeee4eee4ee44ee4e444444444444434444443434333333333233332323232222222122121211111999989989888888887877777777677766666666565555555;5;;;;;;-;;-----=-=====*=******@*@@@+@@@++++++X++X+X+X+X+X+X+X+X+X+X+X+X+X+X+X+X+XX+X                                                              ",
"                                                             +==--;;;555666777778788889898999999909000000000qqq0qq0qqqqqqqqwqwwqwwwwwwwwwwwwhwhhhwhhhhhhhhhhhhheeeeeeeeeeeeeereeereererrereerererereerererereererrereereereereeeeeeeeeeeeeeeeeeeeeeeeee4eee4e4e4ee444444444444343443434333333333332332323223222222222121212119999998989888888788788777777766766666656565555555;55;;;;;;-;------=-======*=*****@*@@@@+@++++X+XX+X+X+X+X+X+X+X+X+X+X+X++X++X++X+++X+X                                                             ",
"                                                            +===--;;555666767787888888899999990909000000000q000qqqqqqqqqwqwqwqwwwwwwwwwwwhwhwhwhwhhhwhhwhhhhhhheeeeeeererrerrerrrerrrejrrerrrerrererrrerrererrrrerrerrerrerrerrerrerereereeeeeeeeeeeeeeee4ee4eee44e4e4e44444444443443434443433333333333323322322222222212121199999999989988888888878777777776776666666565655555;5;;;;;;;;;-------====*===*******@@@@@@@++++X+X++X+X+X+X+X+X+X+X+X+X+XX+X+X+X+XXX+X+X                                                            ",
"           Z                                               @*==-;;;5556667777878888999999999909000000000qqq0qqqqqqqqqqqwqwqwwwwwwwwwwwhwwhwhhwhhhhwhhhhhhhhhhhhererrrrererrerereerrerrrerrrerrrerrrrerrrerrrrerrrrerrrrerrerrerreererereereeeeeeeeeeeeeeeeeeee4eee4e4e44e44444444444444343433433333333233223322322222222221229999999989988988888787878777777766676666666565555555;5;;;;-;-;----=-=-====*=*=****@**@@@@+@+++++X+X+X+X+X+X+X+X+X+X++X+++X+X.+X+X++X+X++                                                           ",
"                            Z                             @*=--;;;55566677777888888898999999090900000q0q00qqqqqqqqqwqwwqwwwwwwwwwwwhwhwhwhhwhhhhhhhhhhhhhjhjjhjhereererrrerrrrrrrrrrrrrrrrrrrrrrrrrrrrrrrrrrrrerrrrrrrrrerrrrrerrrrrrrerrerrerrereeeeeeeeeeeeeee4eeee4e4e4e4e44444444344443443443333333333332333232222221221210099999998998988888888878777777776766666665656555555555;;;;;-;;--------=====*=*****@*@@@@@@@+++X+X+X+X+X+X+X+X+X+X+X+XXX+X+X+X+X+X+X+XX.                                                          ",
"                                                          *=---;;5566667777888889899999990009000000000qqqqqqqqqqqqwqwqwwwqwwwwwwhwwhwhhhhhhhhhhhhhhhjhjhjhjhhjjjrrrrrrrerrrrerrrrrrrrrrrrrrrrrrrrrrrrrrrrrrrrrrrrrrrrrrrrrrrerrrerererrererrerereerreeeeeeeeeeeeeee4eeee4e4e44e444444444344434343433333333333232323222222220090909999999999898888887887877777777676666666655655555;5;;;;;;;;------=-=======*=*****@*@@@@++++++X+X+X+X+X+X+X+X+X+X+X+++X+X+X+X+X+X++X++o                                                         ",
"                                                         @=---;;55566677777888888999999099900000000qqq0q0qqqqqqqwwqwwwwwwwwwwwwhwhwhhwhhwhhhhhhhhhjhhhjhjhjjjhjhjerrerrrrrrrrrrrrrrrrrrrrrrrrrrrrrrrrrrrrrrrrrrrrrrrrrrrrrrrrrrrrrrrrrrrrrerrerrrreerrrerereeeeeeeeeee4eeeeee4ee4e4444444444444343443433333333332323323222200009009099998998998988888888878777777677666666666565555;555;;;;-;;;----=---=====*=*****@*@@@@@@+++++X+X+X+X+X+X+X+X+X+X+XX+X+X+X+X+X+XX+X+X                                                         ",
"                                          Z             @==--;;556666777788888999999999090000000qqq0qqqqqqqqqwwwqwwwqwwwwwwhwhhwhhhhhhhhhhhhhjhjhjhjjjhjjjjhjjjjjrrrrrrrrrrrrrrrrtrrrtrrtrtrtrtrtrtrtrtrtrtrtrtrrrrrrrrrrrrrrrrrrrrrrrrrerrrrrrererreerereeereeeeeeeeeeeee4e4ee4e4e4e444444444443433433433333332333232223220000009090999999998989888888788778777777676666665656555555;5;5;;;;-;-;----==-=====*=******@*@@@@+@+++X+X+X+X+X+X+X+X+X+X+X+X++X++X++X+++X+X+X                                                        ",
"                                                       @==--;;555666777788888989999990900000000q00qq0qqqqqqqwqqwwqwwwwwwhwhwhhwhhhhhhhhhhhhhjhhjhjjjhjjjjjjjjjjjjrrrrrrrrrrrrtrtrrrtrrtrtrrtrtrtrtrtrtrtrtrtrtrtrtrtrtrtrtrrrrrrrrrrrrrrrrrrrrrrrrrrrerrerrrererereeeeeeeeeeee4ee4e4e44e44444444444444433333333332332333200000000000909099999999899888887888777777777676666666565655555;5;;;;;;-;------=-=====*==*****@@@@@@@+++++X+X+X+X+X+X+X+X+X+X++XX+X+X+X+XXX+X+X+X                                                       ",
"                                                      @==--;;55566677788888999999990000000000qq0qqqqqqqqqwwwqwwwwwwwwwwhwhwhhwhhhhhhhhhjhjjjhjjhjjhjjjjjjjjjjjjjjjjjrtrtrtrttrtrttrtrtrtrttrtrtrtrtrtrtrtrtrtrtrtrtrtrtrtrrtrtrtrtrrrrrrrrrrrrrrrrrrrrrerrerrerereereeeeeeeeeeeeee4ee4e44e4444444444334344333333333333220q0q0000000900909099999998889888887888777777776766666566655555555;5;;;;;;-;-----========********@@@@+@+++++X+X+X+X+X+X+X+X+X+XX++X+X+X+X+++X+X+X+.                                                      ",
"                                                      ==--;;5566667777888898999999090900000q0q0qqqqqqqqwqwqwwwwwwwwwhwhwhwhhhhhhhhhhhjhjhjhjjhjjjjjjjjjjjjjjjjjjkjkjkjrtrtrtrtrtrtrttttrttrtttrtttttrtttttrttttrttrtrtrtrttrtrtrtrrtrtrtrrtrrrrrrrrrrrrrrrrerrrerererereeeeeeeeeeee4eeeeee4e44444444444443434333333333qqq0q0000000000009099999989998988888878788777767767766666566565555555;;;;;;;;--------====*==*****@*@@@@+@@++++X+X+X+X+X+X+X+X+X+X+X+X+X+X+XX+X+X+X+X                                                      ",
"                                                     @=--;;5556667778888899999990090000000q0qqqq0qqqqwwqwwwwwwwwwwhhwhhhhhhhhhhhhhjhjhjhjjjhjjjjjjjjjjjjjjkjkjkkjkjkjkktrttrttttrtttrttttrttrtttrtrtttrtrtttrttttrtttttrttrtrtrtrttrtrtrrtrrtrrrrrrrrrrrrrrrrerrrerrereerreeeeeeeeeee4e44e4e4e4444444434344343433333qqq0qq0qqq0q000009009009999999998989888888878777777776666666656565555;5;5;;;;--;------=-=====*=******@*@@@@+++++X+X+X+X+X+X+X++X++X+X+X+X+X++X+X+X+X+X+      Z                                              ",
"                                                    @=--;;556666777888889999999090000000q0qq0qqqqqqqwqwwwqwwwwwwhhwwhhwhhhhhhhhjhjhjhjjjjjjjjjjjjjjjjkjkjkjkjkjkjkjkkjkjkrttttrttrtttttttttttttttttttttttttttrtttttrtrttrttttrttttrtrtrtrtrtrrtrtrrrrrrrrrrrrrrrrrrrerrereerereeeeeeeeeeeeeee4e4e4444444444434334333qqqqqqqq00q0000000000090090999899989888888887887777767777666666656555555555;;;;;;;-----=-========*****@@@@@@@+++++X+X+X+X+X+X+X+XX+X+X+X+X+X+X+X+X+X+X+X                                                  Z ",
"                                                   @=---;55566677788889998999009000000q0qqq0qqqqqwwwqwwwwwwwwhwhwhhhhhhhhhhhjhjhjhjjjjhjjjjjjjjjkjkjjkjkjkjkjkkkkjkkkkkkkktttrttttttttttttttttttttttttttttttttttttttttttttttrttrtrttttttrtrtrtrtrrtrtrrrrrrrrrrrrrrrrrerrerereereeeeeeeeee4e4ee4e4e4444444344444343qqqqqqq0qqq0qq0q000000009090999999899898888888787877777666766665656565555;5;;;;;;-;-------=-====*********@@@@+@++++X+X+X+X+X+X+X+X+X+X+X+X+X+X+X+X+X+X+X+X                                                   ",
"                                                   =--;;55566677788888899909090000000q0q0qqqqqqqwqwqwwwwwwwhwhwhhwhhhhhhhhhjhjhjjjjhjjjjjjjjjjkjjjkjkjkjkkkjkkkjkkkkjkkkkkttttttttttttttttttttttttttttttttttttttttttttttttttttttttttrtrttttrtttrttrtrtrtrrtrrrrrrrrrrrrerrrrerrerereeeeeeeeeeeeee4e4e444444444434qwqwqqqqqqqqqqq0q00000000009090909999899889888888788777777776766666665655555;555;;;;;;;-------========****@*@@@@@@+++++X+X+X+X+X+X+X++X+X+X+X+X+X+X+X+X+X+X+                                                   ",
"                                                  @---;;556667778888999999909000000q0qqqqqqqwqwwqwwwwwwwwwhwhwhhhhhhhhhjhjjhjjjjhjjjjjjjjjjkjkjkkkjkkjkkkjkkkkjkkkkkkkkkkkttttttttttttttttttttttttttttttttttttttttttttttttttttttttttttttrttttrtrtrtrttrtrtrrtrrrrrrrrrrrrrerrrerereereeeeeeeee4eee4e4e4e4444444wwwqwqwqwqqqqq0qqq0qqq0000000000909999999999889888888787777777766766665665655555;5;5;;;;-;----==-=====*=******@*@@@+@++++X+X+X+X+X+X+X+X+X+X+X+X+X+X+X+X+X+X+XX                                                  ",
"                                                 *=--;;556667778889899999090000000q0qq0qqqqqqwqqwwwwwwwhwhwhhhhhhhhhhhjhjjhjjjjjjjjjjjjjkjkjkjkjjkkjkkjkkkkkkkkkkkkkkkkkkkttttttyytyytyytyytyytyytyytyytyytyytyytyttyttyttttttttttttttttttrttttttrtttrtrtrrtrtrtrrrrrrrrrrrrrerrrerrrereeeeeeeee4ee4e4e44444444wqwwwwqwqqqqqqqq0qqq00q0q00000900909099999899988888888887877776777666666656555555;5;;;;;;;;;----=--====*=******@@@@@@@++++X+X+X+X+X+X+X+X+X+X+X+X+X+X+X+X+X+X++X                                                 ",
"                                                 =--;555666777888899999000000000qq0qqqqqqqwqwwwwwwwwwwhwhwhhwhhhhhhjjjhjhjjjjjjjjjjjkjkkjjkjkkjkkkjkkkkkkkkkkkkkkkkkkkklkltyytyyttytytytyttytytytyttytytytyttytytytyttyttytttttttttttttttttttttttttrttttrttrtrtrrtrtrrrrrrrrrrrrerrererereeeeeeeeeeeee4ee4e444wwwwwqwwqwwqwqqqqqq0qqqq0q0000000000909099999898998888878787777777676666656656555555;5;;;;-;-------========*******@@@@+@++++X+X+X+X+X+X+X+X+X+X+X+X+X+X+X+X+X+X+X                                                 ",
"                                                *--;;55666777888989999990900000q00qqqqqqwqqwwqwwwwwwhwhwhhhhhhhhjhjhjhjjjjjjjjjjjjkjjkjjkkkkjkkkkkkkkkkkkkkkkkkklkllklklklkttyytylytyytytyyytyytytyyytyytytyyytyytytytytytyytyytytyttyttttttttttttttttrtttttrtrttrtrrtrtrrrrrrrrrrerrrrrerereeeeeeee4eee4ee4ewwwwwwwwwwwwqwqwqqqqqqqq0q0qq0q0000900909099999998988888888788777777677666665665655555;5;;;;-;;;---=---====*==****@*@@@@@@++++X+X+X+X+X+X+X+X+X+X+X+X+X+X+X+X+X+X+X                                                ",
"                                               *=-;;55566777888899999000000000q0qqqqqqqqwqwwqwwwwwhwwhhhhhhhhhhhjhjjhjjjjjjjjjjkjkjkkjkkjkjkkkkkkkkkkkkkklklklklklklkllkllkyyytyylkllyyyyytyyytyyyytyyytyyyytyyytyyyyytyyytytytytyttyttytttttttttttttttttrtttrttrtrtrrrrtrrrrrrrrrrrererrererereeeeeeeeee4e4ewhwwwwwwwqwwwqwqwqqqqqqqqqq0q000q0000000990999999989898888887787777777667666665655555555;;;;;;---;---==-=====*******@*@@@+@+++X+X+X+X+X+X+X+X+X+X+X+X+X+X+X+X+X+X++X                                               ",
"                                              *=-;;556666777888999990900000q0qqqqqqqqqqwqwwwwwwwhhwhhhwhhhhhhjjhjjhjjjjjjjjjjkjkjkjkjkkkkkkkkkkkkkkkkklklkkklklkllkllkllkllytyyyyllllllyyyyyyyyyyyyyyyyyyyyyyyyyyytytyyytyyyytytytyytyyttytyttttttttttttttrtttttrttrtttrtrtrtrrrrrrrrrrerrrrereereeeeeeeeeee4whwhwwwwwwwqwwwqwqwqqqqqq0qq0qqq00000000090909999999989888888878877777767666666566655555555;;;;;;------=-===*===*****@@@@@+@++++X+X+X+X+X+X+X+X+X+X+X+X+X+X+X+X+X+X+X                                              ",
"                                              *-;;;5566777888899990000000000qq0qqqqqwwwqwwwwwwhwwhhhhhhhhhjhjhjjjhjjjjjjjkjkkjkjkkkkkkjkkkkkkkkkkklklkklklllklllllllklllllllyyyyyllllllyyyyyyyyyyyyyyyyyyyyyyyyyyyyyyyyyyytytyyyyyttyytyytytytyytttttttttttttttrttrttrrtrtrtrrtrrrrrrrrrrerrrerreereeeeeeeeeehhwhwhwwwwwwwwqwwqwqqqqqqqqqqq00q0q00000009099099998998898888887777777677676666665556555;5;;;;;;-;------======*********@@@@@+@++X+X+X+X+X+X+X+X+X+X+X+X+X+X+X+X+X+X+X                                              ",
"                                             *--;;556667788889999099000000qq0qqqqqwqqqwwwwwwhwwhhwhhhhhhhhjhjjhjjjjjjjjkjkjjkjkkjkjkkkkkkkkkkkklklklklllllklllllklllllllllllyyyyyllllllyyyyyyyyyyyyyyyyyyyyyyyyyyyyyyyyyyyyyyyyytyyyytyytyytytyttytytttttttttttttttttttttrtrtrtrtrrjjrrjjrjerreerreereeeeeeeewhhhwhwhwwwwwwwqwwqwwwqqqqqqqqqq0q0000000009009999999999888887888887777777766666666655555;555;;;;-;;---=---=======***@*@@@@@@++++X+X+X+X+X+X+X+X+X+X+X+X+X+X+X+X+X+X+X                                             ",
"                                            *--;;56667778888999909000000qq0qqqqqqqwwwwwwwwwwhwhhhhhhhhhjjjhjjhjjjjjjkjjkjjkkjkkkkkkkkkkkkklklkllkllllklklkllllklllllllllllllyyyyyllllllyyyyyyyyyyyyyyyyyyyyyyyyyyyyyyyyyyyyyyyyyyyyyyyytyyyytyytyytytytyttttttttttttttrttttrkjkjkjjkjjjjjjjjjrrrrerrerereeeeeehwhhwhwhwhwwwwwwwwqqwqwqqqqq0qqq0qq0q00000009090999998989988888877877777667666665656555555;;;5;;;;--;---===-===********@@@@+@@+++X+X+X+X+X+X+X+X+X+X+X+X+X++X++X++X++.                                            ",
"                                            *-;;55566777888999090000000q0qqqqqqqwqwqwwwwwhwhwhhhhhhhhjhjhjjjjjjjjkjkjjkjkkjkkkkkkkkkkkkklkklklkllklkllllllllllllllllllllllllyyuuyzzlzzluyuuyuuyuuyuuyuuyuuyuuyuyuyyuyyyyyyyyyyyyyyyyyyyyyytyytyytyytytytytyttttttttttttttrtttrtkjkjkjjkjjjjjjjrrrrjjhereeeeeeehhhhhwhwhwwwwwwwwwwwqwqwqqqqqq0qqq0q000000000909099999999898888888787777776776666566565555555;;;;-;;-------========**@***@@@@++++++X++X+X+X+X+X+X+X+X+X+X+X+X+X+XX+X+X            Z                               ",
"                                           *-;;5566677888899999000000qq0qqqqqqwqwwwwwwwwwhwhhhhhhhhjhjjhjjjjjjjjjjkjkkkjkkkkkkkkkkkkklkllklkllllkllllllllllllllllllllzlzzlzzlyyuyllzlzlzuyyuyuyuyuyyuyuyuyuyyuyuyyuyyuyuyyyyyyyyyyyyyyyyyyyyyyyyyytytyytyyktykkkkkktkkkttttrtttkjkjkjkjjkjjjjjjjjjjhjjerrereeehhhhhhhhwhwhwwwwwwwwwqwqwqwqqqqq0qq0qq000000000099099998998988888887878777776666666565565555;5;;;;;-;-----=-=====***=**@@*@@@@@+++X+X+X+X+X+X+X+X+X+X+X+X+X+X+X+X+X+X+.                                           ",
"                                          *--;;556677788899990000000q0qqqqqqqqwqwqwwwwhwhwhhhhhhhhjhjhjjjjjjjjkjkjkjkjkkkkkkkkkkkkklklklkllllkllllllllllllllllllzzlzlzlzlzllzuuyuuzzzlzzyuuuyuuyuyuuuyuuyuyuuuyuyuyuuyuyuyuuyuyuyyuyyyyyyyyyyyyyyyyyytyyytllklllklkkkkkkttttkkttkjkkjkjkjjkjjjjjjjjjjhjererereehhhhhwhhhwhwhwwwwwwwwwwqwqqqqqqq0qqq0q0q0000090009999998999898887887877777677766666566555555;55;;;;-;;------=======******@@@@@@+++X+X+X+X+X+X+X+X+X+X+X+X+X+X+X++X+X+X                                           ",
"                                          *-;5556677788899990090000q0qqqqqqwwwqwwwwwwwhwhhhhhhhhjjhjjjjjjjjjjkjjkkjkkkkkkkkkkkklkllklkllllkllllllllllllzllzzlzzzllzlzlzzlzzzlzluuyuluzzluuyuuuyuuuuyuuuyuuuuyyuuyuuyuuyuuyuyuyuyyuyyuyyyyyyyyyyyyyyyyyytylkllkklklklkkkkkkkkkkkkkkkjkjkjkkjjkjjjjjjjjjjhrrerereehhhhhhwhhwhwhwwwwwwwqwwqwwqwqqqqq0qq0q0000000090900999998989888888878777777667666666565555555;5;;;;;--;--=-=-====**=***@*@@@@+@++++X+X+X+X+X+X+X+X+X+X+X+X+X+X+X+X+X+X                                          ",
"                                         *-;;55667778889990900000q0qq0qqqqqqqwwwwwwwhwhhhhhhhhhjhjjhjjjjjjjkjjkkjkkjkkkkkkkkkkklklklllllllllllllllllzlzllzlzlzllzzzzzzlzzzlzzzzzuuuuzzzuzuuuuuuuuuuuuuuuuuuuuuyuuuuuyuuyuuyuyuyuuyuuyyuyuyyuyyyyyyyyyyyllllkllllklklklklkkkkkkkkkkkkkkkkjkjkjkjkjjjjjjjjjrrererehhhhhhhhhhhhwhhwwwwwwqwwwqwqqqqqqq0qq0qq0q0000000909999999989988888878877777767766666666555555;5;;;-;;------=======*****@*@@@@@@++++X+X+X+X+X+X+X+X+X+X+X+X+X+X+X+X+X+.  Z                     Z                ",
"                                         -;;556667788899999000000qqq0qqqqwwwwwwwwwhhwhhhhhhhjhjjjjjjjjjjjkkjkkjkkkkkkkkkkklklllkllllklllllllllllzlzllzlzzlzlzzlzzzlzlzzzzzzzzlzzzuuuuzzzzzuuuuuuuuuuuuuuuuuuuuuuuuyuuuuuuyuuuyuyuuyyuuyuyuyyuyyyyyyylllllllllklllklklklkklkkkkkkkkkjkkjkjkjkjjkjjkjjjjjjjrerrrerhjhhhhhhhwhhhwwhwhwwwwwqwwwqwwqqqqqqqq0q00000000009099999999889888888877877777667666656565555;5;5;;;;-;-------=====*=*****@*@@+@++++X+X+X+X+X+X+X+X+X+X+X+X+X+X+X+X+X+X                                         ",
"                                        *-;55666777889999000000q0q0qqqqqwqqwwwwwwhwwhhhhhhhjhjhjhjjjjjjjkjjkjkkjkkkkkkkklkklklklllllllllllllllzllzlzlzlzlzzzlzzzzzzzzzzzzzzzzzzzzuuuuzzzzzuuuuuuuuuuuuuuuuuuuuuuuuuuuyuuuuuuuuuuyuuuyuuyuyuuyuyuyuyylllllllllllkllllllkllklklkkkkkkkkkkkkkkkkjkjkjjjjjjjjrrrerrrejhjhhhhhhhwhhhwhwwwwwwwwqwwqqwqwqqqqqq0qqqq0000000009099999998988888788777777776766666656555555;5;;;;;;----=-======*=*****@@@@@@@+++X+X+X+X+X+X+X+X+X+X+X+X+X+X+X+X+X+.                                        ",
"                                       *;;;5566778888999000000qqqqqqqwqwwwwwwwwhhwhhhhhhhjjhjjjjjjjjjkkjkjkkkkkkkkkkkklkkllkllllllllllllllzlzzlzzlzzzzzzzzlzzzzzzzzzzzzzzzzzzzzzzuuuuuzzzzzuuuuuuuuuuuuuuuuuuuuuuuuuuuuuuuuuuuuuuuuuuyuuyuuyuyuyullzlllllllllllllllklllkllklkklkkkkkkkkkkjkjkkjkjkjkjjjjjrrrrrerrhjhjhhhhhhhhhhhwhwhwwwwwwwqwwqwqqqqqqqqq00q000000090909999999988988888787777777766766656565555;5;;5;;-;-;-----======*****@**@@@++++++X+X+X+X+X+X+X+X+X+X+X+X+X+X+X+X+XXo                                       ",
"                                       *;;5566777889999090000q0q0qqqqwqwqwwwwwwwhhhhhhhjhhhjjjjjjjjkjjkjkkkjkkkkkkklklkllklllklllllllllzlzlzllzzlzzzlzzlzzzzzzzzzzzzzzzzzzzzzzzzzuuuiuzxxzxzziuiiuiuiuuiuuuuuuuuuuuuuuuuuuuuuuuuuuyuuuuuuyuuyuuulzzlzzlzlzlllllllllllkllkllkllklklkkkkkkkkkkjkkkkjkjkjkjjjrrrrrrerjjhjjhhhhhhhwhhwhwhwwwwwwwwwwwqwqqqqqqqqq0q0q0000000900999998998988888887877776776666666565555555;;;;;;----=---=======***@*@@@@@@++++X+X+X+X+X+X+X+X+X+X+X+X+X+X+X+X+X+                                       ",
"                                      *;;556667788899900000q0qqqqqqqqwqwwwwwhhhhwhhhhhhjhjjjjjjjjkjjkkjkkjkkkkkkklklklllllllllllllllzlzlzlzzzzzzzzzlzzzzzzzzzzzzzzxzzxzzxzxxzxuuiuiuiuzxzxzxxziuuiuiuiuuiuiiuiiuiuuuuuuuuuuuuuuuuuuuuuuyuuuyuuyyzlzllzlzlllzllllllllllllllkllklklkklkkkkkkkkkkjkjkkjkjkjkjrrrrrrrrehjhjhjhhhhhhhhhwhwhwhwwwwwqwqwqwqqqqq0qqq0q000000000990999999898898887878777777676666666565555;5;;;;;;;;----==-===*=**=***@*@@@@+@++X+X+X+X+X+X+X+X+X+X+X+X+X+X+X+X+X+.                                      ",
"                       Z              ;;55666778889999900q00q0qqqqqwqwwwwwwhwwwhhhhhhhjhjjjjjjjjjjkkjkkkkkkkkklklklklllklllllllllzlzlzlzzzzzlzlzzzzzzzzzzzzzzzzzxzzxzzxzxzxzxzxuiuiuiuixzzxzzxuiiuiuiuiuiuiuiuuiuiiuiiuiuiuuuuuuuuuuuuuuuuuuuuuuzzzzzlzlzzzlllzlllllllllllllklllkllkklkkkkkkkkkkkkkkjkjkjjtrrrrrrrrjjjhjhjhhhhhhhhhhhwhwwwwwwwwwwqwqwqqqqq0qq0qqq0000000090999999899888888878877777677666656655555555;;;-;-;----=-======******@@@@@@++++X+X+X+X+X+X+X+X+X+X+X+X+X+X+X+X+XX                                      ",
"                                     =-;556677888999000000qqqqqqqwwwwwwwwwhwhhhhhhhjjjhjjjjjjjkjkkjkkkjkkkkkkkklkllllkllllllllzlzlzlzzzzlzlzzzzzzzzzzzzzxzzxzxxzzxzxzxzxzxzxxxxxiiuiiiuixxzxxxzuiuiuiiiiuiiuiiiuiuuiuiuiuuuiiuiuuuuuuuuuuuuuuuuuzlzlzzzlzllzzlzlzlllllllllllllkllklklkklkkkkkkkkkjkkkjkjkkjrtrrrjjrrjjjhjjhjhhhhhhhwhhwhwhwwwwwqwwwqwqwqqqqqqq000q00000090090999999898888888778777777667666656555555;5;;;;;;-;----=-===*==******@@@+@++++X+X+X+X+X+X+X+X+X+X+X+X+X++X++X++.                                     ",
"                                    =;;55667778889999000q0q0qqqqqqwqwwwwwhwhhhhhhhjhhjjjjjjjkjjkjkkjkkkkkkklkllkllklllllllllzllzlzzzlzlzzzzzzzzzzzzzzxzxzzxzxzzxxzxzxxxxxzxxxzxzxiiiuiiizxxxzxxxiiiiuiuiiuiiuiuiuiiiiuiuiiiuiuuiuiuiuuiuuuuuuuuuzzzzzlzzlzzzlzlzllzlzllllllllllkllkllllklklkkkkkkkkjkkkkjjkjrtrrrrrrjhjjhjhjhjhhhhhhhhhwhwhwwwwwwqwwqwqqqqqqqqqq0q0q000000909099999989988878887877776776666665665555555;;;;;;------======*=****@*@@@@@@++X++X++X+X+X+X+X+X+X+X+X+X+X+XX+X+X.                                    ",
"                                    =;55666778899990000q0qqqqqqwwwqwwwwhhwhhwhhhjhjhjjjjjjjjkjkkkkkkkkkkklklklllllllllllllzlzzzlzzlzzzzzzzzzzzzzzzxzxzzxzxzxxxxzzxxxxzxzxxxzxxxxxxxxiiiiixxxxxxxxxiiiiiiiiiiiiiiiiuiuiiuiuuiuiuiuiuuiuuuiuuuuuuuzzzzzzzzzzlzlzzlzzlzllzlllllllllllllkklklkklkkkkkkkkkkjkkkjkkrrtrrrrjjjjjjjhjhjhhhhhhhhhwhwhwhwwwwwwwqwqwqqqqqqqq0q00000000090999999998898888887787777676666666555555;5;5;;;-;-;-----====*=*****@*@@@++++++X+XX+X+X+X+X+X+X+X+X+X+X+X++X+X+o                                    ",
"                                   =;;5566778889990000q0qqqqqwqqqwwwwwhwwhhhhhjhjhjjjjjjjkjkjkjkjkkkkkkklklklllklllllllzzllzlzlzzzzzzzzzzzzzzzxzxzxzxzxzxxxzxzxxxxzxxxxxxxxxxxxxxxxxxiiiiixxxxxxxxiiiiiiiiuiiiuiiiiiiuiiiiiiiiiuiuiiuiuiuuiuuiuuzzzzzzzzzzzzzlzzlzlzlzlllzlllllllllllllkllklklkkkkkkkkkjkkkjkjrtrtrrjjjjjjjjhjhejhhhhhhhhhhhwwwwwwwqwwqwqwqqqqq0qq0q0q00000009009999989988888878877777767766666656555555;;;;;-;---=-=-====*=*****@@@@@@@++++X+X++X+X+X+X+X+X+X+X+X+X+X+X+X+X.                                   ",
"                                   -;5566778889990000q0qq0qqqqwwwwwwwhwhhhhhhhhjhjjjjjjjjkjkkkkkkkkkkkllkllllklllllllzllzlzzzzzzzzzzzzzzzxzxzxzxzxzxzxxxxzxxxxxxxxxxxxxxxxxxxxxxxxxxxxiiiixxxxxxxiiiiiiiiiiiiiiiiiiiiiiiiiuiuiuiiiuiiuiuiiuiuuiuuzzzzzzzzzzzzzzlzlzzlzlzzllzllllllllllllkllklklkkkkkkkkkkkjkkjtrtrrtjjjjjjhjjjjhhjhhhhhwhhwwhhwwwwwwwwwqwqwqqqqqqqq0q0q000009009909999989888888878777777766766656565555;55;;;;;-;----=-=====*=*****@@@@+@++++X+X+X+X+X+X+X+X+X+X+X+X+X+X+X+Xo                                   ",
"                                  =;5566778889999000q0qqqqqqwwwwwwwwhwhhhhhhhjjhjjjjjjjkjkjkjkkkkkkklklkllklllllllzlzlzlzzlzzlzzzzzzzzzzxzzzxxzxxzxxxzxzxxxxxxxxxxxxxxxxxxxxxxxxxxxxxxiiiixxxxxxxiiiiiiiiiiiiiiiiiiiiiiiiiiiiiiiuiiiuiiiuuiuiiuiuxzzxzzzzzzzzzzzzzlzzzzlzlzlllzllllllklllklklklkllkkkkkkkkkkkkkktrtrkjjjjjjjhjhjjhhjhhhhhhhhhwhhhwwwwwwwwwqwqqqqqqqqqq0q000000900999999989988888878877776776666665655555;5;;;;;;-;----=-=====*****@*@@@@@+++X+X+X+X+X+X+X+X+X+X+X+X+X+X+X.+X+.                                  ",
"                                  ;;5566778899900000q0qqqqwwqwqwwwhhwhhhhhhjjhjjjjjjjkkjkkkkkkkkkklkllkllllllllllllzlzzzzlzzzzzzzzzzxzxzxzxxxzxxzxxzxxxxxxxxxxxxxxxxxxxxxxxxxxxcxxcxcxxipixcxcxcxxxiiiiiiiiiiiiiiiiiiiiiiiiiiiiiiiiuiiuiiiuiiuuzxzxzzzxzzzzzzzzzzzzzlzlzlzlzzlllzllllllllllllkllkklklkkkkkkkjkjktrtrjjkjjjjjjjjjhjjhhhhhhhhhhhwwwhwwwwwwqwwqwqqqqqq0q0q00q000000909999999988988888877877776766666656555555;5;;;;;------=====*==****@*@@@+@++++X+X+X+X+X+X+X+X+X+X+X+X++X++X+Xo                                  ",
"                                 =;556677888899000q0qqqqqwqqwwwwhwwhhhhhhhjhhjjjjjjkjjkjkjkkkkkkklklkllllllllllzlzzlzzlzzzzzzzzzzzxzzxzxzxxzxxxxxxxxxxxxxxxxxxxxxxxxxxcxccxccxcxxcxxxcipipixxcxxcxcxpippippipipiiiiiiiiiiiiiiiiiiiiiiiiiuiiiuiixzxzxxzzxzzxzzzzzzzzzzzzzzzzllzzzllllllllllllllkllklkkkkkkkkkkkkjkrtkjkjkjjjjjjjjjhjhjjhhhhhhwhhhwhwhwwwwwqwwwqwqqqqqqq0qq000000009009999989988888878877777777666666566555555;;;-;;;------====*=******@@@@+@+++X+X+X+X+X+X+X+X+X+X+X+X+X+XX+X+o.                                 ",
"                   Z             ;55667788899090000qqqqqwqwwwwwwwhhwhhhhjhhjjjjjjjjkjkjkkkkkkkkllkllllkllllllzlzlzzzzlzzzzzzzzxzxzxxxxxxxxzxxxxzxxxxxxxxxxxxxxxcxccxcxxxcxcxxcxccxcccxpipipccxccxcxcxpiipiipiiipippipiiiiiiiiiiiiiiiiiiiiiiuiiixxzxzxzxzzxzzxzzzzzzzzzzzlzzzzlllzzlzllllllllllllkllkllklkkkkkkkkkkjkkjkjjkjjrjjjjjjjhjhjhhhhhhhhhwhwwhwwwwwqqwqwqqqqqqq0q0q00000000909999998988888887877777676766656655555;;5;;;;-;-----=-=====*=***@*@@@@@++++X+X+X+X+X+X+X+X+X+X+X+X+X++X+X.o                                 ",
"                                =;556677789990000qqqqqqqqwwwwwwwhwhhhhhhhjjjjjjjjkjkjkkkkkkklklkkllkllllllzlzlzlzzlzzzzzzzzzxzxzxzxzzxzxzxxxxxxxxxxxxxxxxxxccxcxxcxcxcccxcxccccxcxcxxcppipixcxcxcccxccppippipppipipiiippipipiipiiiiiiiiiiiiiiuizxxxxzxxxzxzxzzzxzzzzzzzzzzzlzzzzllzlzlzlllllllllllkllklkkkkkkkkkkkkjkkjkjjkjrrjjjjhjjhjhjhhhhhhwhhhhwwwwwwwwwwwqwqqqqqqqqq0qq0000009090999998998888887887777776666665665555555;;;;-;;------=====*****@*@@@@@@++X+X+X+X+X+X+X+X+X+X+X+X+X+X+X+Xo.                                ",
"                               =;556677889999000q0qqqqwwwqwwwwhhwhhhhhjjjjhjjjjjkjkjkkkkkkkkklkllllllllllllzlzzzzzzzzzzzzzxzzxzxzxxxxxxxxxxxxxxxxcxxcxcxccxcxcxccxcccxcxcxccxxcccccccccppppccccccxccxcxppipipiipipipppiipiiipiiipiiiiiiiiiiiiixxxxzxxxzxxzxzxzxzzxzzzzzzzzzzzzzzzzlzlzllzlllllllllllkllkllkkkkkkkkkkkjkjkkjjrrjjjjjjjjhjjhjhhhhhhwhwhhwwwwwwwqwwqwqqqqqqq0q00q0000000909999999889888887787777676666666565555;5;5;;;;-----==-=====******@@@@++++++X+X+X+X+X+X+X+X+X+X+X+X+X+X++.o.                               ",
"                               =5566778889990000qqqqwqqqwwwwwhwhhhhhjhhjhjjjjjjkjjkkkkkkkklklklllllllllzlzzlzzzlzzzzzzzxzxzxzxzxxxzxxxxxxxxxxxxcxxcxxcxcxxcxcxcxccxxccxcccxcccccccxccxcccpppcxcxccccccccppppppppppipiippippipipiipipiipiiiiiiixxxxxxxxxzxxxxzxzxxzzxzzzzzzzzzzlzlzzzzlzzllllllllllklllkllklklkkkkkkkkkkkkjkjkjjjjjjjjjjjhjhjhhhhhhhhhwhwhwwwwwqwqwqwqqqqqqqqq00000000909099998998888888877777767766666656555555;;;;-;;----=-====*==*****@@@@@@++++X+X+X+X+X+X+X+X+X+X+X+X+X+X+X.o                               ",
"                              =;55667788999000qqqqqqqwwwwwwhwhhhhhhhhjjhjjjjjkkjkkkjkkkkklklkllklllllzlzlzzzzlzzzzzzzxzzxzxxxxxxxxxxxxxxxxxcxxcxxcxccxccccxcccccxccccccccccccccxccccccccccppppcccccxcccccippippippppppippippipipipiipiiipiiiiixxxxxxxxxxxzxxxzxzzxzzxzzzzzzzzzzzzzlzlzllzzlzllllllllllllklklklkkkkkkkkjkjkjkjkrkjjjjjjhjjhjhjhhhhhhhhhhwhwwwwwwwwqwqqwqqqq0q0qq00000000990999998988888787877777766766656556555;5;;;;;-;-----======*****@*@@@@+@++X+X+X+X+X+X+X+X+X+X+X+X+X+X+X+o..                              ",
"                              -556677889990000q0qqqqwqwwwwwwhhhhhhjhjhjjjjjkjjkkjkkkkkklkklllllllllzllzlzzlzzzzzzzzxzzxzxxzxzxzxxxxxxxxxxcxxcxxcxcxcxcxcxccccxcccccccccccccccccccccccccccccppppcccccccccccppppppppipippipppipppipippipipiiipiixxxxxxxxxxxxxzxxxxxzxxzxzxzxzzzzzzzzzlzzzzzlzlzlzlllllllkllkllklklkkkkkkkkkkkkkjkjjjjjjjjjjjjhjhjhhhhhhwhwhwhwwwwwwwwwqqqqqqqqqq0qq0000000090999998998888887877776776666666655555;55;;;;;;------======******@@@@++++X+X+X+X+X+X+X+X+X+X+X+X+X+X+X.oo                     Z        ",
"                             =;56677888990000qqqqqwwqwwwwhhhhwhhhhjhjjjjjjkjkjkkkkkkkkklkllkllllllllzzzzzzzzzzzzzxzxzxxxxzxxxxxxxxxxxxxcxxccxccccxcccccxccccxcccccccccccccccccccccccccccccccppppcccccccccccppppppppppppppipppippipipippipipiipxxxxxxxxxxxxxxxzxxxxzxzxxzxzzxzzzzzzzzzzlzlzlzlzllzllllllllllklklkklkkkkkkkjkjkjkjkjkjjjjjjhjhjjhjhhhhhhhhhwwhwwwwwqwwqwwqqqqq0qq00q00000909990999998888888877777776766666556555555;;;;;--;---==-====*=****@*@@@@@+++X+X+X+X+X+X+X+X+X+X+X+X+X+X+o...                             ",
"                             -55667788999900q0qqwqqwwwwhwwhwhhhjhjhjjjjjjkjjkkjkkkkklklkllllllllzlzzllzlzzzzzzxzxzxzxzxzxxxxxxxxxxxxccxxccxxccxxcccxcccccccccccccccccccccccccccccccccccccccccppcccccccccccccppppppppppppppppppippppppippipippicxcxcxxxxxxxxxxxxxzxxzxxzxzxzzzzzzzzzzzzzzzzzzzlzzlllllllllkllltyllkkkkkkkkkkkkkjkjkjjjjjjjjjjjhjhjhhhhhhwhhhwhwwwwwwwwqwqqqqqqq0qq0q000000009999998999888788887777767766666566555;55;;;;-;----=-======******@@@@+@+++X+X+X+X+X+X+X+X+X+X+X+X+XX+Xooo                             ",
"                            -;5667788899000qqqqqqwwqwwwwhhwhhhhhjhjjjjjjkjkkkjkkkkklklkllklllllzlzlzzzzzzzzzzzzxzxxxxxxxxxxxxxxxcxcxxxccxxcccxcccccccccccccccccccccccccccccccvccvcvcvcvcvcvcvpccvccccccccccccpppppppppppppppppppppipippipppiipxcxcxxcxxxxxxxxxxxxxxxxzxzxzxxzxxzzzzzzzzzzlzllzllzlzlllllyyyyyyytyttytkkkkkkkjkkkjkjkjkjjjjjjhjjhhjhhhhhhhwhwhwhwwwwqwwqwqqqqqqqq0q00q000090090999998898888787787777766666665555555;;5;;;;------=====*=****@*@@@@+@+++X+X+X+X+X+X+X+X+X+X++X+++X+....                            ",
"                            =5666778899000q0qqqqwqwwwwwhwhhhhhjhjjjjjjjjkjkjkkkkkkkkllllllllzlzlzlzzzzzzzzzzxzxzxzxzxxxxxxxxxxcxxcxccccxcccccccccccccccccccccccccccvcvcvvcvvccvccvcccvcccvccccvcccvcvcvcvcvccpppppppppppppppppppppppppppppipppcxcxcxxcxcxxxxxxxxxxxzxxxxxxzxzxzzzxzzzzzzzzzzzzzlzlzlzlyyyyylllyytyytytttkkkkkkjkkjkjkjjjjjjjrhjjhjhjhhhhhhhhwhwwwwwwwwwqwwqqqqqqqqqq000000090999999998988887887777767766666666555555;;;;;;;------======****@*@@@@+++++X+X+X+X+X+X+X+X+X+XX+XX+X+Xooo                            ",
"                           -55667788999000qqqqwwqwwwwhhwhhhhjhjjjjjjjkjkjkkkkkkklllllklllllllzlzzzzzzzzzzzxxzxxzxxxxxxxxxxxcxcxccxcxxcxccccxcccccccccccccccccvcvcvccccvccvccvvcvccvvccvvccvvcvcvvvcvcvcccvccvcpapapppppppppppppppppppppipippipccxcxcxcxxcxcxxxxxxxxxxxxzxzxxxzxxzxzxzzzzzzzzzzzzlzlzlyuyyyllllyyytyttytytkkkkkkkkkjkjkjkjjjjjjjjjhjhhjhhhhhhhwhhwhwwwwwwqwqwqqqq0q00q0q0000009099999998988888787777776676665655555;5;5;;;--;---==-===*=*****@*@@@@+++X+X+X+X+X++X++X++X+++X+X+X+X....                           ",
"                           =56677889990000qqqqqwwwwwhwhhhhhhjhjhjjjjjkjkkjkkkkklkklkllllllzlzlzzlzzzzzzzxzxzxzxxxxxxxxxxxxcxxcxxxcccccccxcccccccccccccccvcvcvccvcvcvvcvcvcvvvcvcvvccvvccvvccvvvcccvccvcvvcvcvcappppapapappppppppppppppppppppppxccccxcxcxcxxcxxcxxxxxxxxxxxxzxxzzxzxzzzzzzzzzzzlzzzzzzuyllllllllllyyyytyttttttkkkjkkkjkjjkjjjjjjhjjjjhhhhhhhwhhwhwwwwwwqwwqwqqqqqqqqqq000000000009999998989888878877767766666656655555;;;;;;;----=-====*==****@@@@@+@++X+X+X+X+X+X+X+XX+XX+X+X+X+X+ooo                           ",
"                           5566778899000qqqqqwwqwwwhwhhhhhhhjhjjjjjkjkjkkkkkkklkllkllllllzzlzzzlzzzzzzxzxzxxxxxxxxxxxxxxccxccxccccxccxcccccccccccccvcvcvcvcvcvcvcvcvcvcvcvcccvvvvcvvvcvvvcvvvcvvvvcvvcvccvcvcvpaaapappappaapappppppppppppppppppcxcccxccxcxcxxcxxcxxxxxxxxxxxxzxxxzzxzxxzzzzzzzzzzlzuylzzlzylllllllllkytyytyttttkkkkkkjkjkjjjjjjjjhjhjjhjhhhhhhhwhhwwwwwwwwqwqwqqqqq0qq0q0000099090999899898888887777776766666655655555;;;;;-;-----======******@@@@@++++X+X+X+X+X+X+X++X+X+X+X+X+X+...                           ",
"                          -56677889990000qqqwqwwwwhwhwhhhhjhjjjjjjjkjkkjkkkkklklklllllllzllzzlzzzzzzzxzxzxxzxxxxxxxxxcxcxcxcxcccccccccccccccccvcvcvcvcvcccvcvcvcvcvcvvvvvvvvvcvcvvvcvvvcvvcvcvcvcvvvcvvvvvvcvvcapapapapaappappapappppppppppppppcccxcccxcccxccxcxxxxxxxxxxxxzxxxxzxxxzxzzzxzzzzzzzzzlzzzlzluyllllllllllkltytttttttkkjkkkkjkjkjjjjjjjjjhjhhhhhhhhhhwhhwwwwqwwqwqqqqqqq0qq000000009099999989888887878777776776666665555;555;;;;-;------===*==*****@@@@@@++++X++X++X+X+X+X+X+X+X+X+X+Xooo.                          ",
"                          5566778899000qqqqwqwwwwhwhhhhhhhjjjjjjjkkjkkkkkkklklklllllllzlzzzzzzzzzzxzxzxzxxxxxxxxxxxcxcxcxcxccccxccccccccccccvcccvcvccvcvvvcvvvvvcvvvcvcvcvvvvvvvvcvvvcvvvcvvvvvvvvcvvvcvcvcvvcvpapapapappappaapppapapppppppppppcccccccccxccxccxccxcxxxxxxxxxxxxxxiuiiuiuuiuzzzzzzzzzzllzzlzlzlzllllllllklklkyttttttkkjkjkjkjkjjjjjjhjjhjjhhhhhhwhwhwhwwhwwwwqwwqqqqqqq0qq000000009099999989888888787777776666656565555;;5;;;;-;---==-====*=***@*@@@++@++X+XX+X+X+X+X+X+X+X+X+X+X+X..o.                          ",
"                         -566778899900q0qqqwwwwwwwhwhhhhhjhhjjjjkjjkjkkkkkklkllllllllzlzlzlzzzzzxzxzxzxxxzxxxxxxcxcxcxcxccccxccccccccccvcvcvccvvcvcvcvcvvcvvcvcvvvcvvvvvvvvcvvcvvvvvvvvvvvvvvvcvvvvvvvvvvvvcvvvaaaaaaapaapaapapaapapapapapppppppcccccccccxccxccxxcxccxcxxxxxxiiiiiiuiiuiiuuzxzzzzzzzzzzzlzzlzlllllllllllllklktyttttttkkjkkjkjkjjjjjjhjjhjhjhhhhhhhwhwhwwwwwwwwqwqqqqqqq0q0q000000009999999988887887877777676666656555555;;;;;-;-----======******@@@@@++++X++X+X+X+X+X+X+X+X+X+X+X++o.o.                         ",
"                         5567788999000qqqwqwwwwwhhhhhhhjjhjjjjjjkjkkkkkkkllklllllllzlzlzzzzzzzzzzxzxzxxxxxxxxxxxxcxcxccccxcccccccccccvcccvcvcvcvcvvvvcvvcvvcvvvvvvvvvvvvvvvvvvvvvvvvvvvvvvvvvvvvvvvvcvvvvvvvvcvapapapaapaaapapappapppapppappppppccccccccccccccxccxcxcxxcxxxxiiiiiiiiiuiiuiixzxzzzzzzzzzzzzlzlzzlzlllllllklllkyttytttttttkjkjkjjkrjjjjjjjhjhjhhhhhhhwhwhwwwwwqwwqwqqqqqqq0q00000090909999988989888787787777666666656555555;;;;;;------======*****@*@@@@++++X+X+X+X+X+X+X+X+X+X+X+X+X.o.o                         ",
"                        -56677889900q0qqqqwwwwwhwhhhhjhhjjjjjjjkjkkkkkklkkllkllllzllzlzzzzzzzzxzxzxzxxxxxxxxxccxcxcxcccccccccccccvcvccvcvcvcvcvvvvcvvvcvvvvvvcvvvvvvvvvvvvvvvvvvvvvvvvvvvvvvvvvvvvvvvvvvvvvvvvvaaaaaaaaaaapaaaaaapaaapapapapapappcccccccccccxcccccccxccxccxxiiiiiiiiiiiuiuxzzxzxzzzzzzzzlzzzzllzllllllllllklllkytttttttttkjkkjkjjjjjjjhjjjhhjhhhhhhhhwhwwwwwwqwwwqwqqq0qqqqqq0000009009999989888888887776777766666565555;55;;;;;;--=---===*==****@@@+@@+++X+X+X+X+X+X+X+X+X+X+X+X+X.o.o.                        ",
"                        5667788999000qqqwwwwwwhhhhhhhhjjhjjjjkkjkkkkkkkkllklllllllzzlzzzzzzzzxzxxzxxxxxxxxxcxxxcccccccxccccccccccccvcvcvcvvvvvcvcvvvcvvvvvvvvvvvvvvvvvvvvvvvvvvvvvvvvvvvvvvvvvvvvvvvvvvvvvvvvvaaaaaapaaapaaapapapaappaaapppappppaccccccccccccccxcxcxccxcxxcxiiiiiiiiiiiiixzxxzxzxzzzzzzzzzlzzzzlzlzllllllllllkllkkytttttttttjkjkjkjjjjjjhjjhjhjhhhhhwhwhwwwwwwwqqwqqqqqq0q000q00009099099999989888878787776766666665655555;;;;;-;----=======******@*@@@++++X+X+X+X+X+X+X+X+X+X+X+X+Xo.o.                        ",
"                       -566778899000qqqwqwwwwhwwhhhhhjhjjjjjjjkkjkkkkkklklllllllzlzlzzzzzzxzxzxzxxxxxxxxxcxxccccxccxcccccccccvcvvcvcvvvcvvcvcvvvvvvvvvvvvvvvvvvvvvvvvvvvvvvvvvvvvvvvvvvvvvvvvvvvvvvvvvvvvvvvvvaaaaaaaaaaaaaaaaaaaapaaappaaaapaapppvcccccccccccccccxccxcxccxcpipiiiiiiiiuixxxzxzxzxzxzzzzzzzzlzlzzlzlzllllllklllklltttttttttrtkkjkjjjjjjjjjjjhjhhhhhhhhhwhhwwwwwwwwwwqwqqq0qqq00000000099999999898888787777767766656656555;55;;;;-;;-----===*==*****@@@@@@+++X+X+X+X+X+X+X+X+X+X+X+X+.o.o.                       ",
"                       -66778899000qqqqqwwwwhwhhhhhjjhjjjjjkkjkkkkkklkllllllllzllzzzzzzzzzzzxzxxxxxxxxxxcxxcxcxccccccccccccvccvccvcvcvcvvcvvvvvvvvvvvvvvvvvvvvvvvvvbvvbvvbvbvbvbbvbbvbbvbbvbvbvbvbvvbvvvvvvvvvaaaaaaaaaaaaaapaapaaaapaaappapappaapacvcvccccccccccccccccxcxcxipiipiiiiiiixxzxxzxzxzxzzxzzzzzzzzzzlzlzllzlllllllkllytyytttttttkkjkjkkjkjjjjjhjjhjhjhhhhhhhwhwhwwwwwqwqqqqqqqq00qq00000090099998989888888787777766766656555555;5;;;;;-----======*=***@*@@@++++++X+X+X+X+X+X+X+X+X+X+X+Xo.oo.  Z        Z           ",
"                       56678899900q0qqwwwwhwwhhhhjhhjjjjjjjjkkjkkkkklklklllllllzzzlzzzzzxzxxzxxxxxxxxxcxcxccxccxccccccccvcvcvvcvvcvvvvvcvvvvvvvvvvvvvvvvvvvvvvbvbvbvvbvvbvvbvvbvvbvvbvvbvvvbvvbvvvbvvbvbvbvvbvvaaaaaaaaaaaaaaaaaaapaaapaaapapaaapapcvcccvccccccccccccxcccxcppippiipiiiiixxxxxxxxzxzxxzzzzzzzzzzlzzzzzllllllllllklklklkkkkkkkjkkkkjrtrjjjrrrhjjhjhhhhhhwhhwhwwwwwwwqwwqwqqqqqq0q0q0000009099999898888888787776776666656655555;5;;;-;------=====******@@@@@@++X+X+X+X+X+X+X+X+X+X+X+X+.o..o                       ",
"                      -667788990000qqwqwwwwhhwhhhhjjhjjjjkkjkkkkkkllklllllllzzlzlzzzzzzzzxxzxxxxxxxxxcxcxcxcccccccccccvccvccvcvcvvvcvcvvvvvvvvvvvvvvvbvvbvbvbbvvvbvvbvbbvbbvbbvbbvbbvbbvbbbvbbvbbvbvbvvvbvvbvvbvaaaaaaaaaaaaaaaaaaaaaaaaaaaaapapapapcvvccvcvcccccccccccccccippiipipipiiixxxxxxxxxzxzzzxxzzzzzzzzzlzlzlzzllllllllllklklklkkkkkkkjkkjrtrrrrrrrrrehjjhhhhhhhhwhwwwwwwwwqwqqwqqqqq0q0000009090999999898888887877776766666655655;5;;;;;;-;---=-=====*****@@@@@++++X+X+X+X+X+X+X+X+X+X+X+XXo.o.o                      ",
"                      56677889900qqqqwwwwwhwhhhhhjhjjjjjjjkkjkkkklkklklllllzllzzzzzzzzzxxzxxxzxxxxxcxcxxcccccccccccvcvccvcvvcvvvvcvvvvvvvvvvvvvvvvvbvvbvvvbvvbvbbvbvbbvvbvvbvvbvbvbvbvvbbvvbvbvvbvbvbvbbvbvbvbvvvasasaasaaaaaaaaaaaaaaaaapaaaapapaapaccvcvccvcccccccccccccpppippipiiipiixxxxxxzxxxxxxxzzzxzzzzzzzzzzlzzlzlzlllllkllllklklkkkkkkkjkkkrtrtrrrrerrrjhjhhhhhwhhwhhwwwwwwwwwqqqqq0qq0q0q00000090999999898887887777776766666565555555;;;;;------====*==*****@@@@@+++++X+X+X+X+X+X+X+X+X+X++.o.o.                      ",
"                     -66778899000qqqwwwwwhhhhhhjjhjjjjjkkjkkkkkklkllllllllzlzzzlzzzzxzxzxxxxxxxxxxcxcxcccxcccccccccccvcvcvvcvvcvvvvvvvvvvvvvvvvvbvvvbvvbbbvbvbvbvbbbvbbbbbbbbbvbvbbvbbbvbvbbbvbbvbvbbvbvbvbvbvbbvbvasasaasaaaaaaaaaaaaaaaaaapaaaaapapvvcvcvccvcvcccccccccpppippppippiiipxxxxxxxxxzxxzxxxzzxzzzzzzzzlzzlzlzllzllllllkllklkklkkkkkkkjkttrrtrrrrrrerjhjhhhhhhhhwhwhwwwwqqwwqqqqqqqq0q0000000099099999889888787877776766666565555;;5;;;-;----=-====******@*@@+@+++XX+X+X+X+X+X+X+X+X+X+XXo.o.o.                     ",
"                     ;66788990000qqwqwwwwhwhhhhhjjjjjjjjkkjkkklkkllklllllzlzzzzzzzzzxzxxxzxxxxxxcxcxccxcccccccccvcvcvcvvvcvvvvvvvvvvvvvvvvvvbvbvvbvbvbbvvvbbvbbvbvvbbbvbvbvbvbbbbvbbbvbbbbbvbbvbbbbbvbbbvbbbvbvbvbvbvsaaaasasaasaaaaaaaaaaaaaaaapaaaaapapvcvvcvccvccppccpppppppipppipppixcxxxxxxxxzxxxzxxzxzxzzzzzzzzlzzzlzzllllllllllllklkkkkkkkkkjkrttrrtrrrrrrrrehjhhhhwhhwhwwwwwwwwqwwqqqq0qq0q00000090999989898888887877777767666665655555;;;;;;;----=-=====*****@@@@+@+++++X++X+X+X+X+X+X+X+X++Xo.o.o                     ",
"                    ;56778899000qqqwwwwhhhhhhehjjjjjjkkjkkkkkkkllklllllzlzlzlzzzzxzxzxxzxxxxxxxcxccccxcccccccccccvcvcvvcvvvcvvvvvvvvvvvbvvbvvbvbbvbvbvvbbbvbbbvbbbbbvbbbbbbbbbbbbbbbbbbbvbbbbbbbvbvbbbvbbbvbbvbvbbvbvbsssaasasaaasaaaaaaaaaaaaaaaapaaaapaavccvcppppppppppppppppppippixcxcxxcxxxxxxxxzxxzxzxzzxzzzzzzzzzlzzlllzlllllllklklklklkttkkkkkjtrrtrrrrrrrerrehhhhhhhwhwhwwwwwwqwqqwqqqqq0qq0q0000009099999989888888787776766666565655555;;;;;-;----=-===*=*****@*@@@+++XX+X+X+X+X+X+X+X+X+X+X+.o.o.o                    ",
"                    ;6678899000qqqqwwwwwwhhhhejhjjjjjjkkjkkkklklkllllllzlzzzzzzzzxzxxzxxxxxxxcxccxcxccccccccvcvvcvcvvcvvcvvvvvvvvvvvvbvvvbvbbvbvvbbbvbbbbbbbvbbbbbbbbbbbbbbbbbbbbbbbbbbbbbbbbbbbbbbbbbbbvbbvbbbbbvbbbvbaassaasasasasaasaaaaaaaaaaaaaapaaapapapapaapaapapppppppppppppppxcxccxxxxxxxxxxxxxxxzxzxzxzzzzzzzzzlzzzlzyyyyyylllllklkkktttttttrttrtrtrrrjjrerjhjhhhhhhhwhhwwwwwwwwqwqqqqqq0q0000090009999999988888887777777766666655555;55;;;-;-----=======**@**@@@@@+++X+X+X+X+X+X+X+X+X+X+X+Xoo.o.                    ",
"                    56778899000qqwwwwwhhhhhherjjjjjkkjkkkkkkkllklllllzzlzzzzzzzxzzxxzxxxxxxxcxcxcccccccccccvccvcvcvvcvvvvvvvvvvvvvvbvvbvbvbvvbbbbvbbbbvbbvbbbbbbbbbbbbbbbbbbbbbbbbbbbbbbbbbbbbbbbbbbvbbbbbbbbbvbvbbvbbvbvbbvsasasaaasaaasaaaaaaaaaaaaaaapaaaaapapapapppapppppppppppipicccxxxccxxxxxxxxxzxzxxzxzzzxzzzzzzlzzllzlzyyyyyyylkllklklkkkkkkkkkrtrjjjjjjjjjhjjhhheeeee4wwhwwwwwqwqqqwqqqqq0qq0000090909999889888878787777666666656565555;;;;;;-----=-===*=****@@@@@+@+++X+X+X+X+X+X+X+X+X+X+X+..o.o                    ",
"                   ;6678899000qqqqwwwhwhhhjherjjjjjjkkjkkkkklkllllllzllzlzzzzxzzxxzxxxxxxcxcxcxccxcccccccvccvcvcvvcvvvcvvvvvvvvvbvbvvbvbvbbbbvbvbbbvbbbbbbbbbbbbbbbbbbbbbbbbbbbbbbbbbbbbbbbbbbbbbbbbbbbbbbbbbbbbbbbbvbbbbbvbbssasassassaaaaaaaaaaaaaaaaaaaaaapaaapappaapapapppppppppppxcxcccxxcxcxxxxxxxxxxxxzxxxzzzzzzzzzzzzzzlzlllllllllllklklkkkkkkkjkrtkjkjjjjjjjjhjjhheeeehhhwhwwwwwwwwqqqqqqqq0q0q00000009999998988888887777777766665655555;5;;;;;;-----=====*=****@@@@+@++++X++X++X+X+X+X+X+X+X+Xoo.o.                   ",
"                   ;677889900qqqwwwwhhhhhhhjrjjjjkjkkjkkkkllkllllllzlzzzzzzzzzzxzxxxxxxxxxxcxcccccccccccvcvcvcvvcvvvvvvvvvvvvbvvvbvbbvbbbvbvbbbbbbbbbbbbbbbbbbbbbbbbbbbbbbbbbbbbbbbbbbbbbbbbbbbbbbbbbbbbbbbbbbbbbbbbbbbvbvbbvbvsasaasaasassasaaaaaaaaaaaaaapaaapaaaaappppappppppppppppcccxcxccxcxxcxxxxxxxzxzxzzzxzxzzzzzzzzlzlzllzlllllllkllklklkkkkkkkkjkjkjkjjjjjjhjjhjhhhhhhwhwwwhwwwwwqwwqqqqqqq0q0000090990999998988887787777766666665655555;;;;;--;---==-====*****@*@@@+++X+X+X+XX+X+X+X+X+X+X+X+..o.o                   ",
"                   66788990000qqqwwhwwhhhhhjhjjjjjkjkkkkklkklklllllzlzlzzzzzxxzxxxxxxxxcxccxcccccccccvcvccvcvvcvvvvvvvvvvvvvbvvbvbvbvbbvbbbbbbbbbbbbbbbbbbbbbbbbbbbbbbbbbbbbbbbnbnbnbnbbnbbnbbnbbnbbbbbbbbbbbbbbbbbbbbbbbbbbbbbbbsssassasaasaasasaaaaaaaaaaaaaaaaapapaaaappapapppppppccxcccccxcxcxxxxxxxxxxxxxxxxzxzzzzzzzzzzzzlzlzlzlllllllllklklkkkkkkkkjkkjjkjjjjjjhjhjhjhhhhhhhhwwwwwqwwwqwqqqq0qq0q00000900999989989888887877777776666656555555;;;;;------====*=*****@@@+@@++X+X+X+X++X+X+X+X+X+X+Xoo.o.                   ",
"                  ;677889900qqqwwwwwhhhhhjjjjjjjkjkkkkkkkklllllllzzlzzzzzzzzxzxxzxxxxxxxcxcccxccccccccvcvvcvvcvvvvvvvvvbvvbbvbbvbvbbbbvbbvbbbbbbbbbbbbbbbbbnbbnbbnbnbnbnnbnnbnnbbnbbnbbnbbnbbnbbnbbnbnbbbbbbbbbbbbbbbbbbbbbbvbvbbvbssassassasaasaasaaaaaaaaaaapaapaaappppaapapapppppppccccxcxccxxcxcxxxxxxxxxzxzxzxzxzxzzzzzzzlzzzlzllzlllllkllklklkkkkkkkkkjkjjjkjjjjjjjhjhhhhhhwhhwhwhwwwqwqwqqqqqq0qq0q00000909099999888888877877676666666556555;5;;;;-;---=-=====****@*@@@@++++X++X++XX+X+X+X+X+X+X+X.o.oo                  ",
"                  66778990000qqwwwwhhhhhjhhjjjjjkjkjkkkkllkllllzlllzlzzzzzzxzxxxxxxxxccxccccccccccccvccvcvvcvvvvvvvvvvvvvbvvbvvbbbvbvbbbbbbbbbbbbbbbbbbnbnbbnbbnbnbbnbnbbnbbnbbnnbnnbbnbbnbbnbbnbbbnbbnbnbnbbnbbbbbbbbbbbbbbbbbbbbbbbssassasasaasaaaasaaaaaaaaaaaaapaaaaaapapppapapppccccccccxcccxcxccxxxxxxxxxxxxzxzxzzzzzzzzzzzlzlzzllllllllllklklkkkkkkjkjkkkjjjjjjjhjjhjjhhhhhwhhhwwwwwwwwqwwqqqqqq0q000000090999998998887887777767766656655555;5;;;;;;-----====*==***@*@@@+@+++X+X+X+X++X+X+X+X+X+X+.oo..                  ",
"                 ;677889900qqqwwwwhhwhhjhjjjjjkjkkkkkkklklllllllzzzzzzzzzxxzxxzxxxxxxxccxcxccccccvcvcvvcvcvvvvvvvvvvbvbvbvbbvbbbvbbbbbbbbbbbbbbbbbbnbbbbnbbnbbnbnbnnbnbnnbnnbnnbbnbbnnbnnbnnbnnbnnbbnbbnbbbnbbbnbnbbbbbbbbbbbbbbbbbvbbbbbassssasasassaasaaaaaaaaaaaaaaapapapaappappapccccccccccxccxcxxcxxxxxxxxxzxxzxzxzxzzzzzzzlzzzlllzllllllkllkllklkkkkkkkkjkjkjjjjjjjjjhjhjhhhhhwhwhwwwwwqwqqwqqqqqq0q0q00000909999998988888787777766766656555555;;;;-;----=-====******@*@@@++++X+X+X+X+X+X+X+X+X+X+XXo.oo.                 ",
"                 ;677899000qqwqwhwhhhhjhjjjjjjkjkjkkkklklkllllzllzlzzzzxzxzxxxxxxxcxccxccccccccvccvcvcvvvvvvvvvvvvbvvbvbbvbvbbbbbbbbbbbbbbbbbbbbbnbbnnbnbbnbnbnbbnbbnbnbbnbnbnbnnbnbnbnbnbnbnbbnbbnnbnnbnnbbnbnbbbbnbbnbbbbbbbbbbbbbbvbbvbbasassasasaaasavvaaaaaaaaaapaaaapaapaapappcccccccccccccxcccxcxcxxxxxxxxxxxxxzxzzzzzzzzzlzlzzzllllllllllllklkkkkkkkjkkjkkjkjjjjjjhjhjhhhhhhhwhhwwwwwwwwwqqqqqqqq0q00009009099999989888888777767766666665555;55;;;-;----=-======****@@@@@++++X+X+X+X+X+X+X+X+X+X++.o..o                 ",
"                 6778899000qqqwwwhhhhhhjhjjjjkjkkkkkklkllllllzlzzlzzzzzzxzxxzxxxxxxcxxccccccccccvcvvvvvcvvvvvvvvvvvvbvbvbbbbbvbvbbbbbbbbbbnbbnbnbbbnbbnbnnbnbnnbnbnnbnnnnbnbnnbnnnnnbnnnnnbnnbnbnnnbnbbnbnbnbnbbnbnbbnbbnbbbbbbbbbbbbbbbbbvbbssasssassavvbvvvvaaaaaaaaaapaaapapapapccvcccccccccccccxcxcxxcxxxxxxxxzxzxxzxxzxzzzzzzzzlzlzlzlllllllkklkllkkkkkkkkkjjkjkjjjjjjjjhhjhhhhhhhwwhwwwwwqwqwqqqq0qq0q000009090999989888887787777766666656565555;;;;;;-----=-===******@*@@@+@++X+X+X+X+X+X+X+X+X+X+Xo.oo.                 ",
"                ;677899900qqqwwwhwhhhjhjjjjjkjkkkkklkklllllzllzlzzzzzxzxzxxxxxxxxccxcccccccccvcvcvccvcvvvvvvvvvvbbvbvbvbvbvbbbbbbbbbbbbbnbbnbbnbnnnbnnbnnbnbnnbnnnnnnnnbnnnnbnnnbnbnnnbnbnnbnnnnbnbnnnbnbnnbnbnnbnbnbbbnbbnbbnbbbbbbbbbbbbbbbbbbbasavbvbbvbvbvvaaaaaaaaaaapaaaapapapapvpppppppppppppipccxcxcxxxxxxxxxzxxzzxzzzzzzzzzzzzzlzlzllllllllllklkkkkkkjkkjkjjkjjjjjhjjjhjhhhhhwhhwhwwwwwwwqwqqqqqq0q0q0000009099999998888878777777766665655555;5;;;;;;----=======****@@@@@++++X+X+X+X+X+X+X+X+X+X+Xo..o.                ",
"                ;67889900qqqwwwhwhhhjhjjjjjkjkkjkkkkllkllllllzzzzzzzzzxzxxzxxxxccxccccccccccccvcvvvvvvvvvvvvvbvbvvbbvbbbbbbbbbbbbbbbbnbbbbnbnnbnbbbnbnnbnbnnnbnnbnbnbnnnnnnnnnnnnnnnnnnnnnnnnnnnnnnnbnnbnnbnnnbnbnbbnnnbbnbbnbbnbbbbbbbbbbbbbvbvbbbbbvbvvbbvvbvvvaaaaaaaaaaapapaacaapapapappppppppppppipcxxcxcxxxxxxxxxzxxzzxzzzzzzzzlzlzlzllllllllklklklkkkkkkkkkjkjjkjjjjjjhjhhjhhhhhhwhwwwwwwqwqwqqqqqqq0q000000909999989889888877877676666665655555;;;;;------=-===******@*@@+@+++X+X+X+X+X+X+X+X+X+XX+.oo.o                ",
"                677889000qqqwwwhhhhhhjjjjkjjkjkkkkklkllllllzlzlzzzzzxxzxxxxxxcxxcxcxcxccccvcvvcvcvcvvvvvvvvbvvbvbbbvbbbbbbbbbbbbbbbnbbnnbnbnbbnbnnnnnnnnnnnnnnnnnnnnnnnnnnnnnnbnnnnnbnnnnnnbnnbnnnbnnbnnbnnnbnnbnnnnbbnbnbnbbnbbnbbnbbbbbbbbbbbbbvbvbbbbbvvbbvbbvvsaaaaaaaaaaaaaapapappappppppppppppippiccxcxxxxxxxxxxxxxxxxzxxzzzzzzzlzzzlzlzllllllkllklklkkkkkjkkkkjjkjjjjjjhjjhhhhhhhhwhwhwwwwwwwqwqqq0qqq0q00000090999989988878877777767666665655;555;;;;;;-----======****@@@@@++++X+X+X+X+X+X+X+X+X++X.o.o.                ",
"               ;77889900qqqwwwhwhhhjjjhjjjkkjkkkkklkllllllzzzzzzzzzxzxxxxxxxxxcxcccccccccccvccvvvvvvvvvvvvvvbbvbvvbbbbvbbbbbbbbnbbnbbbnbnbnbnnnnnbnbnbnbnnnbnnnnnnnnnnnnnnnnnnnnnnnnnnnnnnnnnnnnnnnnnnnnnnbnnnbnnbnbnnbnbnbnnbbnbnbbbnbbbbbbbbbbbbbbbvbbvbbvvbvvbvvasaaaaaaaaaapaapapaapapaapppppppppppppipxccxcxxxxxxxzxzxzxzzxzzzzzzzzlzzlzlllllllllllklkkkkkkkkjkjkjjkjjjjjjjhjhjhhhhwhhwhwwww4qwqwqqqqq0q0q0000090909999988888887877777676666656555;5;;;;------=====**=***@*@@@++++X+X+X+X+X+X+X+X+X+X+Xo.oo.               ",
"               ;77889900qqqwwwhhhhjhjjjjjjjkkkkkklklllllzlzllzzzzzxzxxzxxxxcxcxccxccccccvcvcvvcvcvvvvvvvvbbvvbvbbbbvbbbbbbbbbnbbnbbnnbnbnnbnnbnbnnnnnnnnnnnnnnnnnnnnnnnnnnnnnnnnnnnnnnnnnnnnnnnnnnnnnnnnnnnnnnnnbnnnnnnbnnnbbnbnbnbnbnbbnbbbbbbbbbbbbbvbbbbbbbbvbvbvaaaaaaaaaaaapaaaaapapappapappppppppipppcxxcxxxxxxxxxxxxxxxxzxzzzzzzzzzlzzzlzllllllkllklklkkkkkkkkjkkjjjjjjjjjjjhhhhhhhhwhwwwwwwwqwqqqqqq0q0q000000099999899988888877767766666656555555;;;;;;-----=====*****@@@@@@+++X+X+X+X+X+X+X+X+X+X+.o..o               ",
"               677899000qqwwwhhhhhjhjjjjkkkjkkkklkllkllllzlzzzzzzxzxxzxxxxxxcxccxccccccvcvcvcvvvvvvvvvvbvvvbbvbbvbbbbbbbbbbbbbbnbnbnbnnbnnnnbnnnnnnnnnnnnnnnnnnnnnnnnnnnnnnnnnnnnnnnnnnnnnnnnnnnnnnnnnnnnnnnbnnnnnnbnbnnnbnnnnbnbnbnbbbnbbnbbbbbbbbbbbbbvbvbvvbvbvbvbasaaaaaaaaaaaapaaapaapapapppppppppppipcccxcxcxxxxxxxxzxzzzxzxzzzzzzzzzlzlzllzllllllllklkkkkkkkjkkjkjkjjjjjhjhhjjhhhhhwhwhwwwwwwwqwqwqqqqq0q0q00090909999989888877877777676665656555;;5;;;-;---=-====*=****@*@@+@++++X+X+X+X+X+X+X+X+X+Xo.oo.               ",
"              577899900qqqwwhwhhjhjjjjjkjjkkkklkkllllllzlzzzzzzzxzxxxxxxxxccxcccccccccvccvcvvvvvvvvvvbvvbbbvbbvbbbbbbbbbbbbnnbnbnbnbnbnnnnbnnnnnnnnnnnnnnnnnnnnnnnnnnnnnnnnnnnnnnnnnnnnnnnnnnnnnnnnnnnnnnnnnnnnnnnnnnnnbnnbnbnnbnbnbnnnbnbbbbnbbbbbbbbbbbbbbbbbbvbvbvvaaasaaaaaaaaaapapaapapappapapppppppppxcxccxcxcxxxxxxxxxxxxzxzxzzzzzzzzlzlzzlllllllkllllklkkkkkkkjkjkjkjjjjjjjhhjhhhhhhhhwhwwwqwwwqqqqqqqqq000000000999989898888878777777666665655555;;;;;;------====*=****@@@@+@++X+X+X+X+X+X+X+X+X+X+o.o.o.              ",
"              ;7788900qqqwwwwhhhhjjjjjjjkkkkkkklllkllllzzzlzzzzxzxzxzxxxxcxxccxcccccvcvcvvvvcvvvvvvvvvvbvvbbbvbbbbbbbbbnbnbnbnbnbnnnnnnbnnnnnnnnnnnnnnnnnnnnnmnnmnnmnmnmnmnmnmnmnmnmnmnmnmnnnnnnnnnnnnnnnnnnnnnnnnnnnnnnnnnnnbnnbnnbnbbnbbnnbbbnbbbbbbbbbbbbbvbbbvbvbbvvsaasaaaaaaaaaaaapaaapapapppapppppppcccxcxcxxcxxxxxxxxzxxzxzzxzzzzzzzzzzlllzlllllllkklklkkkkkkkkkjjkjjjjjjjjjjhhhhhhhwhwhwww4wqwqwqqqq0q0qq00000999099999898888878777676666665655555;5;;-;----=-====******@@@@++++X+X+X+X+X+X+X+X+X+XXo.o.o              ",
"              67889900qqqwwwhhhjhjhjjjjkkjkkkklkklllzlzllzzzzxzzxxxxxxxxcxccccccccvccvcvcvcvvvvvvvvvbbvbbbbbbbbbbbbbbnbbnbnbnbnnnbnnbnnnnnnnnnnnnnnnnnnnnnnmnnnmnnmnnmnnmnnmnnmnnmnnmnnmnnmmnmnmnmnnmnnmnnnnnnnnnnnnnnnnnnbnnnnnnnbnnbnbnnbbnbnbbnbbbbbbbbbbbbbvbbbbbvbbvbvvvaaaaaaaaaaaaapaapapaappppppppccxccccxcxxcxxxxxxxxzxxzxzzxzzzzzzlzlzzzllllllllllklklkkkkkkjkkkjkkjjjjjhjhjhjhhhhhhwhwhwwwwwwqwqqqqqq00q000000099998998888788777776776666655555;5;;;;-;---=-======*****@@@@@++X++X+X+X+X+X+X+X+X++.o.o.              ",
"             577899000qqwwwhhhhhjjjjjkkjkkkkkklkllllllzlzzzzzzxxzxxxxxcxcxcxccccccccvcvvvvvvvvvvvbvbvbbvbvbbbbbbbbbbbbbnbnbnnnnbnnnnnnnnnnnnnnnnnnmnnmnmnmnnmnmnnmnnmnmmnmmnmmnmmnmmnmnnmnnnmnmnnmnmnnmnnmnmnnnnnnnnnnnnnnnnnnnbnnnnbnnnbnbnnbnbnbbnbbbbbbbbbbbbbvbvvbbvbvvbbvvaaaaaaaaapaapapapappappppppccccxcxccxcxcxxxxxxxxxxxxzxzzxzzzzzzzlzllzlllllllllklkklkkkkkkjkjjjkjjjjjjjjhjhhhhhhhwhwwwwwqwwqwqqqqqqq0q0000090099998998888878777776666656565555;;;;;-;----====**=**@*@@@@+++++X+X+X+X+X+X+X+X+XXo.oo.              ",
"             ;7888900qqqwwwhhhjhjjjjjjjkkkkklkllllllzlzzzzzzxzxzxxxxcxxcxcccccccccvcvvcvcvvvvvvvbvbbvbvbbbbbbbbbbbbnnbnbnbnbnbnnnnbnnnnnnnnnnnnnmnnmnmnnmnmnnmnmmnmmnmnnmnnmnnmnnmnnmnmmnmmmnmnmnmnnmnnnmnnnnmnnmnnnnnnnnnnnnnnnnnbnnnbnnbnnbnbnbnbbnbnbbbbbbbbbbbbbbbvbvbbvvvbvvvvaaaaaaaaaaaapapapapapppccccccccxccxcxcxxxxxxzxzxxzxzzzzzzzzzzlzzzlzlllllklllklkkkkkkkkkkkjjkjjjjhjhjhjhhhhhhwhwhwwwwwqwqqqqqq0q0q000000990999998988888877777766666565555;5;;;;;------=====****@*@@+@@++X+X+X+X+X+X+X+X+X++o.o.o.             ",
"             57799900qqwwwhhhhjjjjjjkkkkkkkkklllllllzzzzzzzzzxxxxxxxxxcxccxcccccvcvvcvvvvvvvvvvbvbvbbbbbbbbbbbbnbnbnbnbnbnnnnnnbnnnnnnnnnnnmnnmnmnnnmnnmnmnmmnmnmnmnmmnmnmmnmmnmmnmmnmmnmnnnmnmnmnmnmnmnnmnmnnnmnnmnmnnnnnnnnnnnnnnnnbnnbnnbnbnbbnbnbbbbnbbbbbbbbbbbvbbvbbvbbvvbvvvvvvvvvvaapaaapapapappapcccccccccxcxcxxcxxxxxxxxxzxxzxxzzzzzzzzzllzllzlllllkllkklkkkkkkjkjkkjjjjjjjjjhhjhhhhhhwhwwwwwwwwqwqqqqqq0q00000000999998988888777877676766665655555;;;;;-;--=-=====*=***@*@@@++++X+X+X+X+X+X+X+X+XXXo.o.o      Z      ",
"             6888900qqqwwwhhhhjhjjjjjkjkkkkllklllllzllzzzzzxzxzxxxxxxcxcccccccvccvcvvcvvvvvvvvbvbvbvbvbbbbbbbnbbnbbnbnnbnnnnnnnnnnnnnnnnnmnnnmnmnnmmnmmnmnmmnmnmnmmmmnmmmnmmnmmnmmnmmmnmnmmmmmnmmmnmnmnmmnmnmnmnnmnnnnnnnnnnnnnnnnnnnnnnnnbnnnbnnbnbnbnbbbbbbbbbbbbbbbbbvbbvvbbvbvbvvvvvvaaaapapaaapappappccccccxcccxcxcxxcxxxxxxzxxzxzxzzzzzzzzzzzzlzzllllllllkllklkkkkkkkkkjkjkjjjjjjjjhjhhhhhhwhwhwwwqwwqwqqqqqq0qq00009090999989988888877777766666656555555;;;;;-----=====*****@@@+@@++X+X+X+X+X+.X+X+X+++.o.o.             ",
"            57889900qqwwwhhhhjjjjjkjkkkkkkklkllllzlzzzzzzzxxxxxxxxxccxccxccccccvcvcvcvvvvvvvbbvbvbbbbbbbbbbbbbbnbnnbnnbnnnbnnnnnnnnnnmnnmnnmmnmnmmnnmnmmnmmnmmmmmmnmnmmnmmmmmmmmmmmmnmmmmmnmnmmnmnmmnmmnnmnmnmnnmnnmmnmnmnnnnnnnnnnnnnnnnnnnbnnnbnbnbnbnbnbnbbbbbbbbbbbbbbvbbvvbvbvvbvvvvvaaaaaaapapapappacccccccccccxccxcxxcxxxxxxxxxxzxzxzzzzzzlzzzlllzlllllllklkklkkkkkjkjkjkjjjjjjhjhjhhhhhhhhwhwwwwwwqwqqwqqqqq00q00000999999998888887777776766665655555;;;;;--;---=-===*=****@*@@@++++X+X+X+X+X+X+X+X+XXo.o.oo            ",
"            57889000qqqwwhhhjhjjjjjkkjkkklklllllllzlzzzzxzxzzxxxxxcxxcccccccvcvcvvvvvvvvvvvbvvbvbbbvbbbbbbbbnbnbnbnnbnnnnnnnnnnnnnnmnnnmnnmnnmnmnmmmnmnmmnmmmmnmnmmmmmmmmmmmnmmnmmnmmmnmnmmmmnmmmmnmmnmmnmmnmnmmnmmnnnmnnnmnnmnnnnnnnnnnnnnnnnbnnnnbnnbnbnbbbnbbbbbbbbbbvbbbbbbvbvbvvbvvvvvaaaapaaaapaapapvcccccccxcccxccxcxxxxxxxxxzxzxzxzxzzzzzzzzlzzzlllllllllllklkkkkkkkkjkjkjkjjjjjhjhjhhhhwhhhhwwwwwwwwqqqq0q0qq000000000999898988888887777676666566555555;;;;-----=====*=*****@@+@@++++X++X+X+X+X+X+XX+.o.o..            ",
"            7789900qqwwwhhhhjjjjjkjkjkkkkkllllllzzlzzzzzzxzxxxxxxcxxccxccccccvcvcvcvvvvvvvbvbbvbbvbbbbbbbbnnbnbnbnnbnnnnnnnnnnnnmnmnnmmnmmnmmnmnmnmmmmmnmmmnmnmmmmmnmmnmmmmmmmmmmmmmmmmmmmmmmmmnmnmmnmmnmmnmmmnmnmnmmmnnmnnmnnnmnnnnnnnnnnnnnnnnbnbnnbnbnbbnbbbnbbbbbbbbbbbvbbvbbvbvbvvbvvvvaaaaapapaapapacvcvccccccccccxccxccxxxxxxxxxzxzxzxzzzzzzlzzllzlzllllklklklklkkkkkkkkjjkjjjjjjjjhjhjhhhhwhwhwwwwwqwwqwqqqqq0q0q000909909999898887877777767666665555;5;;;;;-;----=-===*****@@@@@+++XX+X+X+X+X+X+X+++Xo.oo.o            ",
"           57889900qqqwhwhhjhjjjjkjkkkkklklklllllzzzzzzzxzxxxxxxcxxccccccccvccvcvvvvvvvvbvbvbvbbbbbbbbbbbnbbnbnnnbnnnnnnnnnnnnmnnmnnmnnmnmmnmmnmmmmnmnmmmmmmmmmmmmmmmmmmmmmmmmmmmmmmmmmmmmmmmmmmmmmmmmmmnmmmnmmnmmmnnnmnmmnnmnmnnnmnnnnnnnnnnnnnnnnnbnnbnnbnnbnbbnbbbbbbbbbbvbbvbbvbvbvvbvvvvaaavvaapaapapccvcccccccccxcccxcxcxcxxxxxxxxxxzxzxzzzzzzzzzlzlyyylllllllklkkkkkjkkjkkjjkjjjjjjjhjhhhhhhwhwhwwwwwqwqqqqqq0qq0000000099998998888887877777666666565555;5;;;;;----=======***@*@@@+@+++X+X+X+X+X+X+XXX+.o.o.o.           ",
"           5789900qqqwwwhhjhjjjjjkkkkkklklllllzlzzzzzzzxzxxzxxxxxcccxcccccvcvvcvvcvvvvvbvvbvbbbbbbbbbbnbnbnnbnnbnnnnnnnnnnnnnnnnmnnmnmmmnmnmmnmmnmnmmmmmmmmmmmmmmmmmmmmmmmmmmmmmmmmmmmmmmmmmmmmmmmmmmmnmmmnmmmnmmnmmmmmnmnmmnmnnmmnnmnnnnnnnnnnnnnnnnnnnbnnbbnbbnbbnbbbbbbbbbbbbbvbbvbvbvvbvvvaavvvaaapapavcvcvcccccccccxccxcxxcxxxxxxxzxzxzxzzxzzzzzlzzluyuyllllyyllklklkkkkkkkjkjjjkjjjhjjhhjhhhhhhwhwwwwwwwqwqwqqqq0q0000090909999898888887777767666656555555;;;;;------====******@*@@@+++X+X+X+X+X+X++X++XX.o.o.o           ",
"           58889000qwwwhhhhjjjjkjkjkkkkkllllllzlzlzzzzxzxxxxxcxcxcxccccccvcvccvvvvvvvbvvbbvbbbvbbbbbnbbnbnbnnbnnnnnnnnnnnnmnmmnmnmnmmnmnmmmnmmmmmmmmmmmmmmmmmmmmmmmmmmmmmmmmmmmmmmmmmmmmmmmmmmmmmmmmmmmmmmmmmmmmnmmnmnmmnmnnmnmmnnnnnmnmnnnnnnnnnnnnbnbnnbnnnbnnbnbbbbbbbbbbbbbvbbbvbvbvbvvbvvvaavvvaaaaapcvcvccvccccccccccccccxxcxxxxxxxxxxxzxzzzzzzzzzuyuyzlllllylkllkklkkkkjkkjkkjjjjjjjhjjhhhhhhhhwhwwwwwwwwqqqqqqq0q0000000909999998887888777777666666655;555;;-;;--=--======****@@@@@+++X+X+X+X+X+X+X+X++o.o.o.           ",
"           7789000qwqwhhhhjjjjjjkjkkkkllklllllzlzzzzzxzxxzxxxxxcccccccccvccvvvvvvvvvvvvbvbbbvbbbbbbbbnbnbnnbnnnnnnnnnnnnmnnnmnmnmmmnmmmmmnmmmmmmmmmmmmmmmmmmmmmmmmmmmmmmmmmmmmmmmmmmmmmmmmmmmmmmmmmmmmmmmmmmnmmmmmnmmmnmmmmmnmnmnmmnmnnnnmnnnnnnnnnnnnnnnnbnbnbbnbbnbnbbbbbbbbbbbvbbbbvbvvbvvbvvaavvvapaavvcvcvcccvcccccccxcxxxcxcxcxxxxxzxzzxzzxzzzzzuuyuullzlllllylklklkkkkkkkjkkjkjjjjjjjjhjhhhhhwhhwhwwwwqqqwqqqqq0qq0q0009090999898988887777776766666556555;;;;;;-;---=-===*****@*@@@+@+++X+X+X+X+X+X+X+XXXo.o.o           ",
"          5789990qqqwhwhjhjjjjkjkkkkklkkllllzlzzzzzxzzxxxxxxxcxcxxccccvcvcvvcvcvvvvvbvbbvbvbbbbbbbbnbnbnnbnnnnnnnnnnnnmnnmnmnmnmnnmmnmnmmmmmmmmmmmmmmmmmmmmmmmmmmmmmmmmmmmmmmmmmmmmmmmmmmmmmmmmmmmmmmmmmmmmmmmmmmmmmnmmmnmnmnmnmmnnmnmnmnnnmnnnnnnnnnnnbnnnnnnnnbnnbnbbbnbbbbbbbbbbbvbbvbbvbvvvvvaaaaaapavcvvvcvvccccccccccccccxcxxxxxxxxxxxxxxzxzuuuuuuuuyzzlzllyyyyytykklkkkkkkkjkjjkjjjjjhjjhjhhhhhwhwhwwwwwwqwqqqqq0q000000009999998988888887777776665665555555;;;;-----=======****@@@@+@+X+X+X+X+X+X+X+X+++o.o.o.          ",
"          5889900qqwwwhhhjjjjjkjkkkkkklllllllzlzzzzzzxxzxxxxxcxcccccccccvcvcvvvvvvvbvbvbbbbbbbbbbnbnbnbnnnnnnnnnnnnnmnnnmnmnmmmmmmmnmmmmmmmmmmmmmmmmmmmmmMmmmMmmMmMmMmMmMmMmMmMmMmMmMmMmMmmmmmmmmmmmmmmmmmmmmmmmmmmmmmmmmmmmmnmmnmmnmnmnmnmnnmnnnnnnnnnnnnbnbnnbnnbnbbnnbbnbbbbbbbbvbbvbbvbvbvbvvaaaaaaaapvvccvcvcvcvcccccccxcccxcxcxxxxxxxzxziuiuuuuuuuuuuulzyyyyyyyyytylkklkkkkkkjkkjjjjjjjjhjhhhhhhhhwwwwwwwwwqwqqqqqqq0q0009009999998988887787776676666565555;;;;;-;;---=-===*****@*@@@@+++X+X+X+X+X+X+X+XXX.o.o.o          ",
"          588900qqqwwhhhhhjjjkjkkkkkklkllllzlzzzzzzzxzxxxxxcxxcccccccvcvcvvvvvvvvvbvbvbbvbbbbbbnbbnbnbnnnbnnnnnnnnmnnmnmnnmmnmnmnmmmmmmmmmmmmmmmmmmmmMmMmmmMmmmmMmmmmMmmmmmMmmmmmMmmmmmMmmMmMmMmMmmmMmmmmmmmmmmmmmmmmmmmnmmnmmnmmnmmnmnmnmnnmnnmnnnnnnnnnnnnnbnnnbnbnnbbnbbbbbbbbbbbbbbvbbvbvbvbvaaaaaaaaaavvvvcvcvccccccccccxcxccxcxcxxxxxxxiuiuiuiuuuuuuyuzuuyuyyyyyyytklkkkkkjkkkjjkjkjjjjjjhjjhhhhwhhhhwwwwqwqwqqqq0q0q00000090099999898888877777776666656555555;;;;-----=======****@@@+@++X++X++X++X+X+X+++o.o.o.          ",
"          789990qqqwwhhhjjjjjkjkkkkllkllllzlzzzzzzxxzxxxxxxcxccxccccccvcvvcvvvvvvbvbvbbvbbbbbbbbnnbnbnnbnnnnnnnnnnnnmnmnmmmnmmmmmmmmmmmmmmmmmmmmMmmmMmmmmMmmmMmMmmMmMmMmMMmMmMMmMmmMmMmmmMmmmMmmmmMmmmMmMmmmmmmmmmmmmmmmmmmmmmmmmmnmmnmnmnmnnmnnnmnnnnnnnnnnnnnbnnbnnbnbbnbnbbbbbbbbbbbbbvbbvbvvbaaaaaaaaaavvcvvcvcvcvccccccccccxcxcxxxcxxxxiiiuiiuiuiuuuuuulyyuyyuyyyyyyylklkkkkkkjkkjkjjjjjjhjhhjhhhhhwwhwhwwwwwqqwqqqq0q0q0000099999989888887877777666665656555;;;;;;-;---=-===******@@@@++@+X+X+X+XX+X+X+XXX.o.o.o          ",
"         6789900qqwwwhhjhjjjkjkkkkkkkllllllzzlzzzxzzxxxxxcxxcccccccvcvcvcvvvvvvbvvbvbbbbbbbbbbnbbbnbnnnnnnnnnnnnmmnmnmnmmnmmmnmmmmmmmmmmmmmmMmMmmmMmmmMmMmmMMmMmMmMmmMmMmmMmMmmMmMMmMmMmMmMMmmMmMmmmMmmmmMmmmMmmmmmmmmmmmmmmmmmmnmmnmmmmnmnmmnmnmnnmnnnnnnnnnnnnbnnbnbnnbnbbnbnbbbbbbbbvbbvbbvbbvsasaaaaaaaavvcvvcvcvcvccccccccccccxcxcxxxxxiiiiuiuiuuuuuuuuzuuuuyyyyytyytytytttttkkkjkjjkjrrrrrjjhhehhhhwhwwwwwwwwwqqqqqq0q0000000009999899888878777677666666555555;;;;;-----======*****@@@@++++X+X+X+X++X+X+++Xo.o.o.         ",
"         5889000qqwwhhhhjjjkjkkkkklllllllzzlzzzzzzxxxxxxxxccxcxcccccvcvvvvvvvvvvbvbbbvbbbbbbnbnbnnnnnnnnnnnnnnmnmnmnmnmmnmmmmmmmmmmmmmmmmmmmmmmmMmmMmMmMmMmMmmMmmMmMMmMmMMmMmMMmMmmMmMmMmmMmMmmMmMmMmMmMmmmMmmmMmMmmmmmmmmmmmmmmmmmmmnmnmmmnnmnmnnmnnmnnnnnnnnnnnnnnnbnbnbnnbbbbnbbbbbbbbbbbvbbvvbasvaaaaaaaavvvcvcvcccvcccccccxcxccxcxxcxxxiiuiiiiuuiuuuuuzzzyuyuyuyyyyyytytyttttttkkjkrtrrrrrjhjjhehhhhhhwhwwwwqqwqwqqqqq0q00000999999998888888787777676666556555;5;;;-;----=-===*=**@*@@@@+@++X+X++X+X+X+X+XX+.o.o.o      Z  ",
"         689900qqwwwhhhjjjjjkjkkkkkklllllllzzzzzxzxzxxxxxcxccccccvcvcvvcvvvvvvbvvbbvbbbbbbnbbnbnnnbnbnnnnnnnmnnmnnmnmmnmmmmmmmmmmmmmmmmmMmMmMmMmMmMmMmMmMmMmMMmMMmMmMmMMmMmMmMmMmMmMmMmMMmMmMmMmMmMmMmMmmMmmmMmmmmmmmmmmmmmmmmmmmmmnmmmmnmnmmmmnmmnmnnnmnnnnnnnnnnnbnnnnnnbnbnnbbbbbbbbbbbvbbbvbvbvvbvaaaaaaaacvvvvcvvvccvcccccccccxcccxxxxxiiiiiuiiiuiuuuuzzlzuyuyyyyyytyyyytytttttttttrtrrrrrrjhjrehhhhhwhwwwwwwwqwqqqqqqqq0q00000009999999887887777776666666555555;;;;;;----=====******@@@@+++X+X+X+X+X+X+X+X+X.o.o.         ",
"         788900qqwwhhhjjjjkkjkkkklllllllzzzzzzzxzxxxxxxcxccxccccccvcvcvvvvvvvbvbbvbbbbbbbbbnnbnnbnnnnnnnnnmnnmmnmmnmmnmmmmmmmmmmmmmmMmmMmmmmMmMmmMmMmMmMmMmMmmMmMmMMmMMmMMMMmMMMMMMmMMmMmMmMmMMmMmmMmmMmMmMmMmMmMmmMmmmmmmmmmmmmmmmmmmnmmmmnmnmmnmnmnmnnnmnnnnnnnnnnnbnnbnnbnbbnbnbbbbbbbbbbvbbbbvbbvvvvsaaaaaavcvvvcccvcccpppccccxccxxccxcxiiiiiiiuiuiuiuuzzzzuuyuyuyyyyyytytytyttttrtrtrrtrrrrrjjhjhhhhhhhwhwwwwwwqqwqqq0q0q00000099999989888887877777676665656555;;5;;------=-==*=****@*@@+@+++X+X+X+X+X+X+X+X+o.o.o         ",
"         889000qqwwwhhhjjjjkkkkkkklkllzllzlzzzzzxxzxxxxxcxccccccvcvcvvvvvvvvbvvbvbbbbbbbbnbbbnbnnnnnnnnnmnnmnnmnmnmmmmmmnmmmmmmmmmMmmMmmmMmMmMmMmMmMmMmMmMMMMMmMMMmMMmMMmMmMMmMmMmMMmMMMMmMMMMmMmMMmMMmMmMmMmmMmmMmmMmMmmMmmmmmmmmmmmmmmmnmmmmnmmnmnmnmmnnnmnnnnnnnnnnnnnbnbnnbnbnbnbbbbbbbbbbbbvbvbvbbvvvaaaaaavvcvvvvcvpppppppppcxcccxcxiiiiiiiuiiuiuiuuuuzzzyuuyuyyyyyyyyyytyttttttttrttrrrrrrrrrejhhhhwhhwhwwwqwwwqqqqqqq0q00000000999989988887877777766665655555;;;;;;;----======****@@@@+++++X+X+X+X+X+X++X+Xo.o.         ",
"        679990qqwwwhhjjjjkjkkkkklkllllllzzzzzzxxzxxxxxccxccccccccvcvvcvvvvvbvbbvbbbbbbbbnbnnnnnnbnnnnnnnnnmnmnmnmmmnmmmmmmmmmmmMmmmMmmmMMmMmMmMMmMMmMMMmMMmMmMMMmMMMMMMMMMMMMMMMMMMmMMmMmMMmMmMMMmMmMmMmMmMmMMmMmMmMmmmmMmmMmmmmmmmmmmmmmmmnmmmnmmnmnmnnmnmnnmnnnnnnnnnbnnnnbnbnbbbnbbnbbbbbbbvbbvbvbvvbvbaaaaaaavavcvcpapaapcpppppccxccxcipiiiiiiiiiuiuiuiuzzuuuyuyuuyyyyyytyyttytttttttrtrtrrrrrererhjhhhhwhwwhwwwqwqwqqqq0q0q00009990999998888887877766766665655555;;;;--;--=-===*=****@*@@@+++X+X+X+X+X+X+X+X+X.o.o.        ",
"        689900qqwwhhhhjjjjkjkkklklllllzlzlzzzxzzxxxxxxxxcxcccccvvcvcvvvvvvbvvbvbbbbbbbbnbnbnbnbnnnnnnnmnmnmnmmnmmmmmmmmmmmmmmMmmmMmmmMMmMmMmMmMmMMmMMmMMmMMMMMmMMMMmMmMmMmMmMmMmMmMMMMMMMMMMMMmMmMMMmMMMmMmMmMmMmmMmMmMmmMmmmmMmmmmmmmmmmmmmmnmmmnmmmmmnmnmnnnnnnnnnnnnnnnbnnnnbnnbbnbbbbbbbbbbbbbbbvbbvbvsaaaaaaaaaapaapapvcccpppppcccxcpipipiiiiiiiiiiuiuuuuuuuuuuyyuyyyyyyytyyttttttrtttrrtrrrrrrrehhhhhhhwhwwwwwwwqwqqqqqqq0q00000099998989888887777776666665555;55;;;;;-----====*=****@@@@@+++X+X+X++X++X+X+X+o.o.o        ",
"        78990qqqwwwhjjjjkkkkkkkkllklllzzzzzzzzxxxxxxcxccccccccvccvvvvvvvvvvbbvbbbbbbbnbnbnbnnnnnnnnnnnnnmnmnmmmmmnmmmmmmmmmmmmmMmmMMmMmMmMmMMmMMMmMMmMMMMMmMmMMMMMmMMMMMMMMMMMMMMMMMMmMmMmMmMMMMMMmMMMmMMMMmMmMmMMmmMmMmMmmMmmmmMmmmmmmmmmmmmmmnmmmnnmnmnmnnmmnmnnnnnnnnnnnnbnbnnbnbbnbnbbbbbbbbvbvbbvvbvvvvaaaaaaapaaapapaccvccpppppccpippipiiiiiiiuiuuiuuiuuuuuuyuuuyuyyyyytyyttyttttttrtrtrrrrrrerrjhhhhhhhwhwwwwwwwqqwqqqq0q00000090999999888887877777676666565555;5;;;-----=-====*****@@@@+@+++X++X+X+XX+X+X+X+.o.o        ",
"        889000qwwwhhhjjjjjkkkkklklllzlllzzzzxzxzxxxxxcxccccccvcvvcvvvvvbvbvbvbbbbbbnbbbnbnnbnnnnnnnnnmmnmnmmnmnmmmmmmmmmmmmMmMmMmMmMmMmMmMMmMMMmMMmMMMMmMMMMMMMMMMMMMMMMMMMMMMMMMMMMMMMMMMMMMMmMmMMMmMMmMmMMmMMMmmMMmMmMmmMmMmMmmmmMmmmmmmmmmmmmmnmmmmmnmnmmnnnnnmnnnnnnnnnnnnnbnnbnbnbbbbbbbbbbbbbbbbbvbbvbvaavaaaaapaaavvcvcvcccppppccppipippiiiiiiiiiiiuuuuuuuuuuyuyuyyyyyyytyytytttttttrtrtrrrrrrhjhjhhhwhhwhwwwwqwwqqqqqqqq0q00009090999899888878777776666665655;5;;;;;;----======*****@@@@+++X+XX+X+X++X+X+X+Xo.o.        ",
"       688900qqwwhhhjjjjkkkkkklklllllzzzzzzzxxxxxxxcxcccccccccvcvvvvvvvvvbbvbbbbbbbbbnnbnnbnnnnnnnmnmnnmmmnmmmmmmmmmmmmMmMmmMmMmMmMmMmMMMmMMMmMMMMMMMMmMMMMMMMMMMMMMMMMMMMMMMMMMMMMMMMMMMMMMMMMMMMMmMMMMMMMmMMmMMMmmMmMmMmMmmMmMmMmmmMmmmmmmmmmmmmmmnmnmmmnmnmmnmnnmnnnnnnnnnnnnnbnnbnbnbnbbbbbbbbbbvbbbvvbvvbvvvvvaaaaavcvvcvccvppppppcpippiiipiiiiiiuiuiuiiuuuuuuuuyuyyuyyyyyytytttyttttrttrrtrrrrrjereehhhhhhwhwwwwwqwqqqqq0q000000009999998888888787776776666565555;5;;;-;----====*=***@*@@@+@+++X+X+X+X+X+X+X+X.o.o.       ",
"       689000qqwwhhhjjjkjkkkklklllllzlzzzzzxzxzxxxxcxcxccccvcvcvcvvvvvbvbvbbbvbbbbbnbnbnbnnnnnnnmnnnmmnmnmmmmmmmmmmmmMmmmMmMmmMmMmMmMMMmMMMmMMMMMmMMMMMMMMMMMMMMMMMMMMMMMMMMMMMMMMMMMMMMMMMMMMMMMMMMMMMmMmMMMMmMmMMMMMmMmMmMMmmMmmMmmmmMmmmmmmmmmmmmmmmmnmnmmnnmnnnnmnnnnnnnbnnbnnbnnbnbnbbnbbbbbbbbbvbvbbbbvvvvvvvaaaapacvcvcvccpppppppppipppiipiiiiiiiiiiuuiuuuuuuuuyuuyyyyyyyytyytttttttrttrtrrrrrrrerrehhhwhwhwwwwwwqwqqqqq0qqq0000900999999988788777777666566565555;;;;;;--=--=====****@@@@@+++X+X++X+X+X+X+X+X+.o.o       ",
"       68990qqwwwhhjjjjkkkkkkklllllzlzlzzzxzxxxxxxxcxcccccccvcvvvvvvvvvvbbvbbbbbbbnbnbnnnnnnnnnnnmnmnmmnmmnmmmmmmmmmmmmMmmMmMMmMmMMMmMmMMmMMMMmMMMMMMMMMMMMMMMMMMMMMMMMMMMMMMMMMMMMMMMMMMMMMMMMMMMMMMMMMMMMmMMMMMMmMmMMmMMmMmmMmMmmmMmmmmMmmmmmmmmmmmmmmmmmnmmmnmnmnnnmnnnnnnnnnnnnbnnbnbnbnbbbbbbbbbbbbvbvvbbvbvvvvvvaaaavcvccvccpappppppppipipiipiiiiiuiuiiuuiuuuuyuuyyuyuyyyyyytytytttttttrtrrtrrrrrreeeeehhhhwwhwwwwwqwqqqqqq00000000999998988888787777676766565555;5;;;;-----=-==*=*****@@@@++++X+X+X+X+X+X+X+X+o.o.       ",
"       88900qqqwhhhhjjjkjkkkllklllllzzzzzzxzxzxxxcxxcccccvcvcvcvvvvvvbvbvbbbbbbbbnbbbnnnnnnnnnnnnmnmmnmmmmmmmmmmmmmMmMmmMmmMmMmMMMmMMMMMMMMMMMMMMMMMMMMMMMMMMMMMMMMMMMMMMMMMMMMMMMMMMMMMMMMMMMMMMMMMMMMMMMMMMMmMmMMMMmMMmMMmMmMMmMmMmMmMmmmMmmmmmmmmmmnmmnmmnmnmnmmnmnnmnnnnnnnnnnnnnbnnbnbbnbnbbbbbbbvbbvbbvvbvvbvvvvaaavvvcvvcvcpppppppppppppipiiiiiiiiiiuuiuuuuuuuuuuyuyyyyyyyyytytttttttttrtrrrrrererrreeehhhhwwwwwqwwwqqqq0qq0q000009099999898888787777766666565555;5;;-;;----======***@*@@@@++++X+X+X+X+X+X+X+X.o.o       ",
"       88000qqwwhhhjjjkjkkkkklllllzzlzzzzzxzxxxxxxcccxcccccvcvvvvvvvvbvbbvbbbbbbnbnnnnbnnnnnnnmnmnmnmmnmmmmmmmmmMmmmmMmMmMMmMmMMmMMMmMMMMMMMMMMMMMMMMMMMMMMMMMMMMMMMMMMMMMMMMMMMMMMMMMMMMMMMMMMMMMMMMMMMMMMMMMMMMMmMmMMmMMmMMMmmMmMmmMmmmMmmmMmmmmmmmmmmmmmmmnmnmnmnmnmnnmnnnnnnnnbnbnnbnbnbbnbbnbbbbbbbbbbvbbvvbvvbvvvvvvcvvvcvcvcappppppppipipipipiiiiiiiiiuiuiuuuuuyuuyuyuyyyytyytytyttttrtttrtrrrrrreeeeeeehwhwhwwwwwqqwqqqqq0q0q000909099989888888777776766666555555;;;;;-----=-==*=****@*@@+@++X+X+X+X+X+X+X+X+X.o.       ",
"       89900qwwwhhjjjjkkkklklklllzllzzzzxzxxxxxxcxcxccccccvcvcvvvvvvbvbvbbbbbbbnbbbnbnnnnnnnmnnmnmnmmmmnmmmmmmMmmmMmMmMmMmmMMMmMMmMMMMmMMMMMMMMMMMMMMMMMMMMMMMMMNMNMNMNMNMNMNMNMNMNMMNMMNMMMMMMMMMMMMMMMMMMMMMMMMMMMMMMMMMMMmMMMMmMMmMmMmmMmmmMmmmmmmmmmmmnmmmmmmmnmnmnnnnmnnnnnnnnnnnbnnnbnnbbbbbbbbbbbbvbbbvbbvvvvvvvvvvvvvcvvvcvcapppppppppppipiiiiiiiiuiuiiuuuuuuuuuyuuyyyyyyyyyytyttttttttrtrtrrrrrrrrereehhhwhwwwwwwwqwqqqqqq0000000099999899888888777767666566555555;;;;;----====*=****@@@@++++X+X+X+X+X+X+X+X+o.o       ",
"      68900qqqwhhhhjjkjkkkkkllllllzzzzzzzxzxxxxxcxcccccvcvcvvvvvvvvbvbbbbbbbbbnbnnnbnnnnnnnnnmmnmnmmnmmmmmmmmmmmMmMmMmMMmMMMmMMMMMMMMMMMMMMMMMMMMMMMNMMNMNMNMNMNMMNMMNMMNMMNMMNMMNMMNMMNMMNMMMMMMMMMMMMMMMMMMMMMMMMMMMMmMmMmMMmMmMmMMmMmMmmMmmmmMmmmmmmmmmmmmnmnmnmmnmnmmnnnmnnnnnnnnnnnbnnbbnbnbnbbbbbbbbbbbbvvbbvbvvvvvvvvvvvccvcvcpapppppppippipipiiiiiiiiiuiuiuuuuuuuuyuyuyyyyyttytyttttttrtrtrrtrrrrereeeeehhhwwhwwwwqwqqqqq0qq0q00090909999888888777777766666655555;;;;;-----=-====****@*@@@+@+++X+X+X+X+X+X+X+X.o..      ",
"      68990qqwwwhhjjkjkkkklkllllzlzlzzzzxzxxxxcxxcccccccvcvcvvvvvvbvbvbvbbbbnbbnbbnnnnnnnnnmnnnmnmmmmmmmmmmmMmMmMmmMmMmMMMmMMMmMMMMMMMMMMMMMMMMMNMNMMNMMNMMNMMNMNMMNMMNMMNMMNMMNMMNMMNMMMNMMNMNMNMMNMMMMMMMMMMMMMMMMmMMMMMMMmMMmMMMmMmMmMmMmMmMmmmMmmmmmmmmmmmmmnmmnmnmnmnmnnnnnnnnnnnnnnbnnbnbnbbbbbbbbbbvbvbbbvvbvvbvvvvvvvcvvvvcvcapppppppppippipiiiiiiiiiuiuiuiuuuuuyuuyuyyyyyyyyyytyttttttttrtrrrrrrrrrereehwhhhwwwwwwqwwqqqqq0q00000909999999888888877767766656655555;;;;;-----======****@@@@+++X+X+X+X+X+X+X+X+X.oo    Z ",
"      69900qqwwhhjjjjkkkkkkllllllzlzzzzxzxxxxxxccxcccccccvvvvvvvvvbvbbvbbbbbbbnbnnbnnnnnnnmnmmmmmmnmmmmmmmmmmmmMmMmMmMMmMmMMmMMMMMMMMMMMMMMMMNMMMMMNMMMNMMNMMNMMNMNMNNMNNMNNMNNMNNMNMMMNNMMNMMNMMMNMMNMNMMMMMMMMMMMMMMMMMMMMMMmMMmMMmMmMmMmMmMmMmMmmMmmmmmmmmmmmmmnmmmnmnmnmnmnnnnnnnnnnnnnbnnbnbnbnbbbbbbbbbbbvbbvvbvvbvvvvvvvvcvvcvppapapppppppipipipiiiiiiiiuiuuuiuuuuuyuyuyuyyyyytyttytttttrtrtrtrrrrerereeeeehwwhwwwwwwqqqqqqqq00q0000090999989888787777776666665555;5;;;;;----=-===*****@*@@@++++X+X+X+X++X++X++Xo..      ",
"      89000qwwwhjhjjkjkkkllklllzlzzzzzxzxxxxxxcxxccccvcvvvcvvvvvvbvbvbbbbbbbnbnnbnnnnnnnnmnmnmnmnmmmmmmmmmMmMmMmmMmMMmMMMMMMMMMMMMMMMMMMMMMNMMNMNNMMNMNMMNMNMNMNMNNMNMNMMNMMNMMNMMNMNNNMNMNMNMMNMNMMMMMMNMNMMMMMMMMMMMMMMmMMMMMMMMMmMMMmMMmMmmMmMmmmmMmmmmmmmmmmmmmnmnmmmnmnmnnmnnnnnnnnnbnnbnnbnbnbbbbbbbbbbvbbbvbbvbvvvvvvvvvvvcvvcaapppppppppppppipiiiiiiiiiiuiiuuuuuuuuuuyuyyyyyyyyyytttttttttrtrrrrrrrrereeeeehhwhwwwqwwwwqqqq0qq00000909999998888887877767666656555555;;;;;----======****@@@@@++++X+X+X+X+X+X+XX+.oo      ",
"      8990qqwwhhhjjjkkkkkkllllllzlzzzzzxzxxxxxcccccccccccvvvvvvvbvbbbbbbbbbnbnnbnnnnnnnmnmnmnmmmmmmmmmmmMmmmMmMmMMmMMMMmMMMMMMMMMMMMMMMNMNMMMNMMNMMNMNMNNMNMNMNMNMNNMNNNNMNNNNNMNNMNMMMNMNMNMNNMNMMNNMNMMMMMNMNMMMMMMMMMMMMMMmMMmMmMMmMMMmMmMmMmmMmMmmmMmmmmmmmmmmmmmmnmnmnmnnmnnmnnnnnnnnnnnbnnbnbbnbbbbbbbbbbbbbvvbvbvvvvvvvvvvvvcvvpapppppppppipipiipiiiiiiuiiuiuiuuuuuyuuyuyyyyyyytytytyttttrtrtrtrrrrrrrereeeeehwhwwwwwqqqqqqqqq00q00009099998998887877777767666565555;5;;--;---=-===*=***@*@@+@++X+X+X+X+X+X+X++Xo..      ",
"      8900qqwwwhjjjjjkkkklklllzlzzzzzzxzxxxxcxxxcccccvcvvvcvvvvbvbvbvbbbbnbnbnbnnnnnnnnnnmnmnmnmmmmmmmMmmmmMmMmMmMMMmMMMmMMMMMMMMMMMMNMMMMMNMMNMNMNNMNNMMNMNNNMNNMNMNNMMNNMNMMNNMNMNNNNMNMNMNMMNMNNMMNMNMNNMMMMMNMMMMMMMMMMMMMMMMMMMMMmMmMmMMmMmMmMmmMmmMmmmmmmmmmmmmmmmmnmnmmnmnnmnnnnnnnnnnnbnnbnnbnbnbbbbbbbbvbbbvbvbvbvvvvvvvcvvcpapapapppppppppippipiiiiiiiiiuiuuuuuuuyuuyuyuyyyyyyytyttttttttrtrrrrrrerereeeeeewhwhwwwwwwwqqqq0q000000090999998888878777776666665655;5;;;;;-----=====*****@@@@+++X+X+X+X+X+X+X+X+.oo      ",
"     69900qqwwhhjjjkkkkklklllllzlzzzzxzxxxxxxcccccccccvcvvvvvvvvbvbvbbbbbbbnbnnnnnnnnnmmmnmmmmmmmmmmmmmmMmMmMmMMMmMmMMMMMMMMMMMMMMMNMMMNNMNMNMNMNMNMNNMNNNNMNMNNMNNMNMNNNMNNNNMNNMNNMNMNNNMNNNNMNMNMNMNMNMMNMNNMMMNMNMMMMMMMMMMMMMMMmMMMMMMmMMmMmMmMmMmmmmMmmmmmmmmmmnmnmmnmnnmnmnnnmnnnnnnnbnnnbnbbnbnbbnbbbbbbbbbvbvbvvvbvvvvvvvvvvapapapppppppppippipiipiiiiiuuiuiuiuuuuuuyuuyyyyyyytytyttttttrttrtrtrrrrrreereee4e44ww4w4qqqqqqqqq0q000090999998988888877777676665655555;5;;;-;---====*=****@@@@@+++X+X+X+X+X+X+X+XX..o     ",
"     69900qwwhhhhjkjkkklkllllzlzzzzzxzxxxxxxcxxccccvcvcvcvvvvbvbvbbbbbbbnbnbnnnnnnnnmnnnnmnmnmmmmmmmmmmMmMmMMmMmMMMMMMMMMMMMMMMMMNMMNMNMMNNMNMNMNNMNMNNMNMNNNNMNNMNNNNNNNNNNMNNMNNMNNNNMNMNNMMNMNMNNMNMNMNNMNMMMNMMMMMMMMMMMMMMMMMMMMMMmMmMMmMMmMmMmMmMmMmmMmmmmmmmmmmmmnmmmmmnmnnmnnnnnnnnnnnnnnnnnbnbbbbbbbbbbbvbbbbvbbvvvvvvvvvcvcvpappapapppppppipipipiiiiiiiiiiuiuuuuuuuuuyuuyyyyyyyyytytttttttrtrrrrrrrerreeeeeee4e4444443wqqqq0qq0000090999998988887877777666665655555;;;;;-----=====*****@@@+@++++X++X+X+X+X+X++oo.     ",
"     7990qqwwwhjjjjkkkkkllllllzlzzzzzxxzxxxcxcccccccvcvvvvvvvvvbvbvbbbbbbnbnnbnbnnnnnmmmmmmmmmmmmmmMmMmMmMmMmMMMMmMMMMMMMMMMMMNMMMMNMNMNNMMNNMNNMNNNNNMNNNMNMNNNNNNMNMNMNMNMNNNNNNNNMNNNNNNMNNMNNNMNNMNMNMMNMNMNMNMNMNMMMMMMMMMMMMMMMMMMMMMmMMmMMmMmMmmMmmMmmMmmmmmmmmmmmmnmnmmnmmnmnmnnnnnnnnnbnbnbnbnbnbnbbbbbbbbvbbbvvbvbvvvvvvvvvvapaappppapppppppipiipiiiiiiiuiuiuiuuuuuyuyuyuyyyyytytyttttttrttrtrtrrrrrreeeeeee4e4444434343qqqqq00q000090999998988887877767666665555;5;;;;-;---=-===*=***@*@@@+++XX+X+X+X+X+X+X+X..o     ",
"     8900qqwwhhhjjjjkkklklllzlzzzzzzxzxxxcxxcxccccvccvvcvvvvvbbvbbbbbbbbnbnbnnnnnnnmnnnmnmnmmmmmmMmmMmmMmMmMMMmMMMmMMMMMMMMMNMMNNMNMNMNMMNNNMNNMNNMNMNNNMNNNNNNMNNNNNNNNNNNNNMNNMNNNNMNMNMNNNNNNMNNMNNMNMNNMNMNMNMMNMMNMNMNMMMMMMMMMMMMMMMMMMMMmMMmMmMmMmMmmmmMmmmmmmmmmmmmnmmnmnnnmnnnnnnnnnnnnnnnnnbnbnbbbbbbbbbbbvbvbbvbvvbvvvvvvcvaapapaappppppppppppiipiiiiiiiuiiuuuuuuuuuuuyuyyyyyytytyytttttttrtrrrrrrrerereeeeeeee4444443333qq0q00000000999989888888777776766656655555;;;;-----======****@@@@@+++X+X+X+X+X+X+X+Xoo.     ",
"     8900qqwwhhjjjkkkkkllllllzlzzzzxzxxxxxxcccccccccvvvvvvvvbvvbbbbbbbnbnbnnnnnnnnnnnmmnmmmmmmmmmmmMmmMMmMMmMmMMMMMMMMMMMMMMMMNMMNMNMNMNNMNMNNMNNMNNNNNNNNNNNNNNNNNNNNNNNNNNNNNNNNNNNNNNNNNMNMNNNNMNNMNNNMNMNMNNMNNMNMMNMMMMNMMMMMMMMMMMMmMMmMMMMmMMMmMmMmMmMmmmMmmmmmmmmmmmmnmmmmmnnmmnnnnnnnnnnbnbbnnbnbnbnbbbbbbbbbbvbvbvbvvvvvvvvvapapapapppppppppiipipiipiiiiiiiuiuiuuuuuuyyuyyuyyyyyyyttytttttrttrtrrrrrrrereeee4e4444444344333qqq0q00009990999989888787777766666655555;5;;;;----=-===******@@@@++++X+X+X+X+X+X+X+X.o     ",
"     9900qwwhhhjjjkkklklkllllzzzzzxzxxxxxxxcxccccvcvccvvvvbvvbbbbbbbnbbnbnnnnnnnnnmnmnmmnmmmmmmmmMmmMmMmMmMMMMMMMMMMMMMMMMNMNMMMNMNMNNNMNNMNNNNNNNNMNNNNNNNNNNNNNNNNNNNNNNNNNNNNNNNNNNNNNNNNNNNNMNNMNNNMNNNNMNNMNMMNMNMMNMNMMMNMMMMMMMMMMMMMMMMmMMMmMmMMmMmMmmMmmMmmmmmmmmmmmmmnmnnmmnnmnmnnnnnnnnnnnbnnbnbbbbbbbbbbbvbbbbvbvvbvvvvvvvaaaapapapappppppppppipiiiiiiiiuiuiuiuuuuuuuyuuyyyyyyytytytttttttrtrtrrrrrereeeeee4e4e4w4444333330qq00000009999989888887877767766665655;5;;;;-;----===*==***@*@@+@++X+X+X+X+X+X+X+X+o.     ",
"     990qqqwhhhjjkjkkklklllzzlzzzzzxzxxxxccxccccccvcvvvvvvvvbvbvbbbbbbnbnnbnnnnnmnmnmmmnmmmmmmmMmmmMmMmMMMMmMMMMMMMMMMMNMNMNMNNNMNMNNMNNNMNNMNMNNNNNNNMNNNNNNNNNNNNNNNNNNNNNNNNNNNNNNNNNNNNNNNNNNNNNNMNNNMNMNNMNNNNMNMNNMMNMNMMMNMMMMMMMMMMMMMMMMmMMMMMmMmMmMmMmmmmMmmmmmmmmmmnmmnmmnmnnmnnmnnnnnnnnnnbnnbnnbnbbbbbbbbbvbvbvbbvvbvvvvvaapaapappppappppppipipipiiiiiiiiiuiuuuuuuuuuyyuyyyyytyytytyttttrtrtrrrrrrrrereeeeee4e4w4434343333q0q000009099999898888877777766665655555;5;;;-;---=-===*****@@@@+@++X+X+X+X+X+X+X+X.o     ",
"    6900qqwwwhjjjkkkkklllllllzzzzxzxxxxxxxcccccccvcvcvvvvvbvbvbbbbbbnbnnbnnnnnnnnmnmnnmmmmmmmmmMmMmMmMMmMmMMMMMMMMMMMNMMMMNMNMMMNMNNMNNMNNNNNNNNNNNNNNNNNNNNNNNNNNNNNNNNNNNNNNNNNNNNNNNNNNNNNNNNNNNNNNNMNNNNNMNNMNMNMNMNMNMNMNNMMMNMMMMMMMMMMMMMMMmMmMmMmMmMmMmMmMmmMmmmmmmmmmmmmmmnmnmmnnnnnnnnnnnnnnnbnnbbnbbnbbbbbbbbbbbbvvbvvvvvvvvaaaapapaapppppppppppipipiiiiiiuiiuiuiuuuuyuuuyuyyyyyyyyttttttttttrrtrrrrrerereeeeee4e44443433333qq0q000009099999888887887776766665655555;;;;;-----=====*****@@@@++++X+X+X+X+X+X+X+Xo.    ",
"    7990qqwwhhjjjkjkklklllzzzzzzzzxxzxxxccxcccccvcvvvvvvvvvbbbbbbbbbbnbnnnnnnnnmnmnmmmmmmmmmmMmmMmMmMMmMMMMMMMMMMMMMMMNMNMNMNMNNNNNMNNMNNNNNNNNNNNNNNNNNNNNNNNNNNNNNNNNNNNNNNNNNNNNNNNNNNNNNNNNNNNNNNNNNNNMNNNNMNMNNNMNMNMNMNMMNMNMMNMMMMMMMMMMmMMMMMMMmMMmMmMmmMmmMmmMmmmmmmmmmnmnmmnmnmnmnmnnnnnnnnbnnbnnnbbnbbnbbbbbbvbvbvbvvbvvvvvaaapaapapapappppppipipipiipiiiiiiuiuuuuuuuuuyuyuyuyyyytytyttttttrttrtrrrrrrreeeeee4e44444444343333q0q0000009999998988887777776766665655;5;;;;-;---=-==*=****@*@@++++X+X+X+X+X+X+X+X+.o    ",
"    7900qqwwhhjjjkkkkllllllllzzzzxzxxxcxxxccccvcvcvcvvvvvvbvbvbbbbnbnbnnbnnnnmnnmnmmnmmmmmmMmmmMmMmMmMMMmMMMMMMMMMMMNMMNMNMNMNNMNMNNNNNNNNNNNNNNNNNNNNNNNNNNNNNNNNNNNNNNNNNNNNNNNNNNNNNNNNNNNNNNNNNNNNNNNNNNNMNNNNNNMNNNMNMNMMNMNMMMMMNMMMMMMMMMMMMMMmMMmMMmMmMmMmMmmmmmmmmmmmmmmmmmnmmnmnmnnnnnnnnnnnnnnbnbnnbnbbbbbbbbbvbbbvbvvbvvvvaaaapaapapappppppppppppipiiiiiiiiiuiiuiuuuuuuyuyyyyyyyytyytytttttrtrtrrrrrerrereeeeeeee44444343333330q000090099999888888877777666566555555;;;;-----======****@@@@@+++X+X+X+X+X+X+X+Xo.    ",
"    7900qwwhhhjjkjkkllklllzzzzzzxzxxxxxxcccccccccvcvvvvvbvbvbbbbbbbnbnbnnnnnnnnmnmnmmmmmmmmmmMMmMmMMMMmMMMMMMMMMMNMNMNNMNMNNNMNNNNNMNNNNNNNNNNNNNNNNNNNNNNNNNNNNNNNNNNNNNNNNNNNNNNNNNNNNNNNNNNNNNNNNNNNNNNNNNNNNMNNMNNMNNMNMNNMNMNMNNMMMNMMMMMMMMMMMMMMMMMmMMMmMmMmmMmMmmmmmmmmmmmmmmnmmnmnmnmnnnnnnnnnnnnbnbbnbnbbbbbbbbbbvbbvbvvvbvaaaaaaapapappapapppppippipiiiiiiiiiiuiuuuuuuuuuyuuyyyyyyyytyttttttttrtrtrrrrrereeeeee4444444343433323q0q0000099998998888787777676666565555;5;;;-;---=-==*=***@*@@@+++X+X+X+X+X+X+X++X.o    ",
"    790qqqwhhhjjkkkkklllllzlzzzzzxxxxxxxcxcccccvvcvvvvvvbvbbvbbbbnbnbnnnnnnnnmnmmnmmmmmmmmmmMmmMmMmMmMMMMMMMMMMNMMNMMMMNMNNMNNNNMNNNNNNNNNNNNNNNNNNNNNNNNNNBNBNBNBNBNBNBNBNBNBNBNBNBNNBNNBNNNNNNNNNNNNNNNNNNNNNNNNNNNMNNMNNNNMNMMNMMNMNMMMMMMMMMMMMMmMMMmMMMmMmMMmMmMmmMmMmmmmmmmmnmmmmnmmnmnmnmnnnnnnnnnnnbnnbnbbnbbbbbbbbbvbbvbbvvaaaaaaaaaaapapappppppppippipipiiiiiuiiuiuiuuuyuuuuyuyyyyytyytytttttrttrtrrrrrrrrereeeeee4e4444443333320q0000909099998988887877776766665655;5;;;;;-----====*=***@@@@@@++X++X++X+X+X+XX++.    ",
"    990qqwwhhjjjkkkllkllzlzzzzzxxzxzxxccxcccccvccvvvvvvvvbvbbbbbbbbnnnbnnnnnmnmnmmmmnmmmmMmMmMmMmMMMMMMMMMMMMMMMMNMNNNNNNMNNMNMNNNNNNNNNNNNNNNNNNNBNNBNBNBNNNNBNNBNNBNNBNNBNNBNNBNNNNBNNBNNBNBNNBNNNNNNNNNNNNNNNNNNNNNNMNNMMNNMNNMNMMNMNMNMMMMMMMMMMMMMMMMmMMMMmMmMmMmMmmmmMmmmmmmmmmmmmnmnmnnmnnmnnnnnnnbnnnbnbnbbbnbbbbbbbbbvbvbvbaaaaaaapapaapappappppppppippiipiiiiiiuiiuuiuuuuyuyuyuyyyyyytyytytttttrtrrtrrrreereeeee4ee4444434343333q0q00000909999988888877777766666555555;5;;;-;--=-====*****@@@@++++XX+X+X++X++X+XXo    ",
"    900qqwwhhjjjjkkkllllllzzzzzzzxxxxcxxccccvccvvvcvvvvbbvbbbbbbnbnbbnnnnnmnnnmnmnmmmmmmmmmmMmmMMmMmMMMMMMMMMMNMNMMMMNMMNNMNNNNNNNNNNNNNNNNNNNBNBNNBNNNBNNBBNBNNBNNBNNBNNBNNBNNBNNBBNNBNNNNNNNBNNNNNNNNNNNNNNNNNNNNNNMNNNNNNNNNMNNMNMNMMNMMNMNMMMMMMMMmMMMMMMmMMmMMmMmmMmMmmmmmmmmmmmmnmmmmnmmnnmnnnnnnnnnnbnnbnbnbnbbbbbbbbbbbbbsasasaaaaaaaapaapappppppppppppipiiiiiiiiiiuiuuiuuuuyuuyuyyyyyyytyttttttttrttrrrrrrrereeeeee4e4444434333333q0q00009099998998887887776766666655555;;;;;----===*==***@*@@+@@+X++X+X+X+X+X+X++.    ",
"    990qqwwhhjjkkkklklllzzzzzzxxxxxxxxcccxccccvcvvvvvvbvvbbbbbbbbnbnnnnnnnnnmmnmmmmmmmmmMmMmmMMMmMMMMMMMMMMMNMMNMNNNMNMNNMNNNNNNNNNNNNNNNNNBNBNNNNNNBNBNNBNNBNNBNBBNBBNBBNBBNNBNNBNNBNNNBBNBBNNNBNBNNNNNNNNNNNNNNNNNNNNNNMNNMNMNNMNNMNMNMNMNMMMNMMMMMMMMMMMmMMMmMMmMmMmMmmmMmmmmmmmmmmmmnmnmmnmnmnmnnnnnnnnnnnnbnnbnbnbbbbbbbvbvsasasaaaaaaaaaaapapapapapppppippipipiiiiiuiiuiuuuuuuuuyuyyuyyyyyytytyttttrtrrtrrrrrrrereeee4ee4e444433433320q0000009909998888888777777666655655;5;;;;-;---=-===*=***@*@@++++X+X+X+X+X+X+X+Xo    ",
"    900qwwhhhjjjkklklllllzlzzzzzzxxxxcxxcccccvcvvvvvvvvbbbvbbbbbnbnnnnnnnnnmnnmmnmmmmmmmMmmMMmmMMMMMMMMMMMNMMNMMNMMNNMNNNNNNNNNNNNNNNNNNNBNNNNBNBBNBNNBNBNBBNBBNBNNBNNBNNBNNBBNBBNBBNBNBNNBNNNBNNNNNNBNNBNNNNNNNNNNNNNNNNNNNNNNMNNNMNNMNMNMMMNMMNMMMMMMMMMMMMmMMmMMmMmMmMMmmMmMmmmmmmmmmmmmmnmmnnmnnmnnnnnnnnbnnnbnbbbnbbbbbbbbbasasaaasaaaaaapaaaapappppppppppippiiiiiiiiiiiuiuiuuuuuuyuuyyyyytyyytttttttttrrtrrrrrereeeeee4e4444444433333qq0q00000999999998887877776766666555555;;;;------====****@@@@@@++X+X+X+X+X+X+X+X.    ",
"    90qqqwwhjjjkkkkllllzlzzzzxzxxxxxcxcccccvcvvcvvvvvbvbvbbbbbnbnbnbnnnnnnmnmmmmmmmmmmMmmMmMmMMMmMMMMMMMMMMMNMNNMNNMNNNMNNNNNNNNNNNNNNBNBNNBNBNNNNBNBBNBNBNNBNBNBNBNBBNBBNBBNBNBNBNNBNBNBBNNBBNNBNBNBNNBNNBNNBNNNNNNNNNNNNNMNNNNNMMNNMNMNMNMNMNMMMNMMMMMMMMMMMMMMMmMMmMmmMmMmmmmMmmmmmmmmnmnmmnmnnmnnnmnnnnnnnnbbnbnnbbbnbbbbbbssasasasaaaaaaaaappaapappppppppippipipiiiiiiuiuiuuuuuuuyuyyuyyyyyyttytytttttrttrrrrrerrereeeeee4e4443434333300q00000909999888888878777766666565555;5;;;-;--======*=***@@@+++++X+X+X+X+X+X+X+X+   ",
"   7900qwwhhjjjkkklkllllzlzzzzxzxxxxxcxcccccvccvcvvvvvbvbbbbbbbnbnnnnnnnmnmnmnnmmmmmMmmMmMmMMmMMMMMMMMMMNMNMNMNMNMNNNMNNNNNNNNNNNNNNBNNNNNBNNNBNBBNBNNBNBNBNBNBBNBBBNBNBNBNBBNBBBNBBNBNBNNBBNBNBNNBNBNBNNNNBNNNNNNNNNNNNNNNNNNNMNNNNMNNNNMNMNMMNMMMNMMMMMMMMMMMMmMMMmMMMmMmmMmMmmmmmmmmmmmmmmnmmmnmnmnnnnnnnnbnnnnnbbnnbbbbbbbbssssssasasaaaaaaaaaapapaappppppppipipiiiiiiiiiiuiuiuuuuuuuuyyyyyyyyyytttttttttrrtrrrrerreeeeee4e4444443433333q0q000009099999988788777777666665655;5;;;;;-----====****@*@@@+@+X+X+X+X+X+X+X+X+X   ",
"   700qqwwhhjjkjkklllllzzzzzzxzxxxxxcccccccccvvvvvvvbbvbbbbbbbnbnbnnnnnnnnmnmmmmmmmmmmMmMmMMmMMMmMMMMMMMMMNMNMNNNNNMNNNNNNNNNNNNNNBNNNBNBNNBNBNBNNBNBBNBBBBBNBBNBBNBBBBNBBBNBBNBNBBNBBBNBBNNBNBNBBNNBNNBNBNNNBNNNNNNNNNNNNNNNNNNNNMNNNMMNNMNMNMMMNMMMNMMMMMMMMMMMMmMMMmMmMmMmmMmmMmmmmmmmmmnmmnmnmnnmnnnnnnnnnnnbnnnnbbnbbbbbbbsasasasaaaasaaaaaapapapappapppppppipipipiiiiiuiuiuuuuuuuyuyuyuyyyyyttyttttttrtrtrrrrrrrerereeee4e4444443433332q000000099999889888787777676665655555;;;;-;---=-====****@*@@@+++X+X+X+X+X+X+X+X+   ",
"   790qqwwhhjjjkkkkllllzlzzzzzxxxxxcxcxccccvcvcvvvvvvvbbbbbbnbnbnnnnnnnmnmnmmmmmmmmmmmmMmMmMMMMMMMMMMMNMNMMNMNNMNMNNNNNNNNNNNNNNBNNBNBNBNBBNBNBNBBNBNBBNBNNBBNBBNBBNBNBBBNBBNBNBBNBBNBNBBNBBNBNBNNBBNBBNNBNBNNNBNNBNNNNNNNNNNNNNNNNNNNNNMNNMNMNNNMMNMMMMMMMMMMmMMMMMMmMMMmMmMmmMmmmmmmmmmmmmnmmmmnmmnmnmnnnnnnnnnnbbnnbnbnbbbssssssasasasaaaaaapaaaapapappppppppppipipiiiiiiiiiiiuiuuuuuuuyuyyyyyyyytytttttttrtrtrrrrrereeeeeee4e4443434333330qq00009009999988888877777666665655555;;;;-----====*=***@@@@@++++X+X+X+X+X+X+X+X   ",
"   700qqwwhhjjkkklllllzlzzzzxxzxxxxxcxcccccvvcvvvvvbbvbvbbbbbnbnnbnnnnnnnmmnmnmmmmmMmMmMmMMmMMmMMMMMMMMNMNNMNMNNMNNNNNNNNNNNNNBNNNBNNBNNBNNBBNBBNBBNBNBBNBBBNBBNBBNBBBBNBBBBBBBBNBBNBBNBBBBNBBNBBBNNBNNBBNBNBNBNNBNNBNNNNNNNNNNNNNNNMNMNNNMNNMNMMNMNMNMNMMMMMMMMMMMmMMMmMMmMMmMmmMmMmmmmmmmmmmnmnmmnnmnnnmnnnnnnnnnnbnbnbbnsssssssssssasasaaaaaaaapaapapapppppppippipiipiiiiiuuiuiuuuuuuyuyuyuyyyyytyytyttttttrtrrrrrrrereeee4e4e444444334333200000090999989898887787767766665555;5;;;;-;---=====*****@@@++++X+X+X+X+X+X+X+X+   ",
"   700qqwhhjjjjkkklllllzzzzzzxxxxxcxccccccvccvvvvvbvvbbbbbbbnbnbnnnnnnnmmnnmmmmmmmmmmMmMmMmMMMMMMMMMMNMMNMMNMNMNNNNNNNNNNNNNBNNNBNNBNNBBNBNBNBBBNBNBBBNBBBNBBBBBBBBBBNBBNBNBNBNBBBBBNBBNBNBBNBBNBNBBNBBNNBNBNBNNBNNNNNBNNNNNNNNNNNNNNNNNMNNMNMNMNMNMNMMMNMMMMMMMMMMMMmMMmMMmMmMmMmmmmmmmmmmmmmmmmmnmmnmnmnnnnnnnnnbnnbnbnbsdsssssassassasaasaaaaaaaapaapapapppppppppipiiiiiiiiiuiuiuuuuuuuuuyyyyytyytyttttttrttrrtrrrerrereeeeee4e444344333333q0q000090999998888887777766666566555;5;;;;-----===*==**@*@@@@++X++X+X+X+X+X+X+X   ",
"   700qwwwhhjkkkklkllzzlzzzxzxzxxxxcxccccvcvvvvvvvvvbbvbbbbbbnnnnnnnnnmnmmmmmmmmmMmMmMmMMMMMmMMMMMMNMMNNMNNNNNNNNNNNNNNNNNNBNNBNBNBNBBNBNBBNBBNBBBBBBBBBBBBBNBBNBBNBBBBBBBBBBBBBBNBBBBBBBBBBBBNBBNBNBNBNBNBNBNBNBNBNBNNNBNNNNNNNNNNNNNNNNNNNNNMNMNMNMMNMMMNMMMMMMMMMMMMMMmMMmMmMmMmMmMmmmmmmmmmnmnmmnmnmnnmnnnnnnnnnnnbnnbsssdssssssssasasaaaaaaaaaaappapappapppppippipipiiiiiiiuiuuiuuuuyuyyuyuyyyyytytttttttrtrrrrrrrereeeeee4e4444443433333q000000099999898888787777767666555555;;;;;----=-===*****@@@@+@++XX+X+X+X+X+X+X+   ",
"   800qwwhhjjjkkklllllzzzzzxzxxxxxcxcccccccvcvvvvbvbvbbbbbnbnbnbnnnnmnmnmnmnmmmmmmmmMmMmMmMMMMMMMNMMMNMMNNMNMNMNNNNNNNNNNBNNBNBNNBNBNBNBBNBBNBBNBNBNBNBBNBBBBBBBBBBBBBBBBBBBBBBBBBNBBNBBNBNBNBBNBBBBBBNBBBNBNBNBNBNBNBBNNNBNNNNNNNNNNNNNNNMNMNNNNMNMNNMMNMMMMMMMMMMMMMmMgMMmMMmMmMmMmmmmmmmmmmmmmmnmmnmnmnnmnnnnnnnnbnnnbnsdssssssssasssasasasaaaaapaaapapappppppppipipiiiiiiiuiiuiuuuuuuuuuyuyyyyytyytytttttttrtrtrrrerrereeeeee4e4443434333q0qqq0009009999898888787776766666655555;;;;;----======*****@@@++++X++X++X++X+X+X   ",
"   90qqqwhhjjjkkkllllzlzzzzzxxxxxcxccccccvcvvvvvvvvbbbbbbbbnbnbnnnnnnnmnmmmmmmmmmMmMmMMmMMMMMMMMMMMNMNMNNMNNNNNNNNNNNNNNBNNNNBNBBNBNBNBNBBBNBBNBBBBBBBBBBBBBBBBBBBBBNBBNBBBBBBBBBBBBBBBBBBBBBBBBBNBNBNBBNNBBNBNBNNBNNNNBNBNNBNNNNNNNNNNNNNNNNNMMNNMNMMNNMNMNMMMMMMMMMMMMMgmgMmMmMmMmmMmMmmmmmmmmmmmmnmnmnmnnnmnnnnnnnnbbnbdsdsssssssssassasasaaaaaaaaapapapappppppppppipipiiiiiiuiuuiuuuuuyuyuyyyyyyytytyttttrttrtrrrrrrereeeee44e44444433333qq000000009999998888887777766666556555;5;;-;----=-==*****@@@@+@++X+X+X+X+XX+X+X+   ",
"   900qwwhhjjkkklkllzlzzzzxzxzxxxxcxccccvcvcvvvvvvbvvbbbbbbnbnnnnnnnmnnmmnmmmmmmMmMmMmMMMmMMMMMMMMNMNMNMNNNMNNNNNNNNNNBNNNBBNNBNNNBNBBNBBNBBBBBBNBBBBBBBBBBBBBBBBBBBBBBBBBBBBBBBBBBBBBBBBBBBNBBNBBBBBBNBBBNBNBBNBNBNBBNBNNBNNNNNNNNNNNNNNNNNMNNNNNNMNNMNMMNMMNMMMMMMMMMMMgMMmMMMmMmMmMmmmmmmmmmmmmnmmmmmnmnmnnnnnnnnbnnnndsdssdssssssssassasaaaaaaaapaaaapappapppppppppipiiiiiiiiiiiuuuuuuuuuuyuyyyyyyytytttttrttrtrrrrrerereeeeeee444444343qqqqqq0009090999899888788777776666655555;;;;-;----======****@@@++++X+X+X+X+++X++X   ",
"   90qqwwhjhjkkkkllllzzlzzxzxxxxxccccccccvcvvvvvbvbbbbbbbnbnbnnnnnnnnmmnmmmmmmmMmmmMmMmMMMMMMMMMNMMNMNMNNMNNNNNNNNNNNBNNBNNNBBNBBBNBBNBBNBBNBBBBBBBNBBBBBBBBBBBBBBBBBBBBBBBBBBBBBBBBBBBBBNBBBBBBBBBNBBBBNBBBBNBBBNBNBNBNNBNNBNBNNNNNNNNNNNNNNNNMNMNNMNMNMNMMNMMNMMMMMMMMMggMMgmMMmMmMmmMmMmmmmmmmmmmnmnnmnmnmnnnnnnnnnnbnsdssdssdssssssssasasasaaaaaaapapapappppppppipipiipiiiiiuiuuiuuuuuuyyyuyyyyyyytyttytttttrtrrtrrrrreeeeeee44e4443434qq30q00000009099998888887777766766656555;5;;;;----=-==*=****@@@@+@+X+X+X+X+XXX+X+X   ",
"   00qqwwhhjjjkkllllzlzzzzzxxxxxxcxcccccvcvvvvvvbvbvbbbbbbnbnbnnnnnmnnmmnmmmmmmmmMMmMMMmMMMMMMMMNMNMNMNNNNNNNNNNNNNBNNNNBNBBNBNBNBBNBBBBBBBBBBBBBBBBBBBBBBBBBBBBBBBBBBBBBBBBBBBBBBBBBBBBBBBBBBBBBNBBBBNBBBBNBBNBNBBNBNNBNNBNNNNBNBNNNNNNNNNNNNNNNNMNNMNMNMNNMNMMMMMMMMMMMggmMMMmMMmMmMmMmmmmmmmmmmmmmmmmmnmnnnmnnnnnnnnndddddsdsssssssssssasasasaaaaaaaaapapaapapppppppippiiiiiiiiiuiuiuuuuuuuuyuyyytyyyytttttrttrtrrrrrerrereee4ee4444443qqqqq3q0q0000099999998888887777666666555555;;;;;----====******@@@@+++X+X+X+X+++X+X+   ",
"   90qqwhhjjjkkkllllzlzzzxxzxxxxcxcccccvcvvcvvvvvbvbbbbbnbnnnnnnnnmnmnmnmmmmmMmMMmmMMmMMMMMMMMNMMMNMNNNMNNNNNNNNNNNNNBNBNBNNNBNBBNBBBNBNBBBBBNBBBBBBBBBBBBBBBBBBBBBBBBBBBBBBBBBBBBBBBBBBBBBBBBBBBBBBBBBBBNBBBBBNBBNBBNBBNBNBNBNNNNNBNNNNNNNNNNNNNNNNNNMNNMNMMMNMNMMMMMMMMMMMMmMMmMmMmMmmMmMmmmmmmmmmmnmnmmnmnmnnmnnnnnnddsdssdssssssssssassasaaaaaaaaaapaapappapppppppppiiipiiiiiuiiuiuuuuuuuyyuyyuyyytytyttttttrtrrtrrrrrereeeeee44e44444qw333q2q000090909998898887777776766656555;5;;;;-;--=-====****@*@@+++++X+X+X+XX+X+X+   ",
"   00qwwwhhjjkkkkllzlzzzzzxzxxxxxcxcccccvcvvvvvbvvbbbbbbnbbnbnnnnnnmnmmmmmmmmmmmmMMmMMMMMMMMNMMNMNMNNMNNNNNNNNNNNNBNBNBNBNBBBBBNBBBBBBBBBBBBBBBBBBBBBBBBBBBBBBBBBBBBBBBBBBBBBBBBBBBBBBBBBBBBBBBBBBBBNBBBBBBBBNBBNBBNBBNBBNBNBNBBNBNNNBNNNNNNNNNNNNMNMNNMNNMNNMMNMMNMMMMMMMMMMMMMmMMMmMmMmMmmMmmmmmmmmmmmmnmnmnmnnnnnnnnddddddsddsdssssssssssasasasaaaaaaaaaapapppppppipipppiiiiiiiiuiuiuuuuuuuuyuyyyyyytytyttttttrttrrrrrrereeeee4ee44443wwq3333332000090999999888888877776666656555;5;;-;-----=====****@@@@@++X+X+X+X++X+X+X   ",
"   00qqwhhjjkkklllllzzzzzxzxxxxcccccccvcvvvvvvvvbbbvbbbbbnnbnnnnnmnmnmnmmmmmmMmMmMmMMmMMMMMMMMNMNMNNMNNMNNNNNNNNBNNNBNNBNBNBNNBBBNBNBBBBBBBBBBBBBBBBBBBBBBBBBBBBBBBBBBBBBBBBBBBBBBBBBBBBBBBBBBBBBBBBBBBBBBBBNBBBBBBBNBBNBNBNBNBNNBNBNNNBNNNNNNNNNNNNNNNNMNNMMNNMMNMMNMMMMMMMMMMMMMmMmMmMmmMmmmMmmmmmmmmmmmnmnmnmnmnnnnndsdsdsdssdsssssssssassasasaaaaaaapapaappapappppppipiipiiiiiiiuiuiuuuuuuyuyuyyyyyyytytttttttrrtrrrrrreereeeee4e44444qw33332230000090999898888787777676666655555;;;;;----====*=***@*@@+@+++X+X+X+XX+X+X+   ",
"   00qwwhhjjjkkklllzlzzzzzxxxxxxxxcccccvcvcvvvvbvvbbbbbnbbnnnnnnnmnnmmmmmmmMmmMmMmMMMMMMMMMMNMMNMNNMNNNNNNNNNNNBNNBNNBBNBBBNBBBBBBBBBBBBBBBBBBBBBBBBBBBBBBBBBBVBVBVBVBVBVBVBVBVBBVBBVBBBBBBBBBBBBBBBBBBBBNBBBBBBNBNBBNBBNBBNBNBNBNNBNBNNNNNNNNNNNNNNMNMNNMMNNMNMNMNMMMMMMMMMMMMmMmMMMmMmMmMmMmmmmmmmmmnmnmmmmnmnmnnnnnnddddddddssdsdsssssssassasaaaaaaaaaaapapappppppppppipiiiiiiiuiiiuiuuuuyuuyuyyyyyyytytyttttrtttrrrrrerrreeeee4e4444w4wq3333332q2220099999898888877777766665655555;;;;;-----===*=***@@@@+++X+X+X+X++X+X+X   ",
"   00qwwhhjjkkklkllzzzzzxxzxxxcxccccccvcvvvvvvbvbbbbbbbbnnbnnnnnnnmmnmmmmmmmmMmMmMmMmMMMMMMMMMNMNMNNNNNNNNNNNNBNNBNBNBNBBNBBBNBBNBBBBBBBBBBBBBBBBBBBVBBVBVBVBVBBBBBBBBBBBBBBBBBBVBBVBBVBVBVBBVBBBBBBBBBBBBBBBBBBBBBBBBBNBBNBBNBNBNBNNNNBNBNNNNNNNNNNNNNNNNNMNMNMNMNMNMMMMMMMMMMMMMMmMMmMMmMmmMmmmmmmmmmmmmnnmnmnnnmnnnnddddsdsdsdssssssssssssasasasaaaaaapaapapapppppppippippiiiiiiiuuiuuiuuuuuuyyuyyyyyytytytttttrrtrtrrrreereeeee4e4444w3q43333200222210999998988878777766666565555;5;;--;--======****@*@@+@++X+X+X+XX+X+X+   ",
"   0qqqwhhjjjkklllzllzzzzzxxxxxcxccccvccvcvvvvvbbvbbbbnbbnnnnnnnmnmnmmmmmmmmMmmMmMMMMMMMMMMNMNMNNMNMNMNNNNNNBNNBNNBNBNBNBNBNBBBBBBBBBBBBBBBBBVBBVBVBBVBBBBBBBBBVBVVBVVBVVBVVBVVBBBBBBBBBBBBVBBBBBBBBBBBBBBBBBBBBBBBNBNBBNBBNBNBNBNBNBNBNNNNBNNNNNNNNNNMNNMNNNNMNMMNMMMNMMMMMMMMMMmMMmMMMmMmMmmMmMmmmmmmmmmmmmmnmnmnnmnndddddsdddsddsdssssssssssasasaaaaaaaapaaapaapppppppppiipiiiiiiiiuiuuuuuuyuuyuyyyyyyyyttttttttrtrrrrrrrereeeeee4ewww444333333q32222221999998888878776776666565555;;;;;-----===*=****@@@@++X+X+X+X++X+X+X   ",
"   00qwwhhjjkkkklllzzzzzxxxxxxcxccccccvvvvvvvbvbvbbbbbbnnbnnnnnmnmnmmmmmmmmMmmMmMMmMMMMMMMNMNMNMNNNNNNNNNNNNNNNNBNBNBBBBBBBBBNBBBBBBBBBBBBBBBBBVBBBBBBBVVBVVBVVBVBBVBBVBBVBBVBBVBVBVBVBVBVBBBBBBBBBBBBBBBBBBBBBBBBBBBBBBBBNBBBNBNBNBNBNBNBNNNNBNNNNNNNNNNNNMMNNMNNMMNNMMNMMMMMMMMMMMMmMmMmMmMmmmmmmmmmmmmmmnmnmmnmnmnnndddddddsdsdsdssssssssasasasaasaaaaaaaappapppapppppipipipiiiiiiuiiuuuuuuuuyuyyuyyyttyytytttrttrtrrrrrerereee4ee44444434333qq23232212119998988887877776666665555;5;;;-----=====****@*@@@+++X+X+X+XX+X+X+   ",
"   0qqwwhhjkjkkllzlzzzzxzzxxxxcxccccccvcvvvvvvvbbbbbbbnbbnnnnnnnmnmmnmmmmMmmMmMMmMMMMMMMNMMMNMNNMNMNNNNNNNBNBNBNBNBNBNNBNBNBBBBBBBBBBBBBBBBBBBBBBVBVBVBBVBBVBBVBBVBBVBBVBBVBBVBBVBBVBVBVBBBBVBVBVBVBBBBBBBBBBBBBBBBBBBBBNBBBBNBBBBNBNBNNBNBNBNNNNNNNNNNNNMNNNNMNNMNNMMMMMMMMMMMMMMmMMMmMMMmMmMMmMmMmmmmmmnmmmmmnmnmnnnnnndndsddsddssdsdssssssasssasaaaaaaaaapaaapappppppppippipiiiiuiiiuiuiuuuuuuyuyyyyyyytyttttttrttrtrrrrrrereeeee4e444444wqqqq3322222222111998887887777676666565555;;;;;;-----=====***@@@@@+++X+X+X++X+X+X   ",
"   00wwwhhjjkkklllzlzzzzxxxxxxxcccccvcvcvvvvbvbbvbbbbnbnnnnnnnnmnmnmmmmmmmmmMmMmMMMMMMMMMMNMNMNMNNNNNNNNNNNNNBNBNBNBBNBBBBBBBBBBBBBBBBBBBVBVBVBBBBVBVBVBBBVBBVBVVBVVBVVBVVBVVBVVBVBVBBVBBVVBBBBBBBBBVBVBBVBBBBBBBBBBBBBBBBNBNBBNNBBNBNBBNNNBNNNNNNNNNNNNNNNNMNNNMNMNMNNMNMNMMMMMMMMMMMMMmMMmMmmMmmmmmmmmmmmmnmnmnmnnmnmnnnndddsddsdssdsssssssssaasasasaaaaaaapapappppppppppiipiipiiiiuiiuiuuuuuyuuyuyyyyyyyttyttttttrtrrrrrrereeeeeee4e44443433333233222211211989898878777776666655555;5;;-;---=====*****@@@++++X+X+X+XX+X+X+   ",
"   0qqwwhjjjkkkllllzzzxzxzxxxccxcccccvcvvvvvvbvbbbbbbbnbnbnnnmnnnmmnmmmmmMmMmMmMMMMMMMMMMNMNMNNNNNNNNNNNNNBNBNNBNBBNBBBBNBBBBBBBBBBBVBBVBBBBBBVVBVBBVBBVVVBVVBVBBVBBVBBVBBVBBVBBVBVBVVBVBBVBVVBVVBVBBBBVBBBBBBBBBBBBBBNBBBBBBBBBBNBBNBNNBBNNNBNBNNNNNNNNNNNNNNNMNNNMNMMNMMMMMMMMMMMMMmMmMMmMMmMmMmMmMmmmmmmmmnmmmnmmnmnnnnndddddsdsddsssssssssssssasaaaaaapaaaapapaapppppppppipiiiiiiiiuiuiuuuuuuyuyuyyyytyyytttttttrtrtrrrrrrrreee4ee4444443433333322222221111998888887777676666565555;;;;;-----===*=****@@@@+++X+X+X++X+X+X   ",
"   00qwhhhjkkkllllzzzzzzxxxxxxxcccccvcvvvvvvvbvbbbbbnbbnnnnnnnnmmnmmmmmmmmmMmMMMmMMMMMMNMMNMNMNMNNNNNNNNNBNNBNBNBBNBBNBBBBBBBBBBBBBBBBVBBVBVBVBBVBVVBVVBBBVBBVBVVBVVBVVBVVBVVBVVBVBVBBVBVVBBVBBVBBVBVBBBBBBBBBBBBBBBBBBBBBBBBNBNBBBNBBNBNNBBNNBNNBNNNNNNNNNNNNNNNMNNMNNMMNMNMMMMMMMMMMMMMmMMmMmMmmmMmmmmmmmmmmmnmmnnnmnnnndddddsdddsssdsdsssssasasasasaaaaaapapapappapppppippipipiiiiiuiiuuuuuuuuuyuyuyyyyyttytttttrttrrtrrrereeereee4e44444434q33232322221211998898877877776666565555;5;;;-----=====****@@@@@++X+X+X+XX+X+X+   ",
"   0qqwwhjjjkkkllzlzzzzxzxxxcxcccccccvvcvvvbvvbbbbbbbnnnbnnnnnnmnmmmmmmmMmMmMMmMMMMMMMMMNMMNMNNNNNNNNNNBNNNBNBNBBNBBBBBBBBBBBBBBBBBBBBBBBBVBVBVBBVBBVBBVVVBVVVVBVVBVVBVVBVVBVVBBVBVBVVBVBBVVBVBBVBBBVBVBVBVBVBBBBBBBBBBBBBBBBBBBBNBBBNBBBBNBNBNNNNNBNNNNNNNNMNNMNNMNNMNMNMNMMNMMMMMMMMMmMMMmMmMmMMmmmmMmmmmmmmmmnmmmnnmndddddddddsdddsdssssssssssssasaasaaaaaaaaaaapppppppppippiipiiiiiiuiiuiuuuyuuuyyyyyytyytyttttttrtrrrrrrrereeeeee4e44343433333332222221211998<88887777676666565555;;;;;;----===*=*****@@+@+X++X+X++X+X+X   ",
"Z  0qqwhhhjkjkllllzzzzxzxxxxxcxccccvvcvvvvvvvbbvbbbbnbbnnnnnmnmnmmnmmmmmmmMmMmMMMMMMMNMMNMNNNNMNNNNNNNNNNBNBNBBNBBBNBBBBBBBBBBBBBBVBVBVBVVBBBVBVVBVVBVVBBVVBBVBVBVVBVVBVVBVVBVVVBVVBVBVBVVBBVBVBVBVBBVBBVBBBBBVBBVBBBBBBBBBBBBBBBBBNBBNBNNBNBNNBBNBNNNNNNNNNNNNNNMNMNNMNMMMNMMMMNMMMMMMMMmMMMmMmmMmMmMmmmmmmmmmmmnmnmnndddddddddsddsdsdsssssssssasasasaaaaaaaapapppaappppppppipipiiiiiiuiuiuuuuuuuyuyuyyyyyytyttttttrtrtrrrrrerereee4ee44e44433433232322221211911<1<8878777776666655555;5;;-----=-===*=**@@@@@+++X+X+X+XX+X+X   ",
"   0qwwwhjjkkkklllzzzzxzxxxxcxcccccccvcvvvvvbvbbbbbbbnnnnnnnnnmmnmmmmmmmMmMmMMMMMMMMMMMNMNMNMNNMNNNNNNBNBNBNBNBNBNBBBBBBBBBBBBBBVBBBBVBVBBBVVBVBVBBVBVBVVBVVVBVVVVBVBVBVBVBVVBBVVBVVBVBVVBVVBVBVBVBVBBVBBBVBVBBVBBBBBBBBBBBBBBBBBNBBNBBNBBNBNBBNBNNNNBNNNNNNNNNNNNNNNMNMNNMMNMNMMMMMMMMMMMMmMMmMmMmmMmmmmmmmmmnmmmmmnmdfdfdddddddsddsdsdsdsssssssssasasasaaaaaaaaaapppapppppppipiipiiiiiiiiuiuuuuuuyuyuyyyyyyytytttttttrtrrrrrrreeeeee4e44444433333232322221219111<<<<787777676656655555;;;;;----=====*****@@+@++X+X+X+X+X+X+   ",
"   0qqwhhjjjkklllzzzzzzxxxxxxccxccvcvvvvvvvbvbbbbbnbnbbnnnnnmnmnmmmmmmmMmMmMMmMMmMMMMNMNMNNMNNNNNNNNNBNNNBNBNBBBBBBNBBBBBBBBBBVBBBVBVBBBBVVBBVBVBVVBVVBVBVBVBVVBVBVVVVVVVVVBVVVVBVVBVVVBVVBVBVBVBVVBVVBVBVBVBBBBBBBBBBBBBBBBBBBNBBBBBBBBBNBBNBNNNNBBNNNNBNNNNNNNNNMNNMNNMNMNMNMMMMMMMMMMMMMMMmMMMmMmmmMmMmmmmmmmnmnmmdfdfddddddddddddsdsdssssssssassasasaaaaaaapapapapppppppippipiiiiiiiuiuuiuuuuuyuyuyyyyyyttyttttttrrtrrtrrereereeeee4e44434433333232222221111<1<<<<<,,,,,7666665655;;;;;--;--=-===*****@@@@++X+X+X+X+X+X+X   ",
"   0qqwhhjjkkklllzlzzzxzxxxcxxcccccvcvcvvvvvbbvbbbbnbnnnnnnnnmnmmmmmmMmmMmMmMMMMMMMMNMMNMNMNNNNNNNNBNNNBNNBNBBBNBNBBBBBBBBBVBBBBVBBVBBVVBVBVBVVBVVBVVBVVVVVVVVVVVVVVVBVBVBVVVVVVVBVVVVBVBVBVVBVVVBVBVBVBVBVBBVVBVBVBVBBBBBBBBBBBBBBBBNBNBBNBNBNBBBNNBNBNNNNNNNNNNNNMNNNMNMNMNMMMNMMMMMMMMMMmMMmMmMmMMmMmmmmmmmmmmmmmnffddfdfddddddsdsddssdsdsssssssasasaasaaapaaaapaapapppppppippipiiiiiiuiiuuuuuuuuuuyuyyyyyytytttttttrtrrrrrrreeeeee4e4444443433333232221212111<1<<<<<<,,,,766656555555;;;;----======****@@@@+++X++X+X+X+X+   ",
"   0qwwwhjjjkkllllzzzxzxxxxxccxcccccvvvvvvbbvbbbbbbbnbnnnnnmnmmnmnmmmmmMmMmMMmMMMMMMMNMNNMNNNNNNNNNNNBNBNBNBBNBBBBBBBBBBBBBBBVBVBVBBVVBBVBVVVBVVBVVBVVVBVBVVBVBVBVBVBVVVVVVBVBVBVVVBVBVVVVVBVVBVBVBVBVBVBVBBVBBVBBBBBBVBBBBBBBBBBBBBNBBBBBBBBNBNNNNBNBNNNNNNNNNNNNNNNNNNMNMNMNMNMMNMMMMMMMMMMMMMmMmMmMmmMmmmmmmmmmnmndfdfddddddddddddsdsdsssssssssssasaasaaaaaaapaappappappppppiipiipiiiiiuuiuiuuuuyuyyyyyyyytytyttttrttrtrrrrrereeee4e4e4444343333323222222111111<<<<<,,,,,>6766665655;;;;;-;--=-===*****@@@@++++X+X+X+X+X+X   ",
"   0qqwhhjjkkklllzzzzxzxxxxxxcccccvcvcvvvvvvbbbbbbbnbnnnnmnnnnmmmmmmmmmmMmMmMMMMMMMNMMNMMNNMNNNNNNNNNNBNBNBBNBBNBBBBBBBBBBBBBBBBBVBVBBVBVVBVBVVBVVVVVBVVVVBVVVVVVVVVVVVBVVVVVVVVVVVVVVVBVBVVBVVBVVVVVBVBVBVVVBVBBVVBVBBBVBBBBBBBBBBBBBBBBNBNBBNBBBNBNNNBNBNNNNNNNNNNMNMNNNNMNMNMNMMMMMMMMMMMMmMmMMMmMmmMmmmmmmmmmmmmmfdfdfdfdddddddddsddsdsdssssssasssssaasaaaaaaapaapappppppppppipiiiiiiiiuiuuuuuuuuyuuyyytyyyytttttttrtrrrrrrrereeeee4e444444343333323222122111<11<<,<<,,,,>66666555555;;;;----======**@**@@@++X+X+X+X+X+X+   ",
"   0qwwhhjjkkkllzlzzzzxxzxxccxccccvvcvvvvbvbbvbbbnbnnnbnnnnmmnmnmmmmmMmMmMMMMMMMMMMMNNMNNNNNNNNNNNBNBNBNBBNBBBBBBBBBBBBBBBVBVBVVBBVBVVBVVBVVBVBVVBVBVVVBVVVVVVBVVVVVVVVVVVVVVVVBVVBVVVVVVVVVVVBVVBBVBVVBVVBBBVBVBVBBVBBVBBVBBBBBBBBBBBBBNBBBBNBBNBNBNBBNNNNBNNNNNNNNNNNNMMNNMNMMMNMNMMMMMMMMMMMMMmmMmMmMmMmMmmmmmmmnmffdfddfdfddddddsddsdsdssdssssssaasaasaaaaaaaaapapapppppppippipiiiiiiuiiuiuuuuuyuuyyuyyyytyttyttttrtrrtrrrerereeeeee44e44343333332322222111111<<<<<<,,<,,>,666565555;;;;-;---=-==******@@@+@++X+X+X+X+X+X   ",
"   0qqwhhjjkkklllzzzzxzxxcxxcccccvccvvvvvvbvbbbbbbnbbnnnnnnnnmmmmmmmmmMmMmMmMMMMMNMNMMNMNMNNNNNNNNNBNBNBNBBNBNBBBBBBBBBBVBBBBVBBVVBVBBVVBVVBVVVVVVVVVBVVVVVVVVVVVVVVVVVVVBVVBVVVVVVVBVVBVVBVBVVBVVVBVVBVVBVVBVBVBBVBBVBBBBBBBBBBBBBBBBBBBBBNBBNBBNBNBNNBNBNNNNNNNNNNNNMNNNNMNMNNMNMMMNMMMMMMMMMmMMMmMmMmmmmmmmmmmmmmmmdfffdddddddddddsddsdsdsssssssssasasaasaaaaapaaapapappppppipipipiiiiiiuiuiuuuuuyuuyyyyyyytytttttttrttrrrrrrrereee4ee444444343333323222222111111<<<<<,,,,,>66665555555;;;-----======***@@@@++X+X+X+X+X+X+   ",
"   0qwwhhjjkklllzlzzzxxzxxxcxccccccvvcvvvvbvbbbbbbnbnnnnnnmmnmnmmmmMmMmmMMmMMMMMMMMMNMNNNNNNNNNNBNNNNBNBBNBBBBBBBBBBBBBVBBVBVBBVBVBVVVBVVBVVVBVVBVBVVVVVVBVVBVVVVVVVVVVVVVVVVVVVVVVVVVVVVVVVVVVVVBVVVBVVBVVBVBVBVVBBVBBVBVBVBVBBBBBBBBBBBBBBBBBNBBNBNBBNNNBNBNNNNNNNNNNNNNNNMNMNMNMNMMMMMMMMMmMMMmMMmMmMMmMmmmmmmmmmmnffddffdfdddddddddsdsdssdssssssssssasaaasaaaaapapappappppppppipiiiiiiiiuiuuiuuuuuyuyuyyyyytytttttttrrtrrrrrereeeeee4e444434333332322222121111<<1<<,<,,,>,>>66665555;;;;;-;---====****@*@@++++X+X+X+X+X+X   ",
"   qqwwhhjjkkklllzzxzzxxxxcxccccvcvcvvvvbvvbbbbbbnbnbnnnnnnmnmmmmmmmMmmMmMMMMMMMMMNMNMNMNNMNNNNNNBNBNBNBNBBBBBBBBBBBVBBBVBBVBVVBVBVBVBVBVVVBVVVVVVVVVVVVVVVVVVVVVVVVVVVVVVVVVVVVVVVVVVVVVVVVBVVBVVVVVVVBVVBVVVVVBBVVBBVBVBBBBBVBBBBBBBBBBBNBBNBBBNBBBNBNBNBNNNBNNNNNNNNNMNMNNNNMNMNMNMNMMMMMMMMMMMMmMMMmmMmMmMmmmmmmmmfdffddfddfddddddddddsdsssssssssasasaasaaaaaaapaapappppppppipipipiiiiuiiuiuuuuuuyuuyyyyytyyytytttrtttrrrrrrrrereeeee44444444333333322222121111<<<<<,<,,,,,>>66565555;;;;;---=-=====***@@@@++X+X+X+X+X+X+   ",
"   0qqwhhjjkklllzzzzzxzxxxxcxccccccvvvvvvvbbvbbbbnbnnnnnnmnnmmmmmmmmmMmMmMmMMMMMMMMNMNNNMNNNNNNNNNBNBNBBNBBNBBBBBBBBBBVBBBVBVBBVBVVVBVVVBVBVVBVVVVVVVVVVVVVVVVVVVVVVVVVVVVVVVVVVVVVVVVVBVVBVVVVVVVBVBVVVVVVBVBBVVVBVBVBBVBVBVBBBVBBBBBBBBBBBBBBNBBNBNBNBNBNNBNNNNNNNNNNNNNNNMMNNMNMMMNMMMMMMMMMMMMMMmMmMmMmmmmmmmmmmmmfffdffdfddddddddsdssddsdsssssssssassasaaaaaaaaapapaapppppppipipiiiiiiiuiuiuuuuuuuyyyyyyyytytttttttrrtrtrrreereeee4e4e444343333323232222112111<1<<<<,,,,>,>>6565555;5;;;-;---=-==*****@*@@+++X+X+X+X+X+X   ",
"   0qwwhjjjkkklllzzzzxxxxxcxccccccvvcvvvvbvbbbbbbbnbnnnnnnmnmnmmmmmmMmMmMMMMMMMNMNMNMNMNNNNNNNNNBNNBNBNBBNBBBBBBBBBBBBBVBVBVBVBVVBVBVVBVVVVVVVVVVVBVVVVVVVVVVVVVVVVVVVVVVVVVVVVVVVVVVVVVVVVVVVVVVVVVVVVBVBVVBVVVBBVBVBVVBVBVBBBBBVBBBBBBBBBBBBBBNBBNBNBNBNBNBNBNBNNNNNNNNNMNNNNMNMNNNMMMNMMMMMMmMMmMMmMmMmmMmMmMmmmmmmfdfffddfdfdddddddddddsdsdssssssssssasaaaaaaaaapaaappapppppppppiipiiiiiiiiuuuuuuuyuuyuyyytytyyttttttrtrrrrrrereeeeee4e4444344333332222222111111<<<<,<<,,,>,>>656555;5;;;;----======****@@@@+X+X+X+X+X+X+   ",
"   0qwwhhjjkklllzzzzxzxxxxccccccvvcvvvvvbvbvbbbbnnnnnnnnmnmmnmmmmmmMmmMMMmMMMMMMMNMNNMNNNNNNNNNBNBBNBBBBNBBBBBBBBBBBVBBVBBVBVBVVBVVVVVVVBVVVVVVVVVVVVVVVVVVVVVVVVVVVVVVVVVVVVVVVVVVVVVVVVVVVVVVBVVVVVVBVVVVVVVBVVVBVVBVBBVBBVBVBBBBVBBBBBBBBBBBBBBBBBBNBNBNNBNNNNNBNNNNNNNNNNNNNMNMMMNMNMMMMMMMMMMMMMMmMmMMmmMmmmmmmmmmmfdfdfddddfdddddddssdssssdsssssasasasasaaaaaaaappapppppppipiipiiiiiiuiuuuiuuuuyuuyuyyyyyyytttttttrtrtrrrrrreereee4e444444333333232322121211<<1<<<<,,,,,>>>>>655555;;;;-;---=-==*****@@@@+++X+X+X+X+X+X   ",
"   9qwwhhjjkkklllzzzzxxxxxxcxccccvcvvvvvvvbbbbbbnbbbnnnnnnmnmmmmmmmmMmMmMMMMMMMMMMNMMNNMNNNNNBNNNNBNBNNBBBBBBBBBBBVBBVBVBVBVBVVBVVBVBVBVVVVVVVVVVVVVVVVVVVVVVVVVVVVVVVVVVVVVVVVVVVVVVVVVVVVVVVVVVVVVVVVVBVBVBVVBVBVVBVVBVBVBBVBVBVBBBBBBBBBBBBBBBNBNBNBBBNBNNBBNBNNNNNNNNNNNNMNMNNNMNMNMMMNMMMMMMMMmMmMMMmMmMmmmmmmmmmmmmmdfffdfdddddddsdddsdddssssssssssasasaaaaapaapaaapapappppppipipiiiiiuiiiuuuuuuuyuyyyyyyytyyttttttrtrrrrrrrreeeeeee4e444434333333222222111111<<<,<<,,,,,,>>>:>:5555;;;;-----=====****@@+@+X+X+X+X+X+X+   ",
"   8qqwhhjkkklllzzzxxzxxxcxcccccccvvvvvbvbbvbbbnbbnnnnnnnmnmmmmmmMmMmMmMMmMMMMMNMNNNNNNNNNNNNNNBNBNBNBBBBBBBBBBBBBBBBBVBBVBVBVBVVBVVVVVVVVVVVVVVVVVVVVVVVVVVVVVVVVVVVVVVVVVVVVVVVVVVVVVVVVVVVVVVVVVVVVVVVVVVVVVVVVBVVBVBVBVBVBBVBBBVBVBBBBBBBBBNBBBBBBNBNBBNBNNBNNNNNNNNNNNNNNNNMNMNMNMMNMMMMMMMMMMMMMMmmMmMmmMmMmmmmmmmnmnfddfdfdddddddddsdssdsdsssssssasasaasaaaaaaapapappppppppppipiiiiiiiiuuiuuuuuuuyyuyyyytyttyttttttrtrrrrreereeeee4e444434333332322222212111<1<1<<,,,,,>>>>>>:>555;5;;-;---=====*=**@*@@+++X+X+X+X+X+X   ",
"   9qwwhjjjkkkllzzzzzxxxxxcxcccvcvvcvvvvbvbbbbbbbnbnnnnmnmnmnmmmmmmmmMMmMMMMMMMMNMMNMMNNNNNNNBNNBNBNBBBNBBBBBBBBBVBVBVBBVBVBVVVVVVVBVVVVVBVVVVVVVVVVVVVVVVVVVVVVVVVVVVVVVVVVVVVVVVVVVVVVVVVVVVVVVVVVVVVVVVVVBVBVBVVVBVVBVVBVBVBBVVBBBBVBBBBBBBBBBBBBNBBNBBNBNBBNNBNBNNNNNNNMNNMNNMNNMNMNMNMNMMMMMMMMMmMMMmMmMmMmmmmmmmmmmmmdfdfddfdddddddddddsdssdsssssssssasaasaaaaaaapapaappppppippipipiiiuiiiuiuuuuyuuyuyyyyyyyytttttrtrtrtrrrrrereeeee4e4444444333332322212111111<<<,<<,,,,,>>>>>:5555;;;;;-----====****@@@@+X+X+X+X+X+X+   ",
"   9qqhwhjjkklllzzzzxxxxxcxccccccvcvvvvvvbvbbbbnnnnnnnnnnmmnmmmmmmMMmMmMMMMMMMNMMNMNNNNNNNNNBNNBNBBBNBNBBBBBBBBBVBBBVBVVBVBVVBVBVVVVVVVVVVVVVVVVVVVVVVVVVVVVVCVVVCVVVCVCVVVVVVVVVVVVVVVVVVVVVVVVVVVVVVVVVVVVVVVVVVBVVBVVBVBVVBVVBBVBVBBBBVBBBBBBBBBNBBBBNBBNBNNBNBNNNBNNNNNNNNNNNNMNNMNMMMMMMNMMMMMmMMMmMMmMmMmmMmmmmmmmmnmmffdfdddfddddddsdsdsdsssdsssassassasaaaaaapaapapppappppppipiiiiiiiiuuiuuuuuuuyuyyyyyytyttyttttttrrrrrrrereeeee4e444443333332232222212111<<1<<<<,,,,,>>>>>::5555;;;;----====******@@@+++X+X+X+X+X+X   ",
"   8qwwhhjjkkllllzzxzxxxxxcxccccvcvvvvvbvbbbbbbbbbbnnnnnmnnmmmmmMmmmMmMMMMMMMNMMNMNNMNNNNNNNNBNBNNBNBBBBBBBBBBVBBBBVBVBBVBVVBVVVVBVVVVVVVVVVVVVVVVCVVVCVVCVCVVVCVVVCVVVVVCVCVCVCVCVVVCVVVVVVVVVVVVVVVVVVVVVVVVVVBVVBVVBVVBVVBVBBVBBVBBBVBBBBBBBBBBBBBBNBBBNBBBBNBNNBNNNNNNNNNNNNMNNNMNMNNNMNMMMMMMMMMMMMmMMmMmMmmMmmmmmmmmmmfdfdffddddddsdddddsdsdssssssassasaaasaaaaaaapapappppppippipipiiiiiiiuuiuuuuuuyuuyyyyytytttttrtrtrtrrerrereeeeee4e444434333332322222111111<<<<,<,,,,,,>>>:>555;5;;-;;----=====**@*@@@+++X+X+X+X+X+   ",
"   9qqwhjjjkkkllzzzzxxxxxccccccvcvvcvvvbvbbbbbnbnnnnnnnnnmmmmmmmmmMmMMmMMmMMMMMNMNMNNNMNNNNBNNNBNBNBBNBBBBBBBBBBVBVBVBVVVVBVVVBVBVVVVVVVVVVVVVVVVVVVVCVVCVVVVVVVVVVVVCVCVVVVVVVVVVVCVVVCVCVVVCVVVVVVVVVVVVVVVVVVVVVVVVVBVVBVVBVVBVBBVBVBBBBBBBBBBBBBBBBBNBNBNNNBNNBNNBNNBNNNNNNNNNNMNNMNMMNMMMMMMMMMMMmMMMmMmMmMmmmMmmmmmmmnmfdfddfddfdddddssddssdssssssssssasaaaaaaaapaapapapppppppippiiiiiiuiiuiuuuuuuyuyyyuyyyytytttttttrtrrrrrrereeee4e4444443433332322222121111<<<<<<,,,,>>>>>>>:5555;;;;;---=-===*****@*@++X+X+X+X+X+X+   ",
"    qwwhhjjkklllzzzzxzxxcxxcccccvcvvvvvbvbvbbbbbnbnnnnnmnmnnmmmmmmMmMmMMMMMMMNMNMNNMNNNNNNNNNBNBNBBBBBBNBBBBBBVBBVBVBVBBBVBVBVVVVVVBVVVVVVVVVVVVVVVVVVVVVVVCVCVVCVCVCVVVVVCVCVCVVCVVVVVVVVVCVVVVVVVVVVVVVVVVVVVVVVVBVBVVBVBVBVVBVBVBBVBBVBVBBBBBBBBBNBBBBBBBBBBNBBNBNNBNNNNNNNNNNMNNMNNMNMMNMNMMMMMMMMMMMmMMmMmMmMmmmmmmmmmmmffdffdfddddddddddsddsssssssssassassaaaaaaaaapappappppppppippiiiiiuiiuuiuuuuuuuuyyyytyytyttttrttrrtrrrrrereeeeeee4444433333333222222111111<<<<<<,,,,>>>>:>555;5;;;;----======***@@@@++X+X+X+X+X+X   ",
"    qqwhhjkkkllzlzzxxxxxxxcccccvcvvvvvvvbvbbbbbnbnnnnnmnmnmmmmmmmMmMmMMmMMMMMMMNMNMNNNNNNNBNBNBNBBNBNBBBBBBBBVBBVBBVBVVVVVVVVVBVVVVVVVVVVVVVVVVVVCVCVCVVCVVVVCVCVVVCVVCVCVVVCVVVCVVCVVCVVVVVVVVVVVVVVVVVVVVVVVVVVVVVVVVVVVVBVVBVBVVBVBBVBBBBVBBBBBBBBBBBNBNBNBBNBNBNBNNNNNNNNNNNNNNNNMNNMNMMNMMNMMMMMMMMmMMMmMmMmmMmmmmmmmmmnmdfddfddddddddddsdssdsdsssssssasasaasaaaaaapapappapppppipipiiiiiiiiuiuuuuuuyuyyyyyyyytytytttttrtrrrrrereeeee4e4444434343332223222112111<<1<<,,,,,,>,>>>>:65555;;;-;---=-==******@@@+++X+X+X+X+X    ",
"    qwwhjjjkkkllzzzzzxxxxccxcccccvcvvvvbvbbbbbnbnnnnnnnmnmmmmmmMmmMmMmMMMMMMMNMNMNNNNNNNNNNNNNBNBNBBBBBBBBBBBBBVBBVBVBBVBVBVBVVVVVVVVVVVVVVVCVVCVVVVVVVVVCVCVVVVVCVVVCVVCVCVVVCVVCVVCVVCVCVCVCVVCVVVVVVVVVVVVVVVVVVVVVBVVBVVVBVVVBBVBVVBVBVBBVBBBBBBBBBBBBBBBBNBBNNBNNBNBNNNNNNNNNNMNNNMNMNNMMMMMMMMMMMMMMmMMMmMmMmmMmmmmmnmmmmfffddfddddddddddddsdssssssassasasaaaaaaaaaaapapppppippppiipiiiiuiiuiuuuuuuyuyuyyyyyyytttttttrtrtrrrrerreeeee4e444434333333322222211111<<<<<<<,,,,>>>>:>555;5;;;;-----=====***@@@@++X+X+X+X+X+    ",
"    qqwhhjjkklllzzzxxxxxcxcccccvvcvvvvbvbbbbbbnbnbnnnnnnmnmnmmmmmmMmMMMMMMMMNMNMNNMNMNNNNBNBNBNBBNBNBBBBBBBVBBVBBVBVVVVBVVVVVVVVVVVVVVVVVVVVVVCVVCVVCVCVCVVCVCVCVCVCVVCVVVCVCVVCVVVCVVCVVVVVVVVVVVCVCVVVVVVVVVVVVVVVVVVVVVVBVBVBVVVBVBBBVBBBBBBVBBBBBBBBBBNBNBBNBNBNBNBNNNBNNNNNNNNNNMNMNNMMNMNMNMMMMMMMMmMMmmMMmMmMmmmmmmmmmnmdfddfddfdddddsdssdsdsdssssssssasasaaaaaapapaapapapppppipipiipiiiiuiuiuuuuuuyuyyuyytytytttttrttrrrrrrreeeeee4e444444343333223222211111<1<<<<,,,,,,>,>>>:5555;5;;-;---=====*****@@++++X+X+X+X+X    ",
"    0wwhhjjkklllzzzzxxxxxcxcccvccvvvvvvbvbbbbbnbnnnnnnmnnmmmmmmmMmMmMmMMMMNMMMMNMNNNNNNNNNNNBNBNBBBBBBBBBBBBVBBVBVBVBBVVBVBVVVVVVVVVVVVVVCVVCVVVVVVCVVCVVVCVVVCVVVCVCVCVCCVVCVCVVCVVCVVVCVCVCVCVCVVVVVCVVVVVVVVVVVVVVVVVVBVVVVVVBVBVBVVVBVBVBVBBBBBBBBBBBBBBBNBBNBBNBNBNBNNNNNNNNNNNNNNNMNNMNMNMMMMMMMMMMMMMMMmMmmMmmmMmmmmmmmmdfdfdfddddddddddsdsdssssssssassasaasaaaaaaapapappppppppppipiiiiiiiiuiuuuuyuuyuyyyyyyytyttttttrttrrrerrereeeee4e44434333333322221221111<1<<<<<,,,,>>>:>>65555;;;;;----=====**@*@@@++X+X+X+X+X+    ",
"    qqwhhjjkkklzlzxxxxxxcxccccccvvcvvvbvbbbbbbbnbnnnnnmnmmnmmmmmmMmMMMMmMMMMNMNMNNMNNNNNBNBNBNBBNBBBBBBBBBBBBBVBVBVVBVVBVVVVVVVVVVVVVVVVVVVVVVCVCVCVVCVVCVVCCVCVCVCVCVCVCVVCVCVCVCVCVVCVCVVCVVCVVVCVVCVVCVVVVVVVVVVVVVVVVVVBVBVVVBVBVBBBVBVBVBBVBBVBBBBBBBBBBBBBBNBBNBNNNBNBNNNNNNNNNMNNNMNMNMMNMNMMMMMMmMMmMMMmMmMmMmmmmmmmmmnmffdfdfddfdddddddsdsdsdsssssssasasaaaaaaaapapappapppppipipiiiiiiuiuiuuuuuuuyuyyyyyytytytttttrtrrrtrrrereeeee4e444443433332232222211111<1<<<,,,,,,>,>>>:5555;;5;;----=-==**=***@@@+++X+X+X+X+X    ",
"    9qwhhjjkklllzzzzzxxcxxcccvcvcvvvvvvbvbbbbbnbnnnnnnnmnmmmmmMmMmMmmMMMMMMNMMNNMNNNNNNNNNBNNBBNBBBBBBBBVBBVBVBBBVBVVBVVVVVVVVVVVVVVCVVCVVCVCVVVVVVCVVCVCVCVVCVCVCVVCVVCVCVCVVCVCVCVCVCVVCVVCVVVCVVVVVVVVVCVVVVVVVVVVVVVVVVVVVVBVVBVVVVVBVBVBBBBVBBBBBBBBBNBBNBNBBBNBNBNBNNNBNNNNNNMNNNMNNMNMNNMMMNMMMMMMMMMMmMMmMmmmMmMmmmmnmmmdfdfddfdddddddsddddsdssssssssssasasaaaaaaaaapappppppppippipiiiiiiiiuiuuuuuuyuuyyyyytytyttrtttrtrrrrrreeeeeee44444444333332322221211111<<<<<<,,,,>>>>>>65555;;;;;----=====***@@@@++X+X+X+X+X+    ",
"    9wwwhjjkkklzzzzxxxxxxcccccccvvvvvbvbbbbbbnbnbnnnnmnmmmmmmmmmmMmMMMMMMMMMMNMNNNNNNNNNNBNNBNBBBNBBBBBBBBVBBVBVVBVVBVVBVBVVVVVVVVVVVVVVVCVVVCVCVCVVVCVCVVCVCVCVVCVCVCVVCVCVCVCVVCVCVVCVCVCVVCVVVCVCVCVCVVVVVCVVVVVVVVVVBVVVVVBVVVVBVBVBVBBBVBVBBBBBBBBBBBBBBBBBBNNBBNBNBNBNNNNNNNNNNNNNNMNNMNMMNMMMNMMMMMMmMMmMmMmMmmmmmmmmmmmnmffdfdddddddddddsssdssdsssssasasasaasaaapapaapaapppppppiipiipiiiuuiuuiuuuyuuyyyuyyyytttttttrrtrrrrrerreree4e4e44434333332322222211111<<<<<,<,,,,>,>>:>5555;5;;-;----====*****@@++++X+X+X+X+X  Z ",
"    9qwhhjjkklllzzzzxxxxcxccccvcvcvvvvvbvbbbbbnbnnnnnnnnmnmmmmmmMmMMMmMMMNMMNMNMNMNNNNNBNNBNBBNNBBBBBBBBBBBBVBBVBVVBVVVVVVVVVVVVVVVVVVVCVVVCVCVVCVVCCVCVVCVCVCVCVCVCVCCVCVCVCVCVCVCVVCVCVVCVCVCVCVVVCVVVVVVCVVVVVVVVVVVVVVVVVVVVVBVVVBVVBVVVBVBBVBVBBBBBBBBBBBBNBBBNBNBNBNNBNNBNNNNNNMNMNNMNMNMNMMNMMMMMMMMMmMMMmMMmMmMmMmmmmmmmmdfdfdfdfddddddddddsdssssssssssssasaaaaaaaaapapppapppppppipiiiiiiiuiuuuuuuuyuuyyyyytyytytttttrtrrrrrereeeeee4e4444434333332322212211<11<<<<<,,,,,>>>>:65555;;;;-;---======***@@@++X+X+X+X+X+    ",
"    9qwhhjjkkkllzzzxxxxxcccccccvcvvvvvbbbbbbbnbnnnnnnnmmnmmmmmMmMmMmMMMMMMMNMNMNNNNNNNNNNNNBNBBBBBBBBBBBBVBVBBVBVBVVVBVVVVVVVVVVVVVVVCVVVVVVVVCVVCVCVVCVCVCVVCVCVCVCVCVCVCVCVCVCVCVCVCVVCCVVCVVCVVCVVVCVCVCVVCVVVCVVVVVVVVVVVVVVBVVBVVBVVBBBVBBVBBBBVBBBBBBBBNBBBNBBBBNBNNBNNBNNNNNNNNNNNNNNNMNMMNMMMMMMMMMMMMmMMmMmMmmmmmMmmmmmnfffdfdfdddddddsdsdsdsdsssssssaaasaaaaaaaaapapapapppppiipiiiiiiiiiiuiuuuuuuuyyyyyyyyttyttttttrtrtrrrreereeee4e444434333332322222111111<<<<<,,,,,>>>>>655555;5;;-----====*****@@@+++X+X+X+X+X    ",
"     qwwhjjkklllzzzzxxxxxcxccvccvvvvvvbvvbbbbnbnbnnnnmnnmmmmmmmmmMmMMMMMMMMMNMNNMNNNNNNBNBNBBNNBBNBBBBVBBBVBBVVBVVBBVVVVVVVVVVVVCVVCVVVVCVCVCVCVCVCVVCVCVCVCCVCVCVCVCVCCVCCVCVCVCCVCVCCVVCVCVCVVCCVCVCVVCVVVVVVCVVVVVVVVVVVVBVVVVVVVBVVBVVVBVBVBVBVBBVBBBBBBBBBBBBBNBNBNBBNBNNNNNNNNNNNNMNMNMNMNNMNMNMMMMMMMMMMmMMmMmMMmMmmmmmmmmmdfdfdddfdddddddddsdssdssssssssasasaaaaapaaaapappppppppippipiiiuiuiuiuuuuyuuyuyyyyyyyttttttrttrrrrerreeeeeee444444343333323222212111<11<<,<<,,>,,>>>565555;;;;;-----==*==***@@@++X+X+X+X+X     ",
"     qwhhhjkkkllzzzxxxxcxccccccvvcvvvbvbbbbbnbnbnnnnmnmmnmmmmmMmMmMMmMMMMMMNMNMNNNMNNNNNBNBNBBBBBBBBBBBBVBBBVBVVBVVVVBVVBVVVVVVVVVVVVCVCVCVVVCVVCVCVCVCVCVCVVCCVCCVCVCCVCVCCVCVCVCVCVCVCCVCVCVCVCVVCVVVCVVCVCVVVVVVVVVVVVVVVVVVVVVBVVVVVBVBVBVBVBVBBBBBVBBBBBBBBBBBBBNBBNNNNBNBNBNNNNNNNNNNNMNNMMNMMMMNMMMMMMmMMMmMmMmmmMmmmmmmmmmfffdfdfddddddddsddssdssssssasssaasasaaaaapapappapppppppipiiiiiiiiuiuuuuuuuyuyyyyyttytytttttrrrtrrrrereeee44e444434333332322222121111<<<<<,,,,,,>>>6655555;5;;-;--==-==*****@@@++X++X++X++     ",
"     qwwhjjjklllzzzzxxxxcxccccvcvvvvvvbvbbbbbbbnnnnnnnmnmmmmmmmMmMmMMMMMMNMMNMNMNNNNNNBNNNBNBNBNBBBBBBBBBVBVBVBBVVBVVVVVVVVVVVVVVVVCVVVVVVCVCVVCVCVCVCVCVCVCCCVCVCCVCVCVCVCVCVCCVCVCVCCVVCVCVCVCVVCVCVCVVVCVVVVCVVCVVVVVVVVVVVVVVVVVVVBVVBVVVBVBVBBVBVBBBBBBBBBBBNBNBBBNBBBBNBNNNNNNNNNNNNMNNNMNNMNMNMMMMMMMMMMmMMmMmMmMmmmmmmmmmnmdfdfdddfddddddddsddssdsssssasassaaaaaaaaaaapappppppppipipiiiiiiuiuuiuuuuyuuyuyyyytytttttrtttrrrrrrrereeee4e44444343333323222221111<1<<<<<<,,,>,>>6656555;;;;;----=====****@@@+X+X+X+X+XX     ",
"     qwwhjjkkkllzzzxxxxxcxcccccvcvvvvbvbbbbbbnnbnnnnnmnmmmmmmMmmMmMMmMMMMMMNMNNNNNNNNNNNBBNBNBBBBBBBBBBVBBBVBVVVBVVVBVVVVVVVVVVVVCVVVCVCVCVVCVCVCVCVCVCVCCVCVVCVCVCCCCVCCVCCCCVCCVCVCCVCCVCVCVCVCVCVVCVCVCVVCVCVVVVVCVVVVVVVVVVVBVVVBVVVVVBVBVBVBBVBVBBVBBBBBBBBBBBBBNBBNNNNBNNBNNBNNNNNNNNNNMNNMMMNMMMMMMMMMMMMMmMMmMmMmmMmmmmmmmmfdfdffdddddddsdsdsdsdsssssssssaasaaaaaaapapapappppppippipipiiiuiiuiuuuuuuuyyyyyyyyttytttttrrtrrrrerreeeeee4e44444333323322222112111<1<<<,,,,,,>>66565555;5;;;-----===*=***@@@++X+X+X+X++     ",
"     qqhhhjkkkllzzzzxxxxxcccccvcvvvvvvbbvbbnbbbnbnnmnnmnnmmmmmMmMmMMMMMMMMNMMNMNMNNNNNNBNNBNBBBBBBBBVBBBVBVBVBVBVVBVVVVVVVVVVVVCVVCVVCVVCVVCVCVCVCVCVCVCCVCVCCCCCCVCVCCVCCCVCVCCVCCCCVCVVCCVCCVCVCVCVCVCVVCVVCVVCVCVVVCVVVVVVVVVVVVVVVBVBVVBVBVBVVBVBBBBVBBBBBBBBBBBBBBNBBBBNNBNBNNNNNNNNNNMNNMNMNNMNMNMMMMMMMMmMMmMmMmmMmmMmmmmmmmffffddfdfdddddddsdsdssssssssassasasaaaaaapaapapappppppipiiiiiiiuiiuuuuuuuyuuyyyyyyyyttttttttrrrrrrereeeee4e4444343433323222222111111<<<<<<,,,>,>66665555;;;;-;---=====***@*@+++X+X+X+X+X     ",
"     9wwhjjjklllzzzxxxxccxcccvcvvcvvbvvbbbbbbnnnnnnnnmnmmmmmmmmMmMMmMMMMMMMNNMNNNNNNNNNNNBBBNBNBBBBBBBBBBVBVBVBVVBVVVVVVVVVVVCVVVVVVCVVCVVCVCVCVCVCCVCCVVCCCCVCVCVCCVCCCVCVCCVCVCCVCVCCCCVCVCVCVCVCVCVCVCVVCVVVCVVVVVVVVVCVVVVVVVVVVVVVVVVVVVVBVBBVBBVVBBBBVBBBBBNBBNBNBBNBNBBNNNNBNNNNNNNNNNNNMNMMMMNMMMNMMMMMMMMMMmMmMmmmmmmmmmmmnfdfdfdddddddddddsdsdsdsssssssasaaaasaaaaaapappppppppppipipiiiiiiuiuuuuuyuyyuyyyytytyttttrtrtrrrrrreereeee44e4444333333232221211111<1<<<,<,,,,>666556555;5;;;----=-==*=***@@@+X+X+X+X+X+     ",
"     9wwhhjkkkllzzzzxxxxxcccccvcvvvvvvbvbbbbbnbnnnnnnnmnmmmmmMmmMmMMMMMMNMNMMNNNNNNNNBNBNBNNBBBBBBBBBBBVBBBVBVVBVVVVVVVVVVVVVVVVCVCVVCVVCVCVCVCVCVCVCVCCCCVCVCVCCCVCCCVCVCCVCCCCVCCVCCCVCVCCVCCVCCVCVCVCVCVVCCVVCVCVCVVCVVVVVVVVVVVBVVBVBVBVBVVBVVBVVBBBBVBBBBBBBBBBBBBBBNBNNBNBBNNNNNNNNNNNNMNNNNNNNMMNMMMMMMMMmMmMMmMmMmMmMmmmmmmmmffdfdfdfdddddsdddsdssssssssssasasaaaaaapaapapapppppipipiiiiiiiuiuiuuuuuuuyuyyyyyytyttttttrtrtrrrerreee4ee44443443333323222212211<1<<<<<,,,,,7666665555;;;;-;----====*****@+++X+X+X+X+X     ",
"      qwhhjjkklllzzxxxxccccccccvcvvvvbvbbbbbnbnnnnnmnmmmmmmmmmmMMmMMMMMMMMMNNMNMNNNNNNNNBNBBBNBBBBBBBVBBVBVBVVBVVBVVVVVVVVVVVVVVVVVCVVCVCVCVCVCVCVCVCCVCVCVCCCCVCVCCVCCCCVCCVCVCCCVCCVCVCCCVCCVCVCCVCVCVCVCVCVVCVVVCVVCVVVVVVVVVVVVVVVVVVVVVVBVVBBVBBBVVBBBBBBBBBBBBBBNBNBBNBNBNNBNBNNNNNNNNNNNMMNMMMMNMMMMMMMMMMMMMmMmMmMmmmmmmmmmmmdfdfdddddddddddsdsdsdssssssassasaaaaaaaaapapapppppppppiipiiiiuiiuiuuuuuyuuyyyyyytyttttttrtrrrrrrreeeeeee4e444443433333222222111111<1<<<,<,,>6666655555;5;;;----=====*=*@@@@+X+X+X+X+X      ",
"      wwhjjkkkllzzzzxxxxcxcccvvcvvvvbvbvbbbbbnnbnnnnmnnmnmmmmMmMmMMmMMMMNMNMMNNNNNNNNNNBNBBNBBBBBBBBBBBVBVVBVBVVVVVBVVVVVVCVVCVCVCVVVCVCVCVCVCVCCVCCVCCCVCCCVCVCCCCCCVCVCCVCCCCCVCCVCCVCCCVCCVCCVCVCVCCVCVCVCVCVVCVVCVVVVCVVVVVVVVVVVVVVVBVBVVBVVVBVVVBBBVBVBBBBBBBBBBBBBBNBBBNBBNNNBNNNNNNMNMNNNMNNNNMMNMMMMMMMMMmMMmMmMmmMmMmmmmmmnmffdfdfddddddsddsdsssdssssssasasasaaaaapaapappapppppippiiiiiiiiuiuiuuuuuyuyuyyyytytytttttrtrtrrrrrereeeee44444343333232322212111<1<<<<,<,,,777665665555;;;-;;-=-====****@@+++X+X+X+X+      ",
"      qwwhjjkklllzzxxxxcxccccccvvvvvvvbbbbbnbnbnnnnnnmmnmmmmmmMmMmMMMMMMMMNMNNMNNNNNNBNBNBNBBBBBBBBBVBVBBVBVBVVBVVVVVVVVVVVVVVVVVCVCCVCVVCVCVCVCVCCVCCVCCCVCCCCCVCVCCCCCCCCCVCVCCCCCCVCCVCVCVCCVCCVCVCVCVCVCVVCVCVVCVVCVCVVCVVVVVVVVVVVVVVVVVVVBVBVBBBVBVBBBBBVBBBBBBBBBBBBNBNNBNNBNNNBNNNNNNNNNMNNMMMNMMMMNMMMMMMMMmMMmMmMmmmmmmmmmmmdfdfdfdfddddddsdsddssssssssssasaaasaaaaapapapppppppppipipiiiiiiuuuuuuuuuyyyyyyyyttttttrttrtrrrrereeeee4e4e44443343332322222112111<<<<<,,,776666665555;;;;;----=====****@@@+X+X+X+X+X      ",
"      qwhhjjklklzzzzxxxxxcccvcvcvvvvvbvbbbbbnbnnnnnnmnnmmmmmMmmmMMmMMMMMNMMNMNNNNNNNBNNNBNBBNBBBBBBBBBBVBVBVVBVVBVVVVVVVVVVVVCVCVVVVVCVCVCVCVCCVCVCCVCCVCVCCVCVCCCCCCVCVCCVCCCCCCVCVCCVCCCCCCVCCVCCVCCVCVCVCVCVCVCVVVCVVVVVVVCVVVVVVVVVBVVVBVBVVBVVVVBVBVBVBVBBBBBBBBBBNBNBBNBNBNBNNBNNNNNNNNNMNNNMNNNMNMNMMMMMMMMmMMMmMmMmmMmmmmmmmmnmdffdddddddddddddssdsdsssassassasaaaaaaaaaapapappppipipiiiiiiuiiuiuuuuyuuyuyyytyyyytttttrtrrrrrrerreeee4e44434433333323222221111<1<<<,<,776766666555;55;;;;-----====***@@+++X+X+X+X+      ",
"      0wwhjjkkkllzzxxxxcccccccvcvvvvbvbbbbbbbnbnnnnnmnmmmmmmmmMMmMMMMMMMMMNMNNMNNNNNNNBBNBBBBBNBBBBBVBVBVBVBVVVVVVVVVVVVVVVCVVVCVCVCVVCVCVCCVCVCCCCVCCVCCCCVCCCCVCVCCCCCCCCCVCCVCCCCCCCCVCVCCCVCCCVCCVCVCCVCVCVCVCVCCVVCVCVVVVVVCVVVVVVVVVVVVVVVVBVBVBVBBVBBBBBBBBBBBBBBBBBBBBBNBNNBNNBNNNNNNNNNMNMNMMNMNMMMMMMMMMMMmMMmMmmMmmMmmmmmmmmffdfdfdddddddsdsddssssssssassaaasaaaaapappapppppppppipiiiiiiiiuiuuuuuuuyuyyyyyytttttttttrtrrrrrreeeeeee4444443433332322221121111<<<<<,<77767665655555;;;--;--====*****@@@+X+X+X+X+X      ",
"      9whhjjkklllzzzxxxxxccccccvvvvvvvbvbbbbnbnbnnnnmnmnmmmmmMmMmMmMMMMMMMNNMNNNNNNNNBNNBNBNBBBBBBBVBBBBBBVVBBVBVVVVVVVVVCVVVVCVVVCVCVCVCVCVCCCVCVCCVCCCCVCCCCVCCCCVCVCCVCVCCCCCCVCVCCVCCCCCVCCCVCCVCVCCVCVCVCVVCVCVCVVCVVVCVVCVVVVVVVVVVBVVVBVBVVBVBVBVVBVBVBVBBBBBBBBBBBNBNBNBNBBNBNNNNNNNNNNNNNNNNMNMMMNMMMMMMMMMMmMmMmMmmmmmmmmmmmnmfdfdfdfdddsddddsdssdsssssssassaaaaaaaaaaapaappppppippipiiiiuiuiuiuuuuyuyuyyyyyyytytttrttrtrrrerereeee4ee4443433333323222221111<11<<<,7777766666565;5;;;;-----=====***@@+++X+X+X+X+      ",
"       wwhhjkkklzzzxzxxccxcccvvcvvvvvbbbbbbbnbnnnnnnnmnmmmmmMmmMmMMMMMMNMNMMNNNNNNNNBNNBNBBBBBBBBBBBBVBVVVBVVVVVVVBVVVVVVVVCVCVVCCVVCVCVCCVCCVCCCVCCCCVCCCCVCCCCVCCCCCCCCCCCCCVCCCCCCCCCVCCVCCVCCVCCCCVCCVCCVCCVCVVCVVCVVCVVVCVVVVVVVVVVVVVVVVVVVVVVVBVBBVBVBBBBBVBBBBBBBBBBBNBNBNNNNBNBNNNNNNNNMNMNMNMNNMMMMNMMMMmMMMMMmMmMmMmmmmmmmnmmdfdfdddddddddsddssdsssssssasasasaaaaapapapppappppppiipiiiiiiiuiuuuuuyuuyyyyyyytytttttttrtrrrrrrereeeee444444434332322222212111<1<<<<,777767665655555;;;;;---=-==****@@@++X+X+X+X+       ",
"       wwhjjjklllzzzxxxxcccccccvvvvvvbvbbbbbbnbnnnnnmnmmmmmmmMmMmMMMMMMMMMNNMNMNNNNNNBNBNBNBNBBBBVBBVBBVBBVBVVBVVVVVVVVVVCVVVVCVVVVCVCVCVCVCVCVCVCCCVCCCCVCCCCCCCCCCCCCCCCCCCCCCCCCCVCVCCCCCCCCVCCVCVCCVCCCVCVCVCVCVCVCVVCVCVVVCVVVVVVVVVVVBVVVBVBVBVVBVVBVBBVBVBBBBBBBBBNBNBBBBNBBNBNNNBNNNNNNNNNNMNNNMMNMNMMMMMMMMmMmMMmMmMmmmmmmmmmmmnffdffdddddddddsddssdssssssssasaaaaaaaaapaappppppppppiipiiiuiiuiuuuuuyuuyuyyyyytytttttrtrtrrrrreeree4e4e44434333333332221211111<<<<<787767666656555;5;;;-----=====***@@@++X+X+X+X       ",
"       qwhhjkkkllzzzxxxcxccccvcvcvvvbvbbbbbnbnnnnnnmnmnmmmmmmmMmMMmMMMMNMNMNNNNNNNNBNNBNBBBNBBBBBBBVBBVBVVVVBVVVVVVVVVVCVVVCVCVVCCVCVCCVCVCCCVCCCCVCCCVCVCCVCCCCCCCCCCCCVCCCCCCCCVCCCCCCCVCVCCCCCCCVCCVCCVCVCCVCVCVCVVCVCVVVCVVVVCVVVVVVVVVVVVVVVVVBVBVBBVBBVBBBBBBBBBBBBBBBBNNBBNBNBNBNNNNNNNNNNNNNMNMNNMNMMMMMMMMMMMMmmMmMmmMmMmmmmmmmmddfdddfddddsddsdsdsssdssasasasasaaaaaapapapapppppiipipiiiiiiuiuiuuuuuuyuyyyytytyttttttrtrrrrrrereeeee4e44444333332222222121111<1<<<8777767666655555;;;;-;-=-====****@@++X+X+X+X+       ",
"       wwhjjjkklzlzzxxxxcccccccvvvvvvbvvbbbbnbnbnnnnmnmnmmmmmMmMmMMMMMMMNMNMMNNNNNNNBNBNBNBBBBBBBBBBBVBVBBVBVVVVVVVVVVVVVVVVVVVCVVCVCVCCVCCVCCVCVCCCVCCCCCCCCCCCVCCCVCCCCCCCCVCCCCCCCCCCCCCCCCVCVCCCCVCCVCCCVCVCCVCVVCVCVVCVVVVCVVVCVVVVVVVVVVVBVBVVBVVVBVVBVBVBVBBBBBBBBBBNBBBBNBNBNBNNNBNNNNNNNNMNNMNMNMMMNMMMMMMMMmMMMmMmMMmmmmmmmmmnfffddfdddddddsddsdsdsssssssssasaaaaaaaaaapapppppppppipiiiiiiiiiuuuuuuuyuyyyyyytytytttrttrrtrrrereeeee4e44444344333333222221111<1<<<8787777666656555;5;;;;---=-==*=**@@@+++X+X+X+X       ",
"       0wwhjkkkllzzzxxxxcxccvcvvvvvvvbbbbbbbbnbnnnnnnmmmmmmmMmmMMMmMMMMMMNMNNNNNNNNNNNBNBNBBBBBBBBBVBBVBVVBVVBVVBVVVVVCVVCVCVCVCVCVCVCVCVCVCCVCCCCVCCCVCCCCCCCVCCCCCCCCCCCCVCCCCCCCCCCCCCCCVCCCCCCVCCCCVCCVCCCVCVCVCCVCVVCVCVCVVVVVVVVCVVVVVVVVVVVVVVBVBVBVBVBBVBBVBBBBBBBBBBBNBNBBNBNNBNNNNNNNNNNNNNNMNMNMNMMMNMMMMMMMMmMMmmmmMmmmmmmmmfdfffddfdddddddsdsdssdsssssasasasaaaaapaaapapapppppipipiiiiiuiuiuiuuuyuyuyyyyyyttttttttrtrrrrrrereeeee44e4434333332223221212111<<888777776666656555;5;;;-----====****@@+XX+X+X+X+       ",
"       0whhjjkkllzzzxxxxcccccvcvcvvvvvvbbbbnbbnnnnnmnnnmmmmmmMmMmMMMMMMNMMNMNMNNNNNBNBNBNBBNBBBBBVBBVBBVBVVBVVVVVVVVVVVVVVVCVVCVCVCVCVCVCCCVCCCCVCCCCCCCCCVCCCCCCCCCCCVCCCCCCCCCCCCVCCCVCCCCCVCCVCCCCVCCVCVCVCCVCVCCVCVCVCVCVVCVCVVCVVVVVVVVVVVVVBVBVVBVVBVBVBVBBBBVBBBBBBBBNBBBBBNBNNBNNNBNNNNNMNNMNMNNMNMMMNMMMMMMMMmMMmMmMMmmmmmmmmmnmfddfdfdddddddddddsdssssssssassaasaaaaaapappapppppppppipiiiiiuiuiuuuuuuyuyyyytyytyttttrtrtrrrrrrreeeeee44444443333332222221111<1<8888877677666655555;;;-;--=-=====**@@@++X++X+X+X       ",
"        wwhjjkklllzzxxxcxccccccvvvvvbbbbbbbbbnnbnnnnnmmmmmmMmmMmMMMMMMMMMNNNNNNNNNNNNNBBBNBBBBBBBBBVBVVBVBVVVBVVVVVVVVVCVVVVCVVCVCVCVCVCCVCCCVCVCCVCCVCCCCCCCCCCCCVCCCCCCCCCCCCCCCCCCCCCCCCCCCCCCCVCCCCCCCCVCCVCCCVVCCVVCVCVVCVVVVCVVVVVVVVVVVVVVVVVVVVBVVBVBVBBVBBBBBBBBBBBBBNBNNBNBBNNBNNNNNNNNNNNNNMNMNMNMMMMMMMMMMMMmMMmMmmMmMmmmmmmmmfdfdddfdddddsdssdsdssssssssaasaaaaaaaaapaapppppppipiiiiiiiiiuiuuuuuuyuyyuyyyytyttttttrtrrrrrreeeeeee4e44443333332322222121111<8887777777666656555;5;;;-----===*****@+++X+X+X+X        ",
"        whhjjkkklzzzzxxxcxcccvcvcvvvvvbvbbbbnbnnnnnnmnmnmmmmmmmMmMmMMMMMNMMMNMNNNNNNBNBNNBBBBBBBBBBBBBVBVVVBVVVVVVVVCVVVVCVCVVCVCVVCCVCCVCCVCCCCCCCCCCCCVCCCCCVCCCCCCCCCCCCCCCCCCCCCCCCCCVCCCCCCCCCCCCVCCVCCVCCVCVCCCVCCVCVCVVCVCVVVVCVVVVVVVVVVVVVBVBVVVBVBVBVBVBVBVBBBBBBBBBBBBBBBBNBNBNNBNNNNNNNNMNNMNMNMMNMMMMMMMMMMMmMmMmMmmmmmmmmmmnmfdffddddddddddsdssssssssassasasaaaaapaappapapppppippipiiiuiiiuiuuuuuuuuyyyyyyytytttttrrtrrrrrrreeeee44444444333323222221111<188888877676666565555;;;;;---=-===***@@@+X+X+X+X+        ",
"        qwhhjkklllzzzxxxccccccvvvvvvbvbbbbbbbnbnnnnnnmnmmmmmMmMMMMMMMMMMMNNNMNNNNNNBNNBNBBNBBBBBBVBVBVBVBVBVVVVVVVVVVVVCVVVCVCVCVCCVCCVCCCVCCVCVCCVCCCCCCCCCVCCCCCCCCCCCCCCCCCCCCCCCCCCCCCCCCVCCCVCCVCCCVCCCCCVCCCVCVCVVCVCVCVVVCVCVCVVVCVVVVVVVVVVVVVVBVVBVBVBVBBBBBBBBBBBBBBNBBNNBNNBNNBNNNNNNNNMNNNMNNMNMNMMNMMMMMMMmMMMmMmMmMmmmmmmmnmmdfddfdddddddsddssdssssssssasasaaaaaaaapaapppppppppiipiiiiiiuuuuuuuyuyyyyyyytytytttttrtrrrrreeeeeee44e44443333333323221121111<8988777777666665555;5;;;-----====***@@@++X+X+X+X        ",
"        0whjjkkkllzzxxxxxccccvccvvvvvbvbbbbbnbnnnnnnmnmmmmmmmMmmMmMMMNMMNMNMNNNNNNNNNBNBNBBNBBBBBBBBVBBVBVVVBVVVVVVVVVVVVCVVVVCVCVVCVCCVCVCCCCCCCCCCCCCCCCCCCCCCCCCCCCCCCCCCCCCCCCCCCCCCCCCCCCCCCCCCCCVCCCVCVCCCVCCVCVCCVCVCVCVCVVVVVVCVVVVVVVVVVVVVVBVVVBVVBVBBVVBVBVBBBBBBBBBNBBBNBBNBNNBNBNNNNNNNNNNNMNMNMNMMMMMMMMMMMmMmMmMmmmmmmmmmmmmnffddddddddddsddsdsdssssassasaasaaaaapaappappppppippiiiiiiiiiuiuuuuuuuyuyyyytytttttttrtrrrrrrereeeee4e443444333232222221111<188878877767666565555;;;;;---=-==*=**@@++X+X+X+X+        ",
"         whhjjkkllzzzxxxccccccvvvvvvvvbbbbbnbnbnnnnmnmnmmmmMmmMmMMMMMMMNMNMNNMNNNNBNBNBBBBBBBBBBBVBVBBVBVVBVVVVVVVVVVVCVVCVCCVCVCVCCVCVCCCCVCVCCCCCCCCCCCCCCCCCCCCCCCCCCCCCCCCCCCCCCCCCCCCCCCCCCCCCCCCCCCCCCCCVCVCCCVCVCCVCVVCVCVCVCVVVVVVVVVVVVVVBVVVVBVBVBVBVBBBVBBBBBBBBBBBBBBBNBBNBNBNNNNNBNNNNNNMNMNNMNMMMNMMMMMMMmMMMMmMmmMmMmmmmmmmnmmdfdfddddddddssdssssssbssasasaaaaaaaaappappppppippiipiiiiuiuiuuuuuuyuyyyyyyyttytttrttrrtrrrereeeee4e44444333333232222121111<88887777776666565555;;;;----=====***@@+++X+X+X+         ",
"         whhjkkkllzzzxxxcxccvccccvvvbvbvbbbbnbnbnnnnmnmnmmmmMmmMmMmMMMMMMMNMNNNNNNNNNNNBNNBBBBBBBBVBBVBVVBVVVVVVVVVCVVVVCVVVVCVVCVCVCCCVCVCCCCCVCCVCCCVCCCCCCCCCCCCCCCCCCCCCCCCCCCCCCCCCCCCCCCCCCVCCCCCVCCVCVCCCCVCVCCCVCVCVCVCVVCVVCVCVCVVVVVVVVVVVVBVVVVVVBVBVBVBBVBVBBBBBBBBBNBBNBNBNBNBNBNNNNNNMNNNNNMNMMNMMNMMMMMMMMMmMMmMmMmmmmmmmmmmmnmnfdddddddsdddddsdssbbbssssasaaaaaaapapapappppppipiiiiiiiuiuuuuuuuuyuyyyytyytttttttrtrrrerrereeeee444434343333322222211111898888877776666655555;;;;;-----==****@@@+X+X+X+X         ",
"         wwhjjkkllzzzxxxxcccccvvvvvvvbvbbbbbbnnnnnnnnmmmmmmmmMmMMMMMMMMNMNMNNNNNNNBNBNBNBBBBBBBBBBBBVVBVBVVBVVBVVVVVVVCVVVCVCVCCVCVCVCVCCCCVCCCCCCCCCCCCCCCCCCCCCCCCCCCCCCCCCCCCCCCCCCCCCCCCCCCCCCCCCVCCCCCCCCVCCCVCCVCVCCVCVCVCVVCVVVVVVVVCVVVVVVVVVVVBVBBVVBVVBVBVBBBBBBBBBBBBBBBBNBNBNBNNNNNNNNNNNNMNMNMNNMMNMMMMMMMMmMMmmMmMmmMmmmmmmnmnmnmndfdddddddsdssdsssbbbbasaaaasaaaapaaappppppppippiiiiiiiiuuiuuuuyuyuyyyyyytytttttrtrtrrrrereeee4e4e444434333232322212111<98888777776666656555;5;;-;---=====***@@++X+X+X+X         ",
"         0hhhjkklllzxzxcxcccccvcvvvvvvbbbbbnbbnbnnnmnnmnmmmMmmMmmMMMMMMMNMNMNMNNNNNNNBNBBBNBBBBVBBVBBVBVVBVVVVVVVVVVVVVVCVCVCVVCVCCVCCCVCVCCCVCCCCCCCCCCCCCCCCCCCCCCCCCCCCCCCCCCCCCCCCCCCCCCCCCCCCCCCCCCCCCCVCCCVCCVCCCVCVCVCVCVCCVVCVCVVCVVVVVVVVVVVVVVVVVBVVBVBBVBBVBVBBBBBBBBNBNBBBBNBNNBNBNNNNNNNNNNNNNNMNMMMNMMMMMMMmMMMMmmMmmMmmmmmmmmmnmnmnfddddddsdsdssssssbbssassaaaaaaaapapapapppppipipiiiiuiiuiuuuuuyuyuyyyytyttttrttrtrrrrrrereeee4e44443433332322222211111898887877767666565555;;;-;--=-==*=**@@@+X+X+X+X+         ",
"         0whjjjkklzzzxxxxccccvcvcvvvvbvbbbbbbnbnnnnnnmnmmmmmmMmMMMmMMMNMMNMNNNNNNNBNBNBBNBBBNBBBBBBVBBVVBVVVVVVVVVVVVCVCVVVCVCVCVCVCCVCCCCCVCCCCCCCVCCCCCCCCCCCCCCCCCCCCCCCCCCCCCCCCCCCCCCCCCCCCCCCCCCCCCVCCCCVCCCCCVCVCCVCVCVVCVVCVVCVVCVVVVVVVVVVVVVVVBVVVBVVBVBBVBBBBBBBBBBBBBBBBNNBBNBNBNNNNBNNNNNMNMMNMMMNMMMMMMMMMMMMmmMmMmmmmmmmmmmnmmmnmnnnnddddddsdsdsdssssbvasaaaaaaaaapapapppppppppipiiiiiiiuiuuuuuuuyyyyyytytytttttrtrtrrrerreeeeee44444433333323222212111<98888787776766665555;5;;;----====****@@++X+X+X+X         ",
"          whhjkklllzzzxxcxccccvcvvvbvvbvbbbbnbnnnnnnmnmmmmmMmmmMmMMMMMMMNMNMNNNNNNNNBNBNBNBBBBBBBVBBVBVBVVVBVVVVVVCVVVVVVCVCVCVCCVCVCCVCCVCCCCCVCCCCCCCCCCCCCCCCCCCCCCCCCCCCCCCCCCCCCCCCCCCCCCCCCCCCCVCCCCCCCCCCCCVCCVCCCVCVCCVCVCVCVVCVVVCVVVVVVVVVVBVVVVBVVVBVBVBBVBVBVBBBBBBBBBNBBBBNBNBNNBNNNNNNNNNNNMNMNNMNMNMMMMMMMmMMMmMmMmMmMmmmnmmmnmnmnmnnnnddsddsdsssssssssssasasaaapaaapapappppipipiipiiiiuiiuiuuuuyuuyyyyyyytytttttrtrrrrrrereeee4ee44434433333322222111118887887777766665655;5;;;;;----====**@@@+X+X+X+X          ",
"          whhjjkkllzzxxxxccccccvvvvvvbvbbbbbbnbnnnnnnmnmmmmmmMMmMMMMMMMNMNMNNNNNNNNBNNBNBBBBBBBBBBVBVBVBVBVVVBVVVVVVVCVCVCVVCVCVCVCCCVCCCCCVCCCCCCCCCCCCCCCCCCCCCCCCCCCCCCCCCCCCCCCCCCCCCCCCCCCCCCCCCCCCCCCCVCCVCVCCVCCVCCVCCVCVCVCVCVVVCVVVCVVVVVVVVVVVVVVVBBVVBVVBVBBBBBBBBBBBNBBBNBNBNBNNBNNBNNNNNNNNNNMNMMNMMMMMMMMMMMMmMMmMmmMmmmmmmmmnmnmnmnnmnnndddsdsdsdsssssasasasaaaaaapaapappppppppiipiiiiuiiuuuuuuyuyyyuyytyttttttttrtrtrrereeeeeee44444433333222222212111<98888777776666655555;5;;-----=-==***@@+++X+X+X+          ",
"          0whjjkklzlzzxxcxcccvcvcvvvvbvbbbbbnbnnnnnnmnmnmmmmmmmMMmMMMMMMMNMNMNNNNBNNNBNBBBNBBBBBVBBVBVBVVVBVVVVVVVVVVVVVCVVCVVCVCVCCVCCVCVCCCCCCCCCCCCCCCCCCCCCCCCCCCCCCCCCCCCCCCCCCCCCCCCCCCCCCCCCCCCCVCCCCCCCCCCCCCVCCVCCCVCVCVCVVCVCVVVVVVVCVVVVVVVVVBVBVVVBVVBBVBVBVBVBBBBBBBBBBBNBNBNBBNBNNNNNNNNMNMNNNNNMMNMNMMMMMMmMMMmMmMmmmmmmmmmmmmmmnnmnnnnnnddddsdssssssssassaaaaaaaaapapapappppippipiiiiiiuiiuuuuuuuuyyyyytyyttttrttrrrrrrerreeee4e44444343333332222211119898888877776666665555;;;;;----==*=**@@@+X+X+X+X          ",
"          0hhjjkklllzzxxxcccccvcvvvvvvbvbbbnbnbnnnnmnmmmmmmmMmMmMMMMMMNMNMNMNNNNNNNBNBNBNBBBBBBBBBVBBVBVBVVVVVVVVVVVCVCVVVCVCCVCVCCVCCCCCCCCCCCCCVCCCCCCCCCCCCCCCCCCCCCCCCCCCCCCCCCCCCCCCCCCCCCCCCCCCCCCCCCCCCCCVCCVCCCVCCVCVCCVCVCVCVVCVCVCVVVVVVVVVVVVVVVVBVVBVBVBVBVBBBBBBBBBBBBNBBBBNBNNNNNNNNNNNNNNNNMMMMNMNMMMMMMMMMMmMMmMmMmMmmMmmmnmmnmnmnnnnnnnnnsdsdsssssssssasasaaaaapaapapppppppppipiiiiiiuiuuiuuuyuyyyyyyyytttyttttrtrtrrrreeree4e4e444434333323222212111898888777767666655555;;;;;----====***@@+++X++X++          ",
"           whhjkkklzzxzxxxcccccvvcvvbvvbbbbbnbnbnnnnmnnmmmmmmMmMmMmMMMMMMNMNNNNNNNNNNBNBBBNBBBBBVBBVBVBVVVVVVVVVVCVVVVVVVCVCVVCVCCVCCVCVCCVCCVCCCCCCCCCCCCCCCCCCCCCCCCCCCCCCCCCCCCCCCCCCCCCCCCCCCCCCCCCCCCCCVCCCCVCCCCCCVCVCCVCVCVCVCVCVVCVVVVVVVVVVVVVVVVVVVVBVVBVBVBBBVBVBBBBBBNBBBBNBBNBBNBNBNNNNNNNNNNNNNMNMMMNMMMMMMMMMMmMMmMmmMmmmmmmnmmnmnnmnnnnnnbnsdsdsdssssasssasaaaaaaaapapapppppipipipiiiiiiiuuuuuuyuyuyyytyyyttttttrtrrrrerreeeeee444443433332322222211199888878777767666655555;;;-;----===***@@++X+XX+X           ",
"           whhjkklllzzxxxcxcccvcvvvvvvbbvbbbbnnnnnnnnmmmmmmmmmMmMMMMMMMMNMNMNMNNNNNBNBNBNBBBBBBBBBVBBVBVBVBVVBVVVVVVCVCVCVCVCCVCVCCCVCCCCVCCCCCCCCCCCCCCCCCCCCCCCCCCCCCCCCCCCCCCCCCCCCCCCCCCCCCCCCCCCCCCCCCCCCCCCCCVCVCCCCCVCCVCVCVCVVCVCVVCVCVVCVVVVVVVVVVBVVVBVVBVBBVVBBBBBBBBBBBBNBBNBNBNBNBNNNBNNNNNMNMNNMNMNMMMMMMMMMmMmMmMmMmmmmmmmmmmmnmnmmnnnnnnnnndsdsssssssssaasaaasaaaapapapppppppppiiiiiiuiuiuiuuuuuyyuyyyyyttttttrtrtrrrrrrereeee4e4444433333323222121219989888777776666565555;;5;;---=-===***@@+X+X++X+           ",
"           0hhjjkkllzzzxxxcccccvcvvvvbvbbbbnbbnbnnnmnnmnmmmmMmmMMmMMMMNMMNMNNNNNNBNNNBNBBBBBBBBBVBBBVBVVBVVVVVVVVVVVVVVCVVCVVCCVCVCVCCCVCCCCCCCCCCCCCCCCCCCCCCCCCCCCCCCCCCCCCCCCCCCCCCCCCCCCCCCCCCCCCCCCCCCCCCCVCCCCCCVCVCVCCVCVCCVCVCVVVCVVVVCVVVVVVVVVBVVVVBVVVBVBVVBBBVBVBBBBBBBBBBBBBBNBNNNBNNNNNNNNNNNMNNMNMMMNMMMMMMMMMMMmMmMmMmmmmmmmmmmmnnnmnnnnnnnbdssdssssssssasasaaaaaaaaappapppppippipiiiiiiiuuuuuuyuuyyyyytyyyttttttrtrrrrereeeeeee444434433333322222111989888887777766665655;5;;;-;---====**@@@@X+X+X+X           ",
"           0hhjjkkllzzzxxcxcccvcvvvvvvbvbbbbbnbnnnnnnmnmmmmmmmMmMMMMMMMMNMNMNMNNNNNBNBNBNBNBBBBBBBVBVBVBVVBVVVVVVVVCVCVVVCVCVCVCVCCCVCVCCVCCCCCVCCCCCCCCCCCCCCCCCCCCCCCCCCCCCCCCCCCCCCCCCCCCCCCCCCCCCCCCCCCCCVCCCCCVCCCCCCVCVCCVCVCVCVCVCVVCVVVVVVVVVVVVVVVVVVVBVVBVBBBVBBBBBBBBBBBBBNBNNBNBNBNNNNNNNNNNNMNNMNMNMNMMMMMMMMmMmMmMmmmMmmmMmmmmnmnmnmmnnnnnnbnnbdsdssssssasasaaaaaaapappappapppppiipiiiiiiuuuiuuuyuuyyuyyyyytttttrtrtrrrrrreeree4e44e44433333222222212199988888777776676565555;;;;;---=-==****@++X+X+X+X           ",
"            whjjkkllzzzxxxcccccvcvvvvbvbvbbbnbnnnnnnmnmmmmmmmMmMmMmMMMMMMNMNNNNNNNNNNNBBNBBBBBVBBVBBVBVVBVVVVVVVCVVVVVVVCVCVCVCVCCVCCCCCCCCVCCCCCCCCCCCCCCCCCCCCCCCCCCCCCCCCCCCCCCCCCCCCCCCCCCCCCCCCCCCCCCCCCCCCCCCCCCVCVCCCCVCCVCVCVCVCVCVVCVVCVVVVVVVVVVVBVBVVBVVBVVVBVBVBVBBBBBBNBBBBBNBNBNNBNBNNNNNNNNNNNNMNMNMNMMMMMMMMMmMmMMmmMmmmmmmmmnmnmnnnmnnnnnnbnnssdssssssassasaaaaaapaapapppppipppiiiiiiiiiuuuuuuyuyuyyyyytytttttrtrrtrrerreeeee4e44434343333323222211998988888777776666565555;;;-;---====**@@@++X+X+X     Z      ",
"            whhjkkkllzzxxxxcccvcvvvvvvbbbbbbbbnbnnnnnmmnmmmmMmmMmMMMMMMNMNMNMNNNNNBNBBNBBBBBBBBBBBVBVBVBVVBVVBVVVVVVCVCVCVCVCVCCVCCVCVCCVCCCCCCCCCCCCCCCCCCCCCCCCCCCCCCCCCCCCCCCCCCCCCCCCCCCCCCCCCCCCCCCCCCCCCCCCVCCCVCCCCVCVCCVCVCVCVCVVVCVVVCVVVCVVVVVVVVVVVVBVBVBVBBBVBBBBBBBBBBBBBNBBBNBBNBNNNNNNNNNMNNMMNNMNMMMMNMMMMMMMMmMmMmMmmmmmmmmmmnmnmnnnnnnnnnnbbsdssssssssaasaaaaaaaapapppapppppiipiiiiiuiuiuuuuuuyuyyyyytytttttttrtrrrrrrereeeee44444433333323222112199988887787766766656555;;;;-----===***@@++X+X+X+            ",
"            0hjjjklllzxzxxccccccvcvvvvvbvbbbbnbnnnnnmnnmmmmmmMmMMmMMMMMMMNMNNNNNNNNNNNBNNBNBBBBBVBBBVBVVBVVVVVVVVVVVVVVVVCVVCCVVCCVCCCVCCCCCCCCCCCCCCCCCCCCCCCCCCCCCCCCCCCCCCCCCCCCCCCCCCCCCCCCCCCCCCCCCCCCCCCCCCCCCCCCCVCCCCVCCVCCVCVCVCVCVCVVVCVVVVVVVVVVVVVVVVVVVBBVVBBVBBVBBBBBBBBBNBNBBNBNNBNBNNNNNNNNNNNMNMNMNMMMMMmMMmMMmMmMmmmMmmmmmnmmmnmnmnnnnnnnbnndssssssasassaasaaaaapaapappppppppipiiiiiiuiuuuuuyuuuyuyyyyyyytttrttrtrrrrereeee4e4e44434433323222222199989888877777666665555;5;;;;----==*=**@@@X+X+X+X            ",
"             whjjkkllzzzxxcxccvcvvvvvbvbbbbbbbnbnnnnnmmnmmmmmmMmMMMmMMMNMMNMNMNNNNBNBNNBBBBBBBBBBBVBVBVBVVVVVVVVVVCVCVCVCVCVCVCCCVCCVCCCVCCCCVCCCCCCCCCCCCCCCCCCCCCCCCCCCCCCCCCCCCCCCCCCCCCCCCCCCCCCCCCCCCCCCCCCCCCCVCCCCCVCVCCVCCVCVCVCVCVVVCVVVVVVVVVVVVVVVBVBVBBVBVBBBVBBVBBBBBBBBBBBBNBNBNBNNNNNNNNNNNMNMNMNMNMMMMMMMMMMMMmMmMmmMmmmmmmmmmnmnmnnnmnnnnbnnbsdsdssssssasasaaaaaaapappappppipipiiiiiiiiuiuuuuuuyuyyyyytytttttttrtrrrrrreereeee44444433333322322219999988888787767666655555;;;;----=-==***@++X+X+X+             ",
"             whjjkkllzzzxxxccccvccvvvvvvbbbbbnbnnnnnnnnmnmmmMmmMmmMMMMMMMNMNNNNNNNNNBNBBNBNBBBBBVBBVBVBVBVBVVVVVVVVVVVVVVCVCVCVVCCVCCCCCCCCCCCCCCCCCCCCCCCCCCCCCCCCCCCCCCCCCCCCCCCCCCCCCCCCCCCCCCCCCCCCCCCCCCCCCCVCCCCCCVCCCCVCCCVCVCVCVVCVCVVCVVCVVVVVVVVBVVVVVBVVVVBVVVBVBBBBBBBBBBNBNBBBNBNBNBNBNNNNNNNNNNMNNMNMNMMMMMMMMmMMmMmMmmMmmmmmmmnmmnmnmnnnnbnnnbndssssssssasasaaaaaapaapaapppppppppipiiiiiuiuiuuuuuuyuyyyyyyttttttrtrtrrrerreeee4ee444434333233222212099899888877777666566555;5;;;;---====**@@@++X+X+X             ",
"             2hhjkklllzxxxxccccvvvvvvvbbvbbbnbnbnnnnmnmmmmmmmmMmMMMMMMMNMNMNMNNNNNNBNNBNBBBBBBBBBBVBVBVVVVVVBVVVVVVVCVCVCVCVCVCCVCCVCCVCVCCCCCCCCCCCCCCCCCCCCCCCCCCCCCCCCCCCCCCCCCCCCCCCCCCCCCCCCCCCCCCCCCCCCCCCCCCCCCCVCCVCCCCVCVCVCVCVCVCVVCVVCVVVCVVVVVVVVVBVVVBBVBVBBBVBVBBVBBBBBBBBBNBBNBNNBNNNNBNNNNNNNNMMNMMMNMMMMMMMMMMMmMmMmmmmMmmmnmmnmnmnnnnnnnnbnbsdsdssssassaasaaaaaaapapppapppppiiiiipiiuiuiuuuuyuyuyyuyytytytttttrtrrrrrrereeee44e444433433322222299999988887877767666655555;;;-;----==****@++X+X+X+             ",
"             0hjjjkkllzzzxcxcccccvcvvvvvbbbbbnbnbnnnnmnmnmmmmmmmMmMMMMMMMMNMNMNNNNNNNBNBNBBBBBBBBBBBVBVBVBVVVVVVVVCVVVVVVCVCVCVCCVCCVCCCCCCVCCCCCCCCCCCCCCCCCCCCCCCCCCCCCCCCCCCCCCCCCCCCCCCCCCCCCCCCCCCCCCCCCCCCCCCVCCCCCCCCCVCVCCCVCCVCVCVVCVVVVVCVVVVVVVVVVVVVVVVVVVBBVBBBBBBBBBBBBBBBNBBNBNBNNNBNNNNNNNMNMNNMNMNMMNMMMMMMMmMmMMmMmMmmmmmmmnmmnmnnmnnnnnnnnndssssssssassasaaaaapaaapappppppipppiiiiiiiiuuuuuuuuyuyyyyyytttttrtrtrrrrrereeeeee44444343333233222109999898878777776666565555;;;;----====**@@+++X+X+X             ",
"              whjjklllzzxxxxcccvcvvvvvbbvbbbbbnnnnnnnnmnmmmmmMmMmMMmMMMMNMNNNNNNNNNBNNBNBBNBNBBBBVBBBVBVBVVVVVVVVVVVCVCVCVCVCVCVCCCVCCVCCCCCCCCCCCCCCCCCCCCCCCCCCCCCCCCCCCCCCCCCCCCCCCCCCCCCCCCCCCCCCCCCCCCCCCCCCCCCCCCCCVCCVCCCCVCVCVCVCVCVCVCVVVVVVVVVVVVVVVVBVBBVBBVVBVBVBVBBBBBBBNBNBBNBNBNBNBNNNNNNNNNNNMNMNMMNMMMMMMMMmMMMmmMmmMmmmmmmmmmnmnnmnnnnnnbnbbsdssssssssasaaaaaaaaapappapppppppiipiiiiuiuuiuuuyuuyuyyyyttytttttttrrtrrereeeeee4e444343333332222229099898888877776766665555;;;;;-;--===***@@++X+X+X              ",
"              whjjkkllzzzxxxccccvcvvvvvvbbbbbbbnbnnnmnnmmmmmmmmMMmMMMMMMMNMMNMNNNNNNNBNBNBBBBBBBBBVBVBVBVVBVVVVVVVVVVVCVVVCVVCCVCVCCCCCVCCCCCCCCCCCCCCCCCCCCCCCCCCCCCCCCCCCCCCCCCCCCCCCCCCCCCCCCCCCCCCCCCCCCCCCCCCCCCCCCCCVCCCVCVCCCVCVCVCVCVVVVCVCVVVVVVVVVVVVVVVVBVVVBVBBVBBBBBBBBBBBBBNBBBNBNBNNBNNNNNNNMNNNNMNNMMNMMMMMMMMmMMmMmMmmmmmmmmmmmnmmnnnnnnnnnnndsdsssssassasasaaaaaaapaapppppppipiiiiiiiuiuuuuuuuyuyyyyyyytttttrtrtrrrrrrrreeeee4444443433232322219999989888787777666656555;5;;;---=-===**@@+X+X+X+              ",
"              qhhjkklllzxxxccccvcvvvvvbbvbbbbnbbnnnnnnmmnmmmmmMmMMmMMMMMMMNNMNNNNNNBNNBBBNBBBBBBBBBVBVBVVVVVBVVVVVCVVVVVCCVVCCVCVCCVCVCCCCCVCCCCCCCCCCCCCCCCCCCCCCCCCCCCCCCCCCCCCCCCCCCCCCCCCCCCCCCCCCCCCCCCCCCCCCCCCVCCCCCCVCCCVCVCCVCVCVVCVCVCVVVVCVVVVVVVVBVVBVVVBVBBVBVBBVBBVBBBBBBBBBNBNBNBNNBNNNNNNNNNNMMNMNMMNMMMMMMMmMMMmMmMmmMmmmmmmnmnmnnmnmnnnnbnbsdsssdsssssassaaaaaaapaapppappppppipiiiiiiiuiuuuuyuyuyuyyyttyttttttrtrrrrereeeee444e44434333332222200999989888787776666656555;;;;-;---==***@@@++X+X+XZ             ",
"               hhjjkkllzzzxxxcccvccvvvvvbvbbbbnnbnnnnnnnmmmmMmmmMmMMMMMMMNMMNNMNNNNNBNBNNBBBBBBBBVBBBVBVBVBVVVVVVVVVVCVCVVCVCVCVCCVCCCCCCCCCCCCCCCCCCCCCCCCCCCCCCCCCCCCCCCCCCCCCCCCCCCCCCCCCCCCCCCCCCCCCCCCCCCCCCCCCCCCCCCVCCCVCCCCVCCVCVCVCVCVVCVCVVVVVVVVVVVVVVVVBVVBVBVBBVBBBBBBBBBBNBBNBBNBNBNNNNNNNNNNNNNNMNMNMMMMMMMMMMMMmMMmmMmmMmmmnmmmmmmmnnnnnnnnbndssdssssssssasasaaaaaaapapapppppippiiiiiiiuiuuuuuuyuyyyyytyytyttttrtrtrrrrreeeeeee44444433333233220999999888888777776666655555;;;;----===***@++X+X+X               ",
"               whjjkklzzzxxxcccccvvvvvvbvbbbbbbbnnnnnmnmmnmmmmMMmMmMMMMMNMNNMNNNNNNNNNBNBBNBBBBBBBBVBVBVVVVVVVVVVVVVCVVVCVVCVCVCCVCCVCCVCCCCCCCCCCCCCCCCCCCCCCCCCCCCCCCCCCCCCCCCCCCCCCCCCCCCCCCCCCCCCCCCCCCCCCCCCCCCCCCCVCCCCCCCVCVCVCCVCVCVVVCVVVVVCVVVCVVVVVVBVVBVVBVBVBVBVBBVBBBBBBBBBNBBNBNBNNBNBNNNNNNNMNNNMNMMNMMNMMMMMmMMmmMmmMmmmmmmmmnmnnnnmnnnnnnnbdsdssssssasasasaaaaapapapappppppppipiipiiuiuiuuuuuuyuyyyyyytyttttttrrrrrrerereee4e444433433332322200909998988777776766655655;5;;;-;--===***@@++X++X+               ",
"               qhjjkklllzzxxxccccvcvvvvvbvbbbnbnnbnnnnmnmmmmmmmmmmMMMMMMMMMMNMNNNNNNBNBNBNBBBBBBBVBBVBVBVBVBVVVVVVVVVVCVVCCVCVCVCCVCCVCCCVCCCCCCCCCCCCCCCCCCCCCCCCCCCCCCCCCCCCCCCCCCCCCCCCCCCCCCCCCCCCCCCCCCCCCCCCCCVCCCCCCVCVCCVCCCVCVCVCVVCCVVCVCVVVVVVVVVVVVVBVVVBVVVBVBVBBBBBBBBBBBBBBNBBNBNNBNNNNNNNNMNNNMNNMMNMNMMMMMMMMmMMMmMmmmmmmmmmmmnmmmnnmnnnnnnndsdsdsssssssasaaaaaaaaaappapppppipipiiiiiiiiuiuuuyuyuyyyyytytttttrtttrrrrrreeeeee4e444443333332220909999988888877767666665555;;;;-----===**@@++X+X+X               ",
"                hhjkkklzzzxxcxccvcvvvvvbvbbbbbbnbnnnnnnmnmmmmmMmMMMmMMMMMNMNNNNNNNNNNNBNBBBNBBBBBBBVBVBVVBVVVVVVVVVVCVVVCVVCVCVCVCCCVCCCCCCCCCCCCCCCCCCCCCCCCCCCCCCCCCCCCCCCCCCCCCCCCCCCCCCCCCCCCCCCCCCCCCCCCCCCCCCCCCCCCCCCCCCCCVCCCVCVCCVCVVVCVVVVCVVVVVVVVVVVVVBVVBVBVBVBBVBBBBBBBBBBNBBBNBNBBNNBNNBNNNNNNMNMNMNMMMMMMMMMMMMMmMMmMmMmmMmmmnmmnmnnmnnnnnnbbdsdsssssssassasaasaaapapapppppppppiiiiiiiuiuuuuuuuuyuyyyytytyttttttrrrrrrreereee4wh444434333232320009999898888777776666655555;5;;-;--===***@@+X+X+X                ",
"                hhjjkkllzzxxxcccccvcvvvvbvbbbbbbnnnnnnmnmnmmmmmMmmMMMMMMMMNMMNMNNNNNBNNBNNBBBBBBBBVBBVBVBVVVVVVVVVVVVCVCVVCVCVCVCCVCCCVCCCCCCCCCCCCCCCCCCCCCCCCCCCCCCCCCCCCCCCCCCCCCCCCCCCCCCCCCCCCCCCCCCCCCCCCCCCCCCCVCCCCCCVCVCCVCVCCVCVCVCCVVCVCVVVCVVVVVVVVVVVVVBVVBVBBVBBVBBBBBBBBBBBBNBBNBNNBNNNNNNNNNNNNMNMNNMNMMMMMmMMmMMmMmMmmmmmmmmmmnmnmnnnnnnnnnndsdsdssssssasasaaaaaaapapapappppippipiiiiiuiiuuuuuyuyyyyyyytytttttrtrtrrrereeeeeeew444343333332200090999988888787777666565555;;;;----===**@@+++X+X+                ",
"                qhjjkkllzzzxxxcccvcvvvvbvbbbbbnbnbnnnnmnmmmmmmmmMmMmMMMMMMMNNMNNNNNNNNBNBBNBBBBBBBBBVBVBVBVBVBVVVVVVVVVVCVCVCVCVCVCCCCCCCVCCCCCCCCCCCCCCCCCCCCCCCCCCCCCCCCCCCCCCCCCCCCCCCCCCCCCCCCCCCCCCCCCCCCCCCCCCCCCCCCVCCCCCCVCCCVCVCVCVCVCVVVCVVCVVVVVVVVVVVBVBVVBVBVVBBVBBBVBBBBBBBNBBNBBNNBNNBNNNNNNNMNNNMNMMNMMMNMMMMMMMmMmMmmMmmmmmmmmmnmmnmnnnnnnnbsdsssssssassasaaaaaapaapappppppppipiiiiiiiiuuuiuuuuyuyyyyytytttttttrrrrrrrereee4e4444443333322200090999989888787776666665555;5;;;-;-===*=*@@@X+X+X+                ",
"                 hhjkklllzzxxxccvcvcvvvvvbvbbbbnbnnnnnnmnmnmmmMmMmMmMMMMMMNMMNNNNNNNBNBNBNBBBBBBVBBVBBBVBVVVVVVVVVCVVCVCVVVCVCVCCCCVCVCVCCCCCCCCCCCCCCCCCCCCCCCCCCCCCCCCCCCCCCCCCCCCCCCCCCCCCCCCCCCCCCCCCCCCCCCCCCCCCCCCCCCCVCCVCCCVCCVCCVCVCVVCVCVVVVVVVVVVVVVBVVVVVBVVVBBVBBBVBBBBBBNBBBBNBBNBBNBNNNNNNNNNNMNMNNNMMNMMMMMMMMmMMmMmMmmMmmmmmmnmmnmnnnnnnnbnddddsdsssssssasasaaaaaaaappappppippipiiiiiiuiiuuuuuyuyuyyyyyytytttrtrtrrrrereeeee4we4443443333300000099999888887777776665655;5;;;;----===**@@+X+X+X                 ",
"                 hhjjkklzzzxxcxcccvvvvvvbvbbbbbbnbnnnnnnmnmmmmmmmMmMMMMMMNMMNNMNNNNNNNNBNBNBBBBBBBBBVBVVVBVVVVVVVVVVVVVVVCVCVCCVVCVCCCCCCCCVCCCCCCCCCCCCCCCCCCCCCCCCCCCCCCCCCCCCCCCCCCCCCCCCCCCCCCCCCCCCCCCCCCCCCCCCCCCCCCCCCCCCCVCVCVCVCVCVVCCVVVCVCVCVVVVVVVVVVVBVVVBVBVVBBVBBBBBBBBBBBBBBNBNBNNBNNNNNNNNNNNNNMMNMNMMMMMMMMmMMmMMmmMmmmmmmmmmmnmnmnmnnnnnnsdssdssssssasasaaaaaaapapaapppppppipipiiiiuiuuuuuuyuyuyyyytytytttttrtrrrrrrereeeee4444443333323000099099898888787776666656555;;;;-;--===***@@++X+X+                 ",
"                 qhjjkkllzzzxxcccvccvvvvvbvbbbbnbnbnnnmnnmmmmmmMmmMMmMMMMMNMNMNMNNNNNBNNBNBBNBBBBBVBBVBBVVBVBVVVVVVVCVCVCVVCVVCCVCCVCVCCVCCCCCCCCCCCCCCCCCCCCCCCCCCCCCCCCCCCCCCCCCCCCCCCCCCCCCCCCCCCCCCCCCCCCCCCCCCCCCCCVCCCCVCVCCCCVCCCVCVCCVVVCVVVVVVVCVVVVVVVVVVVBVBVVBBBVBVBVBBBBBBBBBNBBNBNBNNNBNNNNNNMNNMNNMNMMMNMMMMMMMMmMMmMMmmMmmmmmmnmmnmnnnnnnnnnsdsdsssssssssasasaaaaaaaapppapppppppiiiiuiiiiuiuuuuuuyyyyyytyttttrttrtrrrrereeeee4e444434333330q000099999898888777676666655555;;;;----==**@@++X+X+X                 ",
"                  hhjkkllzzxxxxccccvvvvvbvbbbbbbnnnnnnnnmmnmmmmmmMMmMMMMMMMMNMNNNNNNNNBNBBNBBBBBBBBBVBBVBVVBVVVVVVVVVVVVCVCVCVCVCCVCCCCVCCCCCCCCCCCCCCCCCCCCCCCCCCCCCCCCCCCCCCCCCCCCCCCCCCCCCCCCCCCCCCCCCCCCCCCCCCCCCCCCCCCCVCCCCVCVCCVVCCVCVVCCVCVCVVVVVVVVVVVVVVVVVVVBVBVVBBBBBBBVBBBBBNBBNBNBNBNBNNNBNNNNNMNNMNMNMMMMMMMMMMMMMmMmmmMmmmmmmmmmnmnmnmnnnnndddssdssdssasasasaaaaapapapappppppiipipiiiiuiuiuuuuyuyyuyyyyyttyttttrtrrrrrreeeeee44444343333220000009999988888777776766555555;;;;----===**@@+++X+X                  ",
"                  hhjkkkllzzxxxccccvcvvvvvbvbbbbbbbnnnnmnnmmmmmMmMmMMmMMMMMMNMNMNNNNNNNBNNBBNBBBBBBBBVBVBVBVVVVVVVVVVVCVVVVCVCVCVCCVCVCCCCCVCCCCCCCCCCCCCCCCCCCCCCCCCCCCCCCCCCCCCCCCCCCCCCCCCCCCCCCCCCCCCCCCCCCCCCCCCCCCCCCCCCCVCCCCVCCCVCVCVCVVCVVVCVCVVVVVVVVVVBVBVBVVBVBBVBVBVBBBBBBNBBBBBBBBNBNNBNNNNNNNNNMNNMNMNMNMMMMmMMmMmMmMmMmmmmmmmmnmmnmnnnnnnnddsddsdssssssssasaaaaaaaaapapappppipppiiiiiuiuiuuuuuuyuyyyyytyytttttrtrtrrrrerreee4ee44443433330qq000909998998878777766666655555;;;;---==***@@+XX+X+                  ",
"                   hjjklllzzzxxcccvcvvvvbvbbbbbnbnnnnnnnnmmnmmmmmmMmMMMMMMNMMNNNNNNNNBNNBBNBBBNBBBBBVBBVBVVVBVBVVVVVVVVVCVCVVCVCCVCCCCCVCCCCCCCCCCCCCCCCCCCCCCCCCCCCCCCCCCCCCCCCCCCCCCCCCCCCCCCCCCCCCCCCCCCCCCCCCCCCCCCCCCVCCCCCCVCVCCVCVCCVCVCVVVCVVVVVVVCVVVVVVVVVVBVBVBVVBVBBBBBBBBBBBBNBNNBNBNNBNNNNNNNNNNNMNMNMMMMMMMMMMMMmMMmMmmMmmMmmmmmmnmnmnmnnnndddsdsssssssasasaasaaaapapapapppppppiiipiiiiiuiuiuuuuuyuyyyyyttytttttrrrrrrereeeeee4444443433qqq000009099998888877777666665555;;;;;---====**@@+++X+                   ",
"                   hhjkklllzxxxxcccvcvvvvvvvbbbbnbnbnnnnmnmmmmmmMmmMmMMMMMMMNMNMMNNNNNNNNBNBNBBBBVBBBVBBVBVBVVVVVVVVVCVVCVVVCVCVCVCVCVCCVCCCCCCCCCCCCCCCCCCCCCCCCCCCCCCCCCCCCCCCCCCCCCCCCCCCCCCCCCCCCCCCCCCCCCCCCCCCCCCCCCCCCCCVCCVCCCVCCVVCVCVCCVVCVCVCVVVVVVVBVVVBVVBVVBVBVBBBVBBBBBBBBBBBBNBNBNBNNBNNNNNNNMNNMNMNMNMNMMMMMmMMmMmMmMmmmmmmmmnmmnmnnnnnnndsddsdsdssssssssasaaaaaaaapapppppppippiiiiiiuiuuuuuuuyuyyyyyyytttttrtttrrrrrereeee4ee4444q333q0q00000099998988888777676656655555;;-;--===**@@++XX+X                   ",
"                   qhjjkklzzzxxcccccvvvvvbbbbbbbbnbnnnnmnmnmmmmmmmMMMMmMMMMNMNMNNNNNNNNBNBNBBBBBBBBBBBVVBVBVVBVVVVVVVVVVVCVCVCVVCVCCVCCCCCCVCCCCCCCCCCCCCCCCCCCCCCCCCCCCCCCCCCCCCCCCCCCCCCCCCCCCCCCCCCCCCCCCCCCCCCCCCCCCCCCCCVCCCCCCVCCVCCCVVCVVVCVVVVVVVVVVVVVVVVBVVVVBVVBVBBVBBBBVBBBBBNBBNBBNNBNNNNNNNNNNNNNMNMNMNMMMMMMMMMMMMmMmMmmMmmmmmmmmnmnmnnnnnndddsdsdsssssasasaaaaaaaapaappappppppiipiiiiiiuuiuuuuyuyyuyyytytttttttrrrrrrrereeeee44wwwwqwqqqq0q00099999988888777777666665555;;;;;---==***@@++X+X+                   ",
"                    hjjkkllzzxxxxcccvcvvvvvbvbbbbbnbnnnnnnmnmmmmMmMmmMMMMMMMMMNMNNNNNNBNNBNBBNBBBBBBVBBBVBVBVVVVVVVCVVVCVVCVVCVCVCVCCCVCVCCCCCCCCCCCCCCCCCCCCCCCCCCCCCCCCCCCCCCCCCCCCCCCCCCCCCCCCCCCCCCCCCCCCCCCCCCCCCCCCCVCCCCCVCCVCVCCVVCCVVCCVVCVCVVCVVVVVVVVVVVVBVBVVBVBBVBBVBBBBBBBBBNBBBNBBNNBNBNNNNNNNNNNNNMNMMMMMMMMMMMmMmMmmMmmmmmmmmnmmnmnmnnnnnddsddssssssssssasasaaaaaappapppppppippiiiiiuiiuuuuuuuyuyyyyytytyttttrtrtrrrereeeee4e4wwqwqqqqq0q0000009999998888877767666565555;;;----===**@@+X+X+                    ",
"                    hjjkklllzzxxccccvvvvvvvbvbbbbnnnnnnnmnmmmmmmmmmMMmMMMMMMNNMNNMNNNNNNBNBNBBBNBBBBBBVBVVVVVVVVVVVVVVCVVCVVCVCVCVCCVCCCCCCCCCVCCCCCCCCCCCCCCCCCCCCCCCCCCCCCCCCCCCCCCCCCCCCCCCCCCCCCCCCCCCCCCCCCCCCCCCCCCCCCCCVCCCVCCCVCCVCVCVCVVCVVVVVVVVCVVVVVVVVVVVVBVBVBVBVBBBBBBBBBBBBBNNBNNBNBNNNNNNNNNMNMMNMNMNMMNMMMMMmMMMmMmmMmmmmmmmmmnmnnnnmnnndddssdsssssssassasaaaaapaaapapppppipiiipiiiiiuiuuuuyuyyuyyyyytyttttrtrrrrrrreeree4ewwwwwwqqqqqq0000009999888887777776666655555;;;;;--===***@++++X+                    ",
"                    qhjjkklzzzxxxcccccvvvbvvbbbnbbbnbnnnnmnnnmmmmmMmmMMMMMNMMMNMNNNNNNNNNBNBBNBBBBBBVBBVBBVBBVBVVVVVVVVVVVCVVCVCVCVCCCVCVCVCCCCCCCCCCCCCCCCCCCCCCCCCCCCCCCCCCCCCCCCCCCCCCCCCCCCCCCCCCCCCCCCCCCCCCCCCCCCCCCCCCCCCVCCVCVCCVCVCVCVCVVCVCVCVVVVVVVVBVVVBVBVBVBVBVBBVBVBBBBBNBBBNBBBBNBNNNBNNNNNMNNNNNMNMNMMMMMMmMMMMMmMmMmmmmmmmmmnmmnmnmnnnndsdsddssdssssssasaaaaaaaaappappppppppppiiiiiiuiuuuuuuuuyyyytytyttttttrttrrrerreeehhhhwwwwwwqqqq0qq0090099999888887777766665655;5;;;----==**@@++XX+X                    ",
"                     hjjkkllzzxxxcccvvvvvvvbbvbbbbnbnnnnnnmmmmmmmMmmMMmMMMMMMNMNNMNNNNNBNNBNNBBBBBBBBBVBBVBVVBVVVVVVVVVVCVVVCVCVCVCCVCVCCCCCCCCCCCCCCCCCCCCCCCCCCCCCCCCCCCCCCCCCCCCCCCCCCCCCCCCCCCCCCCCCCCCCCCCCCCCCCCCCCCVCCCVCCCCCCVCVCVCCVVCVCVVVVVVVCVVVVVVVVVVVVVVVBVBVBVBBBBBBBBBBBBBBNBNBNBNBNNNNNNNNNNMNMNMNMMNMMMMMMMmMmMmMmMmMmmmmmmmmnmnmnnnnnddddssdssssssassasaaaaaaapaapappppppiiiiiiiiuiuiuuuuuyyuyyyyyyttytttrtrrrrrrreehhhwwwwwwwqqqqqq0q000099099889888777766766655555;;;-;--==*=*@@++X+X                     ",
"                     qhjkkllzzzxxxcccccvvvbvvbbbbbbnbnnnnnnmnmmmmmmMmMmMMMMMNMMNMNNNNNNNBNNBBBNBBBBBBBBBVBVBVVVBVVVVVVVVVVCVVCVCVCCVCVCCCCVCVCCCCCCCCCCCCCCCCCCCCCCCCCCCCCCCCCCCCCCCCCCCCCCCCCCCCCCCCCCCCCCCCCCCCCCCCCCCCCCCCCCCCVCVCCCCCVCVCCVVCVCVCVCVVVVVVVVVVVVVBVBVVBVVBBVBVBVBBBBBBBNBBBNBNNBNNBNNNNNNNNNNNMNMMMMMMMMMMMMMMmMmMmmmmmmmmmnmmnmnnnnnndddsddsdsssssssasaasaaaaaapappapppipppipiiiiiiiuiuuuuuuyuyyytyyttttrttrtrrrrerhhhhhhhwwwwqwqqqqq000000999998888887777666656555;5;;;---==***@++X+X+                     ",
"                      hjjkkllzzxxxcccvvvvvvvbbbbbnbnnnnnnmnnmmmmmmMmMmMMMMMMMMNMNMNNNNNNNBNBNBBBNBBBBVBVBVBVVBVVVVVVVVVCVVVVCVCVVCVCCCCVCVCCCCCCVCCCCCCCCCCCCCCCCCCCCCCCCCCCCCCCCCCCCCCCCCCCCCCCCCCCCCCCCCCCCCCCCCCCCCCCCCCCVCCCCCCCVCVCVCVCVVCVCVVCVVVVVVVVVVVVVBVBVVBVBVBBVBBVBBBBBBBBBBBBNNBNBNNBNNNNNNNNNMNMNMNMNMMMMMMMMmMmMMmMmmMmmmmmmmmnmnmnmnnnndsddsssssdssssasasaaaaapapappappppppipiiiiiuiuuiuuuuyyuyyyyyyttttttttrrrrrrrehhhhhwwwwwwqwqqqq00q00009099989888777776766656555;;;;---===**@@+++X+                      ",
"                      hjjkkllzzzxxccccccvvvbvvbbbbnbnbnnnnnmmnmmmmmmMmMMmMMMMMMNMNNNNNNNNNNBNBNBBBBBBBBBBVBVBVVVVVVVVVVVVCVCVVVCVCVCVVCVCCCCCCCCCCCCCCCCCCCCCCCCCCCCCCCCCCCCCCCCCCCCCCCCCCCCCCCCCCCCCCCCCCCCCCCCCCCCCCCCVCCCCCVCVCVCCVCVCVCCVCVCVVCVVVCVVVVVVVVVVVVVVVVVVBVVBVBBBVBBBBBBBBBNBBBBBNBNNBNNNNNMNNNNMNMNMNMMMMMMMMMMMmMmMmmmmmmmmnmmmnnmnnnnddddsdddssssssssasasaaaaaaaapapppppippipiiiiiuiuuuuuuuuyuyyyyyytyttttrtrtrrrhjjhhhhhwhwwwwqwqqqqq0000099999988878877776656655555;;;;--===**@@++X+X                      ",
"                       hjkkllzzxxxxccvvvvvvvbbvbbbbbnbnnnmnmnmmmmmmMmMmMMMMMMNMMNNMNNNNNBNBNBNBBBBBBBBVBVBVBVBVBVBVVVVVVVVVVVCCVVCVCVCCCCVCVCCVCCCCCCCCCCCCCCCCCCCCCCCCCCCCCCCCCCCCCCCCCCCCCCCCCCCCCCCCCCCCCCCCCCCCCCCCCCCCCCCCCCCCCVCCCVCVCVCVCVCVVCVVVVCVVVVVVVVVBVBVBVBVBBBVBBBBBVBBBBBBBNBNNNBNBNNNNNNNNNNMNNMNMMMMNMMMMMmMmMmMmMmMmmMmmmmmnmnmnnnmnddsddsssdsssssassasaaaaaapapappppppppipiipiiiiuiuuuuuyuyyyyyyttyttttttrtrrrjjhhhhhwhwwwwwqwqqqq00q0009099988888877777666665555;5;;;---==***@@+X+X                       ",
"                       hjjkkllzzxxxccccvvvvvvvbbbbnbbnnnnnnnmmnmmMmmmmMmMMMMMMNMNMNNNNNNNNBNNBBBNBBBBBBBBVBVBVBVVVVVVVVVVVCVCVVVCVCVCVCVCCCCVCCCCCCCCCCCCCCCCCCCCCCCCCCCCCCCCCCCCCCCCCCCCCCCCCCCCCCCCCCCCCCCCCCCCCCCCCCCCCCCCVCCVCVCCCVCCVCVCVCVVVCVVVCVVVVVVVVBVVVVVVBVBVBVBVBBVBBBBBBBBBNBBNBBBNBNNBNNNNNNNNNNMNMNMNMMMMMMMMMMMmMmMmmmmmmmmmmmnmnmnnnnddddsddsssssassasaaaaaaaaaaaapapppppipipiiiiuiiuuuuuuuyuyyyytyyttttrtrtrrjjjhjjhhhhwhwwwwwqqqqqqq000009999998888877767766565555;;;;--====*@@+X+X+                       ",
"                       qhjkkklzzzxxccccvcvvbvbbbbbbbnnbnnnnmnmmmmmmmMMmMMmMMMMMMNMNMNNNNNBNNBNBNBBBBBBVBBBBVVVVVBVVVVVVVCVVVVVCCVCVCCVCCVCVCCCCCCCCCCCCCCCCCCCCCCCCCCCCCCCCCCCCCCCCCCCCCCCCCCCCCCCCCCCCCCCCCCCCCCCCCCCCCCCVCCCCCCCCCVCVCVCCVVCVCVCVVCVVVVVVVVVVVVVVVVVVVVBVBVBBVBBBBBBBBBBBBNBBNNNNNBNNNNNNNNMNMNMNMNMMMMMMMMmMmMMmMmmMmmmmmmnmnmnnnnnnnddsdsdssdsssssssasasaaaapapppapppppipipiiiiiiiuiuuuuuyuyuyyyyytytttttrtrrjjjjhhhhhhwhwwwqqqwqq000000090999988887877776666655555;;;---===**@@++X+X                       ",
"                        hjjklllzzxxxccccvvvvvvbvbbbnbbnnnnnnmnnmmmmmmmMmMMMMMMNMMNMNNNNNNNNBNBNBBBBBBBBBVBVBBBVBVVVVVVVVVVVCVCVVVCVCVCVCVCCCCVCCCCCCCCCCCCCCCCCCCCCCCCCCCCCCCCCCCCCCCCCCCCCCCCCCCCCCCCCCCCCCCCCCCCCCCCCCCCCCCCVCVCVCCVCCCCVCCVVCVVCVVVCVVCVVVVVVVVBVBVBVBVBVBVBBBVBBBBBBBBBBBBNBBBNBNNNNNNNMNNNNNMNMMMNMMMMMMMMMmMmmMmmMmmmnmmmmnmmnmnndsddddsdssssssasasasaaaaaapaappppppppppiiiiiiiuiuiuuuuuuyyyyyytyttttrttrrjjjjhjhhhhwhwwwwwwqqqqqqq0000099998988887777766656565;5;;-;--==***@++++X                        ",
"                        hjjkkllzzxxxcccvvvvvbvbbbbbbbnnnnnnnnmmmmmmMmMmMmMMMMMMMNMNNMNNNNNNNBNBNBNBBBBBBBBVBVVBVVBVVVVVVVVCVVVVCCVCVCVCCCCVCCCCVCCCVCCCCCCCCCCCCCCCCCCCCCCCCCCCCCCCCCCCCCCCCCCCCCCCCCCCCCCCCCCCCCCCCCCCCCCCCCCCCCCCCVCCVVCVCVVCVVCVVCVVVVVVVVVVVVVVVVVBVBVBVBBVBBBBBBBBBBBNBNNBNNBNNNNBNNNNNNNMMNNMNMMMMMMMMMmMmMMmMmmmmmmmmmmnmnmnnnnnddddssdssdsssssssaaaaaaaaaapapappppipiipiiiiuiiuuuuuuyyuyuyyytytttttttrtrjjjhjhhhhhhwwwwwqwqqqq00000099999989888787776666656555;5;;---==**@@@X+X+                        ",
"                         hjkkllzzzxxxccccvvvvvvvbbbbbnbnnnnnmnmnmmmmmmMmMMMMMMMMNMNMNNNNNNBNNBNBBBBBBBBBVBBBVBVBVVVVVVVVVVVVVCVVVCVCVCCVVCCVCVCCCCCCCCCCCCCCCCCCCCCCCCCCCCCCCCCCCCCCCCCCCCCCCCCCCCCCCCCCCCCCCCCCCCCCCCCCVCCCCVCCVCVCCVCCVCVCVCVCVVCVVVVCVVVVVVVBVVBVBVVVVBVBVBBVBVBBBBBBNBBNBBBBBNBNBNNNNNNNMNNNNMNMNMNMMMMMMMMMMmMmmMmMmmmmmmmmmnnmnndddsdddsdssssssasassasaaaaapapappppppppipiiiiiuiuiuuuuuuuyyyyyyytyttttrtrrjjjjhjhhhhwhwwwwwqqqqqq0q00000999988887877767666565555;;;;--===**@@++X+                         ",
"                         hjjkkllzzxxccccvcvvvbbbbbbbnbnbnnnmnnmmmmmmmMmMmMmMMMMMMNMNNMNNNNNNBNBNBNBBBBBBBBVVBVBVBVBVVVVVVVVVCVVCVVCVVCVCCVCCCCCVCCCCCCCCCCCCCCCCCCCCCCCCCCCCCCCCCCCCCCCCCCCCCCCCCCCCCCCCCCCCCCCCCCCCCCCCCCCCCCCCCCCVCCCVCVCCVCVCVCVVCVVVVVVVVVVVVVVVVBVBVBVVBVBBBBBBBBBBBBBBNBNNNNNBNNNNNNNNNNMNMNMMMNMMMMMMMmMmMmMmMmmmmmmmmnnmnmnnmndddddssdsssssssssasaaaaaapaapappapppipipiiiiiiiuiuuuuuyuyyyyytyttttttrtrrjjjjhjhhhhhwhwwwwqwqqq0q0000009999989888777776666655555;;;---===**@++X+X                         ",
"                          hjkkllzzzxxccccvvvvvvvvbbbbbbnnnnnnmnnmmmmmmmMmMMMMMMNMMNMNNNNNNBNNBNBNBBBBBBBVBBBBVBVVVVVVVVVVVVVVCVVVVCVCVCCVCCVCVCCCVCCCCCCCCCCCCCCCCCCCCCCCCCCCCCCCCCCCCCCCCCCCCCCCCCCCCCCCCCCCCCCCCCCCCCCCCCCVCVCVCVCCVCVCCVVCVCVVVCVVVVVCVVVVVVVVVVBVVBVBVBBVBBVBBBBBBBBBBNBBBNBBBNNNNNNNNNNNNNMNMNNMMMMMMMMMMmMMmMmmMmmmmmnmmmnmnmnnnddddddsdsdssssssasasaaaaaaapapappppppipiipiiiiuiuuuuuuuyuyyyyyytytttttrttjjjjjhjhhhwhwwwwqwqqqqq0q0000909989888878777676666655;5;;;---==**@@@X+X                          ",
"                          hjjkklzzxxxxccvcvvvvbbbbbbbnnbnnnnnnmmnmmmmmmMmMmMMMMMMNMNMNNNNNNNBNNBBNBBBBBBBBVBVBVBBVBVVVVVVVVVVVVCVCVCVCVVCCVCCCCCCCCCVCCCCCCCCCCCCCCCCCCCCCCCCCCCCCCCCCCCCCCCCCCCCCCCCCCCCCCCCCCCCCCCCCCCCCCCCCCCCCCVCCVCCVCVCVCVCVVVCVCVVVVVVVVVVVVVVBVVBVVBBVBBBVBBBBBBBNBBNNBNNNBNBNNBNNNNMNMNMNMMNMMMMMMMmMMMmMmMmmmMmmmmmmnmnmnnnddddsdsdsdssssssssaaasaaaapaapappppppppipiiiiiuiuiuuuuyuyyyuyytytttttttrtrjjjhjhhhhhhwwwwwwqwqqq0q0q0090999989888877777666655555;5;-;-===**@@+X+X                          ",
"                           jjkkllzzzxxcccvcvvvvvvbbbbbbnbnnnmnnnmmmmmMmmMmMMMMMMMMNMNNMNNNNNNBNNNBBNBBBBBBBBBVBVBVVVBVVVVVVVVCVVVVVVCVCVCVCVCVCVCVCCCCCCCCCCCCCCCCCCCCCCCCCCCCCCCCCCCCCCCCCCCCCCCCCCCCCCCCCCCCCCCCCCCCCCCVCCVCVCCVCCVCVCVCCVVCVVCVCVVVVVVVVVVVVVVVVBVVVBVBVBVBBVBBBBBBBNBBBBBBNBNBNNNNNNNNMNNNNNNMNMMNMMMMMMMMMmMmMmmMmmmmmmnmmmnnmnndddddsddsssssssasassaaaaaaaapapppppppipipiiiiiiiuiuuuuuyuuyyyytytyttttrtrjjjjjhjhhhhhwhwwwwqqqqqqq000009099998888787776766566555;;;----=***@+++X                     Z     ",
"                           hjkkkllzzxxxcccvvvvvbbvbbbbnbnnnnnnmmnmmmmmmMmMMmMMMMMMMNMMNNNNNNNNBBBNBBBBBBBBVBVBVBVVBVVVVVVVVVVVVCVCVCVCVCVCCCVCCCCCCCCCCCCCCCCCCCCCCCCCCCCCCCCCCCCCCCCCCCCCCCCCCCCCCCCCCCCCCCCCCCCCCCCCCVCCCCCCCCVCCVCCCVCVVCVCVCVVVVCVCVVVVVVVVVVVBVVBVVBVBVBBVBBBBBBBBBBBNBNBNBNBNBNNNNNNNNNMNMMNMMNMMMMMMMMmMmMmMmMmmmmmmmmmnmnmnndddddddssdsdsssssssaasaaaaaapappappppppipiiiiiiuiuuuuuuuuyyyyyyytyttttrtrtjjjjjhjhhhhwhwwwwqwqqqq00000009999898887877767666655555;;;---==**@@++X+                           ",
"                           qjjkkllzzxxxcccccvvvvvbbbbbbbnbnnnnnnmnmmmmmmMmmMMMMMMMNMNNNMNNNNNNNNBNBBNBBBBBBBBBVBVBVVVBVVVVVVCVVVVCVVCVCVCVVCCVCVCVCVCCCCCCCCCCCCCCCCCCCCCCCCCCCCCCCCCCCCCCCCCCCCCCCCCCCCCCCCCCCCCCCCCCCCCCCVCCVCCVCCCVCVCCVCVCVVCVCVVVVVCVVVVVVVBVVVBVVBVBVBVBBBVBBBBBBBBBBNBBBNBNNNBNNNNNNNNNMNNMNMMMMMMMMmMMMMMmMmmmmmmmmmmnmnmnmnddddddsddsssssssasassaaaaapaaapapappppippipiiiiiuiuuuuuyyuyyyyytyttttttrtrjjjjhjhhhhwhwwwwwwqqqq0q0q000909999888887777766665655;5;;;--===**@@+X+X                           ",
"                            hjkkllzzzxcxccvvvvvbvbvbbbnbnnnnnnmnmmmmmmmMmmMMmMMMMNMMMMNNNNNNNBNNNBBNBBBBBBBBVBBVBVBVVVVBVVVVVVVCVVVCVVCVCCCVCCCVCCCCCVCCCVCCCCCCCCCCCCCCCCCCCCCCCCCCCCCCCCCCCCCCCCCCCCCCCCCCCCCCCCCCCCCCCCCCCCCCCCVCVCVCVCVCVVCVVVCVVCVVVVVVVVVVVVVVVBVBVBVBBVBBBBBBBBBBNBBBNBNBNNBNNNNNNNNMNNNMNMMNMNMMMMMMMmMmmMmmMmmMmmmmmmnmnnndddddsddssdssssssssasaaasaaaappappppppipiipiiiiuiuiuuuuuuuyyyyyyyttytttrtrjkjjjjhhhhhhwwhwwqqwqqqqq000090999989888787776766665555;;;---==**@@++X+                            ",
"                            qjjkkllzzxxxcccvcvvvbvbbbbbnbbnnnnnnmnnmmmmmMmMmMMMMMMNMNNMNNNNNNNBNBNNBBNBBBBBBBVBBVBVBVBVVVVVVVVVVVCVVVCVCVCVCVCVCCCCVCCCCCCCCCCCCCCCCCCCCCCCCCCCCCCCCCCCCCCCCCCCCCCCCCCCCCCCCCCCCCCCCCCCVCCVCVCVCVCCVCCCVCVCVCVCVCVVVVVVVVVVVVVBVVBVBVVBVBVBVBBVBBBBBBBNBBBNBNBNBNBNNBNNNNNNNMNMNMNNMMMMMMMMMMMmMMmMmMmmmmmmmmnmmnmnddddddsddssdsssssssaasaaaaaapaapappppppppiiiiiiiuiuiuuuyuyyuyyyytytttttttkjjjjhhjhhhwhhwwwqwwqqqqq0q00000999988888877776666655555;;;;--==**@@+X+X                            ",
"                             hjkkllzzzxxccccvvvvvbvbbbbbbnbnnnnmnmmmmmmmmmMmMMMMMMMMMNMNMNNNNNNNNBBNBBBBBBBBBBVBBVBVBVVVVVVVVVVVVVVCVVCVVCVCVCCVCVCCCVCVCCCCCCCCCCCCCCCCCCCCCCCCCCCCCCCCCCCCCCCCCCCCCCCCCCCCCCCCCCCCCVCCCCCCCCCCVCCCVVCCVCVCVCVVVCVCVVVVVVVVVVVVVVVVBVVBVBBVBBBBVBBBBBBBBNBBBNBNNBNNNNNNNNNNNMNMNMMMNMMMMMMMmMMmMmmMmmmmmmmnmmnmnnndddddddssdssssssasasaaaaaaaaapapppppppipipiiiiiuiuuuuuuuuyuyyyytytttttrtjjjjjjjjhhhhhwwhwwwwqqqqq0000009909989888777777676656555;5;---===**@@++X                             ",
"                             wjjkkllzzxxxccvcvvvvvbvbbbbnbnnnnnnmnmnmmmmMmmMMmMMMMMNMNMNNNNNNNNNBNBNBBNBBBBBBBBVBVBVVBVBVVVVVVVVVCVVVCVVCVCVCVCCVCCVCCCCCCCCCCCCCCCCCCCCCCCCCCCCCCCCCCCCCCCCCCCCCCCCCCCCCCCCCCCCCCCCCCCCCVCCVCVCCCVCCVCVCVVCVVCVCVVVCVVVVVVVVVVVVVBVVBVVBVBBVBVBBBBBBBBBBBNBNBNBNNBNNNNNNNNMNNNNMMNMMNMMMMMMMmMMmMmmmMmmmmmmnmnmnmnddddddsddssdsssssssasasaaaaaapapappppppipiiiiiiiiiuuuuuyuyyyyytytytttttjkkjjjjhjhhhhhhwwwwwqwqqq0qq00000999999888878767666665555;;;;--==**@@++X+                             ",
"                              hjkkllzzxxxccccvvvvbvbbbbbbnbnnnnnnmnmmmmmmmMmmMMMMMMMMMNMNMNNNNNNNBNBNBBBBBBBBVBBBVBVBVVVVBVVVVVVVVVCVVCVCVVCVCVCCVCCCVCCVCCCCCCCCCCCCCCCCCCCCCCCCCCCCCCCCCCCCCCCCCCCCCCCCCCCCCCCCCCVCCCCVCCCCCCVCVCVCCVCVCCVVCVVVVCVVVVVCVVVVVVVBVVVBVBVBVBVBBBBBBBBBBBBNBBNBNBNBNNNNNNNNNNNNMMNMNMMNMMMMMMmMMmMmMmMmmmmmmmmmnmnmndddddsddsdsdsssssasasaaaaaapapapapppppippiipiiiuiuuuiuuuuyuyyyyyytyttttkkjjjjjjhhhjhhwhwwwwqwqqqqq00q009099998888878777676665565;5;---===**@++X+                              ",
"                              wjjkkllzzxxxccvcvvvvvbvbbnbbnbnnnmnnnmnmmmMmmMMmMmMMMMNMMNMNNNNNBNNNBNBNBNBBBBBBBVBBVBVBVBVVVVVVVVCVVVVCVVVCCVCVCVCVCVCCCCCCCCCCCCCCCCCCCCCCCCCCCCCCCCCCCCCCCCCCCCCCCCCCCCCCCCCCCCCCCCCCCCCCCVCVCVCCCVCVCVCVVCVVCVCVVVVVVVVVVVVVBVVVVBVVVBVBVBVBVBBBBBBBNBBBNBBBNNBNNBNNNNNMNMNNNMNMNMMMMMMMMMMMmMmMmmmmmmmmmnmmnmnndddddddsdsssssssssasaasaaaaapaappappppppipiiiiiiiuiuuuuuyuyyyyytytttttkkjkjjjjhjjhhhhhwhwwwwqqqq0qq000009099898888877777666565555;;;--===*@@+++X                              ",
"                               jjkklllzzxxccccvvvvbbbbbbbnbnnnnnnmmnmmmmmmMmmMMMMMMMMMNMNNMNNNNNNNNBNBBBBBBBBBBBBVBVBVVBVVVVVVVVVVVCVVVCVVVCVCVCCCVCCVCVCCVCCCCCCCCCCCCCCCCCCCCCCCCCCCCCCCCCCCCCCCCCCCCCCCCCCCCCCCCCCCVCVCCCCCCCCVVCCVCVCVCVCVVVCVVCVVCVVVVVVVVVBVVVBVBBVBBVBBBBBVBBBBBBBBBNNBNBNNBNNNNNNNNNMNMNMNMMMMMMMMmMMmMmMmmMmmmmmmmmnmnmndddddddsdsdsdssssassasaaaaaaaappappppppipiiiiiiiuuuuiuuuyuyuyyyyytytttkkjjkjjjjjhhhhhwwhwwwwqwqqqq0000009099998888777776666665555;;;---==**@@++X                               ",
"                               qjjkklzzzxxxccvcvvvvvbvbbbbbnbnnnnnnmmnmmmmmmMmMmMMMMMMMMNMNNNNNNNNBNBNNBNBBBBBBBVBBVBVBVVVBVVVVVVVVVVCVVCVCVCVCVCVCCVCCCVCCCCCCCCCCCCCCCCCCCCCCCCCCCCCCCCCCCCCCCCCCCCCCCCCCCCCCVCCCVCCCCCCVCVCVCVCCCVCVCVCVCVVCVVVVVVVVVVVVVVVVVVVVBVBVVBVBBBBVBBBBBBBBBNBNBBNBNBNNNNNNNNNMNNNNMMMNMMMMMMMMmMMMmMmMmmmmmmmnmmnmnnfdddddddddssssssssassaasaaaaapaappppppppipipiiiiiiiuuuuuuuyyyyyytytttkjkjkjjjjhjhjhhhhhwwwwwwqqqqqq0q0090999989888887777766656555;;;--==***@+++X                               ",
"                                jjkkllzzzxxcccvvvvvvbvbbbnbnbnnnnnmnmmmmmmMmMmMmMMMMMNMNMNMNNNNNNBNNBNBBBBBBBBBBBBVBVBVBVVVVBVVVVVVVCVVCVVVCVCVCVCVCCVCVCCVCCCCCCCCCCCCCCCCCCCCCCCCCCCCCCCCCCCCCCCCCCCCCCCCCCCCCCCCCCVCCCCCCVCCVCCVVCVCVCVCVVCVCVCVCVVVVVVVVVVVBVBVBVVBBVBVBVBBBBBBBBBNBBNBBNBNNNNBNNNNNNNNNMMNMNMMMMNMMMMMMMmmMmmMmmMmmmmmmnmnmddddddsdsssdssssssssaasaaaaapaacvpapppppipipiiiiuuiuuuuuyuyuyyyyyytkttkkkkjjjjjjjhhhhhwwwwwwqqwqqq0q00000999998988877777666665655;;;---==**@@+X+                                ",
"                                 jjkkllzzxxxccccvvbvvbbbbbbbnbnnnnnnnmnmmmmmmmMMmMMMMMMNMMNNMNNNNNNNBNBNNBNBBBBBBBBBBVBVBVBVVVVVVVVVVVVVVCVCVVCVCVCVCCVCCCCCVCVCCCCCCCCCCCCCCCCCCCCCCCCCCCCCCCCCCCCCCCCCCCCCCCCCCCCCCCVCVCVCCCVCCVCCVCVCVCVVCVVVVVVVVVVVVVVVVBVVVVBVVBVVBVBBBVBBBBBBNBBBBBBNBNBNBNNNNNNNNNNMNMNMNMNMMMMMMmMMmMMmMmmmmmmmmmmnmmnnfddddddddddsdsssssassasaaaaaaapapappppppppiiiiiiiiuiuuuuuyuyuyyytykktkkkkjjkjjjjhjhhhhhhwwwwwqqqqqq0q00000999988887877767666655555;;---==**@@+X                                 ",
"                                 jjkkllzzxxxcccvcvvvbvvbbbbnnnnnnnnmmnmmmmmMmMmMMMMMMMMMMNMNNNNNNNNBNNBNBBBBBBBBBVBVBBVBVBVVVVVVVVVVVVCVVVVVCVVCVCVCVCCVCVCCCCCCVCCVCCCVCCCCCCCCCCCCCCCCCCCCCCCCCCCCCCCCCCCCCCCCCVCVCCCCCCVCVCVCVCVVCVCVCVVCVVCVVCVVVVVVVVVVVVVBVBVVBVBBVBBVBBBBBBBBBBBNBNNBNNBNNNBNNNNNNMNNNMNMMNMMMMMMMMMmMmMmMmMmmmmmmnmmnnmnddddddsdsssssssssssasaaaaaaaapapappppppiiipiiiiuiuiuuuuuyuyyyyyyytktkkkjjkjjjjjhjhhhhwhwwwwqwqqqq00q0000999999888887777766665655;;;---==**@@+X+ Z                               ",
"        Z                         jjklllzzxxxcccvvvvvbbbbbbbbbbnnnnnnmmnmmmmMmmmMmMMMMMNMNMNNMNNNNNNBNNBBNBBBBBBBBVBBVBVBVVBVBVVVVVVVVVCVCVCVVCVCVCVCVCVCCVCVCVCCVCCCCCCCCCCCCCCCCCCCCCCCCCCCCCCCCCCCCCCCCVCCCVCCCCCCCVCVCCCCVCCCVCCCVCVVCVVCVVCVVVCVVVVVVVVVVVVVVVBVBVBBVBBBBBBBBBBBNBBNBBNBNBNBNNNNNNNNNNMNNMNMMMMMMMMMMMMMMmMmmmMmmmmmmmnmmnndddddddsddsdsssssasasasaaaaaaaappappppipppiiiiiiiiuuuuuuuyuyyyyytlykkkkkkjkjjjjjhhhhhhwhwwwwqwqqqqq000090099989888787777666665555;;;--==**@@++                                  ",
"                                  jjkkllzzzxxccccvvvvvvbbbbnbnnbnnnmnmnmmmmmmmMmMMmMMMMMMMNMNNNNNNNNNNBNBBNBBBBBBBBBVBVBVBVVVVVBVVVVVVVVVVVVCVVCVCVCCVCVCVCCCCCCCCCVCCCCCCCCCCCCCCCCCCCCCCCCCCCCCCCCCCCCCCCCCCCCVCCVCCCCCVCVCCVCVCVVVCVCVVVCVVVVVVVVVVVVVVVVVBVBVBBVBVVBVBBVBBBVBBBBBBBBBBNBNBNNNNNNNNNNMNNNMMNMNMNMMMMMMmMmmMmMmMmmmmmmmnmnmnnmdddddsddsdsssssssssasaaaaaapapapapppppppiiipiiiuiuuiuuuuyuyyyyylktkkkkkjjkjjjjhhjhhhhwhwwwwqwqqqq00q0000999989888877777666655555;;---==***@+XX                                  ",
"                                   jjkkllzzxxxccccvvbvbvbbbbbbbnnnnnnnmmnmmmmmMmmMMMMMMMMNMNMNMNNNNNBNNBNNBBNBBBBBBBBBVBVBVBVBVVVVVVVVVVVVCVVCVVVCVCVCVCCCVCVCVCCVCCCCVCCCCCCCCCCCCCCCCCCCCCCCCCCCCVCCCVCCCCVCCCCVCCCVCVCCVCCVCVCVCCVVCVCVCVVVCVCVVVVVVVVVVBVVVVBVVBVBVBBBBBBBBBBBBBBBBNNBNBNNBNBNNNNNNNNMNMNNMNMMMMMMMmMMMMMmMmmmmmmmmnmmnmnmnnddddddsdsdsdsssssssasasaaaaaapapppppppipipiiiiiiuiuuuuuuuyuyyyllyklkkkjkkjjjjhjjhhhhhhwwwwwqwqqqqq00000909999988888777766666655;;;;--==**@+++                                   ",
"                                   hjkkllzzxxxcccvvvvvvbbbbbnbnnbnnnnmnmmmmmmmmmMmMmMMMMMMMNMNNNNNNNNNBNBBNBBBNBBBBBBBBBVBVVBVVVVVVVVVVVVCVVCVVCVCVCVCVCVCVCCVCCVCCVCVCCVCCVCCCVCCCVCCCCCCCCCCCCCCCCCCCCCCCCCCVCCCCVCCVCCVCCVCVCVCVCVCVVCVVVCVVVVVVVVVVVVVVVVBVBVVBVBVBBVBVBBVBBBBBBNBNBBBNBNBNNNNNNNNNNNNMNMMNMMNMMMMMMMmMmMmMmMmmmmmmmmmmnmnnndddddddsdsssssssasasaaaaaaaapapapppppppipiiiiiuiiuuuuuuyyuyyyylklkkkkkkjjkjjjjjhhhhhwwwhwwwqwqqq0q00000999998888877777676665555;;;--===**@@X+                                   ",
"                                    jjkkllzzxxxccccvvvvbvbbbbbbbnnnnnmnnmnmmMmmMmMmMMMMMNMMNMNMNMNNNNNNNNBNBNBBBBBBBBVBVBVBBVVBVBVVVVVVVVVVVVCVVCVVVCVCVCVCVCCVCCVCCCCCCCVCCCCCCCCCCCCCCCCCCCCCCCCCCCCCCCVCCVCCCCVCCVCCVCCVCVCCVCVCVCVCVVVCVVVCVVVVVVVVVVVVVVVVVVBVVBVBVBVBBBBBBBBBBBBBBNBNBNNNBNNNNNNNMNMNNNNMNMMMMMMMMMmMMmMmmmMmmmmmmnmnmnmnddddddsdsdsdssssssassasaaaaapaappappppipiipiiiiiiuiuuuuyuuyyyylklklkkkjkkjjjjjjhhjhhwhhwwwwwqqqqqq0q000009999988888877766666655;5;---==**@@+X                                    ",
"                                    wjkkklzzzxxcccvcvvbvbvbbbnbnnbnnnnnmnmmnmmmmMmMMmMMMMMMMMNMNNNNNNNNBNNBNBNBBBBBBBBBBBBVVBVVVVVBVVVVVVVVVVVVCVVCVCVVCVCCVCVCCVCCVCVCCCCCVCVCCCVCCCCCCCCCCCCCCCCCCCVCCCCCCCCVCCCCVCCVCCVCCVCVCVCVCVVVCVCVVCVVVVCVVVVVVVVVBVBVBVVBBVBBVBBBBBBBBBBBNBBNBBNBNBNBNNNNNNNNNNNMMMMMMMNMMMMMMMMMmMmMmmmmmmmmmmnmnnnndddddsddsdsssssssssaasaaaaapapapapppppppipiiiiiuuiuuuuuuuyyyylllklkkkkkjkjjjjjhjhhhhhwwhwwwqwqqq00q00009999988988777777666655555;;--==**@@+++                                    ",
"                                     jjklllzzxxxcccvvvvbvbbbbbbbbnnnnnmnmnmmmmmmmmMmMMMMMMNMNMNMNNNNNNNNNBNBNBBBBBBBBBBVBVBBVBBVBVVVVVVVVCVVVCVVVCVVVCVCVCVCVCCVCCCVCCCVCVCCCCCVCCCCCVCVCCCVCCCVCVCVCCCVCCVCVCCVCVCCVCCCVCCVCVCVCVVCVCVVCVVVVVVVVVVVVVVVVBVVVVBVBBVVBVBBBBVBBBBBBNBBBBBBNBNNBNNNNNNNNNNNNMNNNNMNMMMMMMMMmMmMmMmmMmmmmmmnmmnmnmddddddddsdssdsssssassaaaaaaaaaapappppppiipiiiiiiiiuuuuuuyuyllyllklkkkkkkkjkjjjjjhjhhhhhwwwwqwqqqqqq00009009999888888777676666555;;;--===*@@+X                                     ",
"                                      jjkklzzzxxccccvvvvvbvbbbnbnnbnnnnnmnmmmmmMmMmMMmMMMMMMMNMNNMNNNNNNBNNBBNBNBBBBBBVBBBVBVBVVBVVVVVVVVVVVVVVCVVVCVVCVCVCVCVCVCVCCCVCCVCCVCCCCCVCCVCCCCVCCCVCCCCCCCVCCCVCCCCCCVCCVCCVVCVCVCCVCVCVCVVVCVVCVCVVVVVVVVVVVVVVBVBVVVVBVBVBVBVBBBBBBBBBBNBNBNBNBNNBNNBNNNNMNMNMNMMMMMMMMMMMmMMmMmmMmmmmmmmmmnmnmnnddddddsdsdsdsssssasaasaaaaapappapppppppppiiiiiiuuiuiuuuuuylyyllklkkkkkkjjkjjjjhjhhhhhwwhwwwwqqqqq0q0000099999888887777766666555;;;--===**@++                                      ",
"                                      jjkkllzzxxxccvcvvvvvbbbbbbbbnnnnnnnmmnmmmmmmMmmMMMMMMNMMMNMNNNNNNNNNBNNBNBBBBBBBBBVBBVBVBVVBVBVVVVVVVVVVVVVCVVVCVVVCVCVCVCVCVCVCCVCCCCVCCVCCCCCCCVCCCCCCCCVCCVCCCVCCCCVCVCCVCCCVCCVCVCVVCVCVCVVCVVVVVVVVCVVVVVVVVVVVVVVVVBBBVBVBBBBBBBBBBBBBNBBNBNBNBNBNNNNNNNMNNNNNNMMNMNMMMMMMMMMmMMmMmmMmmmmmnmmnmnmndddddddsdssssssssssssaaaaaaaaaapappppppipipiiiiiiuuuuuuyyuyylllllklkkkjkkjjjjhjhjhhhhhwwwwwqwqqqq0q0000909999988878777776656555;;;--==**@@+X                                      ",
"                                       jkklllzzxxxcccvvvvbvbbbbnbnnbnnnmnnnmmmmmmmmMMmMmMMMMMNMNMNMNNNNNBNNNBNBBNBBBBBBBBBVBBBVBVVBVVBVVVVVVVVVVVVVCVVCVCVVCVCVCVCVCVCVCCVCVCCVCCVCVCCCCCVCCVCCCCCCCCVCCCVCVCVCCVCCVVCCVCVCVCVCVVCVVCVCVCVCVVVVVVVVVVVVVBVBVBBVVVVBBBVBVBBBVBBBBBBBBNBBNBNBNNNNNNNNNNNMNMMMNNMMMMMMMMMmMmMMmMmmMmmmmmmmmnmnmnddddddsdsdsdsssssasaaaaasaaapapppppppppipiixiiiuiuuiuuuuuuyylllklklkkkkkjjkjjjjjhhhhhwhwwwwqwqqqqqq00000909998888887777666665555;;---==**@++                                       ",
"                                       wjkkllzzzxxcccccvvvbvbbbbbbbnnnnnmnmmnmmmmMmmMmMMMMMMMMMMNMNNNNNNNNBNNBNBBNBBBBBBBBBVBVBBBVVBVVVVVVVVVVVVVCVVVVCVVVCVCVCVCCVCVCCVVCCCVCCCVCCCCVCVCCCCCVCVCVCVCCCVCCVCCCCVCCVCCVCCVCVCVCVCVVVCVVVVVVVVVVVVVVVVVVBVVVVBVVVBBBVBVBBBBBBBBBBBBBBBBBNBNBNNNBNNNNNNNNNMNNNMMMNMMMMMMMMMMmMmmMmmmmmmmmnmmnmndfdddddddsdssssssssasasaaaaaaapaapappppipipixiiiiuiuuuuuyuylllllklkkkkkjkkjjjjjjhjhhhhwhwwwwwqwqqq00q000099998998887877776666655;;;--==**@@+X                                       ",
"                                        jjkkllzzxxxccvvvvvvbbvbbnbnnbnnnnnnmmmmmmmmMmmMmMMMMMMNMMNNMNNNNNNNNBNBNBBBNBBBBBBBBBBVBVBVVBVBVVVVVVVVVVVVCVVVVCVVCVVCVVVCCVCVCCVCVCCVCCCVCVCCCVCVCVCCCCCVCCVCCCVCCVCVCVCVCVCVCVCVCVVCVCVCVVCVVCVVVVVVVVVVVVVVVVVBVVBBVVBVBBBVBBVBBBBBBNBNBNBNBNBNBNNNNNNNNMNNNMNMMNMMMMMMMMmMmMMmmMmmmmmmmmmmnmnmnddddddssddssdssssassasaaaaaapaappappppppipiixiiuiiuuuuuuuylzlllllkklkkkkjjkjjjjhjhhhhhwhwwwqwqqqqqq00000909999888887777667665555;;--==***@++                                        ",
"                                         jkkllzzxxxcccccvbvvbbbbbbbbnnnnnmnnnnmmmmmmmMmMmMMMMMMMNMMNMNNNNNBNNBNNNBNBBBBBBBBBBVBBVBBVVBVVVVVVVVVVVVVVCVCVVCVVCVCVCCVVCCVCVCVCVCCVCVCVCCVCCCVCCCVCVCCCVCCVCCVCCVCVCVCVCVCVCVCVCVVCVVVCVVCVVVVVVVVVVVVVVVVVBVVVBVVBVBVBVBBBBBBBBBBBBBBNBNBBNNNNNBNNNNNNNMNMNMMNMMNMMMMmMMMMmMmMmmMmmmmmmmmnmnndddddddddssdssssssssasasaaaaaaapapppppppipipixxiiuiuiuuuyuzlllllkllkkkkkjkkjjjjjjhhhhhhwwwwwwwqqq0q0q000099998988887877776666555;;;--==**@@+                                         ",
"                                         jjkkllzzxxxccvvvvvbvbbbbbnbnbnnnnnmmmnmmmmMmmMmMMmMMMMNMMNMNNMNNNNNNNBNBNBNBBBBBBBBBBBVBVBVBVVBVVVVVVVVVVVVVVVVVVVCVVVVCVCVCVCVCVCCVCVCVCCCCVCVCVCCVCVCCVCVCCVCCVCVCVCCVCCVCVCVVCVCVCVVVCVVVVVVVVCVVVVVVVVVVBVBVVBBVBBVBBBBBVBBBBBBBBBNBBNBBNBNNBNBNNNNNNNMNNMNMNNMMNMMMMMMMmMmMmMmmmmmmmmmnmnmnmnddddddsddsdssssssasasaaaaaaapapapapppppipipiixxxziuiuuuuuzlzlllllkkkkkkkjkjjjjjhhhjhhhwhwwwwqqqwqq0q0000909999888887777766665555;;---==**@++                                         ",
"                                          jjkkllzzxxxccccvvvvbvbbbbnbnnnnnnnnnmmmmmmmMmMmMMMMMMMMNMNNMNNNNNNNNNBNBNBBBNBBBBBBVBBBVBBVBVVBVBVVVVVVVVVVVVCVCVVCVCVVVCVCVVCVCVCVCCVCVCVVCCVCCCVCCCVCCVCVCVCVCVCVCVCVCVCVCVCVCVVVVCVCVVVCVCVVVVVVVVVVVVBVVVVVBVVBVVBBVBVBBVBBBBBBBBBBNBBNBNBNBNNNNNNNMNNNNNMNMMNMMMMMMMMMmMMmMmmMmmmmmmmmmmnmndfdddddddsdssdssssssssasaaaaaapapapppppppipiiiixxxxzzzzzzlzllllllkllkkkkjkjkjjjjjjhhhhwhwwwwwqwqqqqq0000909999998888787677665655;;;--==**@@+                                          ",
"                                          wjkkllzzxxxcccvcvvvbvbbbbbbbnnnnnnmmnmmmmmmmmMmMmMMMMMMMMNMNNMNNNNNNNNNBNBNBBBBBBBBBBVBBBVBVBVVVVVBVVVVVVVVVVVVVVVVVVCVCVVVCCVCVCVCVCCVCVCCVVCCVVCVCVCVCCVCVCVCCVCCVCVCVCVVCVVCVVCVCVVVVCVVVVVVVVVVVVVVVVVVBVBVVVBVBBVBVBBBBBBBBBBBBNBBBNNBNBNNNNNNNNNNNNMNMNMNMMMMMMMMMMMMMmMmMmMmmmMmmmnmnmnmdddddddsdsdsdsssssasaaasaaaaaapapappppppipipiiiiixzxzxzzzzzlzlllllklkkkkkkjjjjjjhhjhhhhhwwwwwqwqqqq0q0q00099999888887877766666555;;---=***@++                                          ",
"                                           jkkkllzzxxxcccvvvvbvbbbbbnbnbnnnnnnnmnmmmmmMmmMMmMMMMMNMMMNMNNNNNNNNBNBNBBNBNBBBBBBBBVBVBVBVBBVBVVVVVVVVVVVVVVVCVCVVCVVVCVVCVVCVCVCVVCVCVCCVCVCCVCVCVCVCCVCVCVCCVVCVCVCVVCVCVVCVVCVVVCVVVVVVVVVVVVVVVVVVVVVBVBVBVBVBBVBBVBBBBBBBBNBBBNBBBNBNNBNBNNNNNNNNNMNMNMNMNMMMMMMmMmMmMmMmmmmmmmmmmmnmndfdddddddsdsdsssssssssssaaaaapaaaappapppppipiiiiiizxzzzzzzlzllllllklkkkkkkjkkjjjjjjhhhhhwhwwwwwqqqqqq0000000999898888877777666555;;;--===*@@+                                           ",
"                                            jkkllzzzxxccccvvvvvbbbbbbnbnnnnnmnmnmmmmmmmmMmMMMmMMMMMNMNMNMNNNNNNNNNBNNBBBBBBBBBBBBBBBVBVBVBVBVBVVVVVVVVVVVVVVVVVVVCVCVVVCVVCVCVVCVCVVCVCVCVCCVCVCCVCVCVCCVVVCCVCVCVCVCVVCVVVCVVCVVVCVVVCVVVVVVVVVVBVBVBVVVBVBVBVBBBBBBBBBBBBBBBBNBNBNBNNBNNNNNNNNNMNNNMNMNMMMMMMMMMMMMMMmMmmMmmmmmmmmnmnmdddfdddsddsdsssdsssasaaaaaaaaaapppapppppippiipiiixxzxzzzzzzlzllllllkkkkkkjkjjjjjjhhhhhhwhwwwwqwqqqq00q000099999988887777766665555;;---=**@@+                                            ",
"                                            wjkkllzzxxxccccvvvvbvbbbbbnbbnnnnnnmnnmmmmMmmMmmMMMMMMMMNMNMNNNNNNNBNNBNBNBNBNBBBBBBBVBBVBBVVBVVBVVVVVVVVVVVVVVVVVVCVVVVVCVVCVCVVCVCVCVCVCVCVCVVCVCVVCVVCVCVVCCVVCVVCVVCVVVCVCVVVVVCVVVVVVVVVVVVVVVBVVVVBVVBBVBVBVBVBVBVBBBBBBBBBNBBBBNBNNBNNNNNNNNMNNNMNMNMMMNMMMMMMMMmMmmMmMmmmmmmmmnmmnmdfdddddddsdssdssssssssasasaaaaapaaappppppppipiiiiizzxzzzzzlzlzllllklklkkkkkjkjjjhjjhjhhhhwhwwwwqwqqqqq000090999989888877777666655;;;--==**@@+                                            ",
"                                             jjkkllzzxxcccvcvvvbvbbbbbbnnnnnnnmnmmmmmmmmMmMMmMMMMMMMMMMNMNMNNNNNNNNNBNBNBBBBBBBBBBBBBBVBBVBVVBVBVVVVVVVVVVVVVVCVVVCVVVCVVVVVCVVCVCVCVCVCVVCCVVCVCVCVCVCVCVVCVCVCVVCVVCVVVVVCVVVVVVVVVVVVVVVVVVVVVVVBVVBVVBVBVBBBBBBBBBBBBBBBBBNBNNBNBNNNBNNNNNNNNMNNMNMNMNMMMMMMMMMMmMMmmmmMmmmmmmmnmndfddddddsddsdsssssssaaasaaaaaaapapppppppppiipiiiiiuxxzzzzzzzllllllllklkkkkjjkjjjjjjhhhhhwhwwwwwqwqqq000000090999898888777766665555;;--==***@+                                             ",
"                                              jkkllzzzxxxcccvvvvbvbbbbbbbbnnnnnnnnmnmmmmmmmMmMmMMMMMMMNMNMNNNNNNNNBNNNBNBNBNBBBBBBBBVBBVBVBVBVVVBVBVVVVVVVVVVVVVVVVVCVVVCVCVVCVVVCVVVCVVCCVVVCVCVCVCVCVCVCVCVVVVCVVVCVVCVCVVVCVVVVCVVVVVVVVVVVVVBVBVVBVBVBBVBBVBVBBBBBBBBBBNBNBNBBNBNNBNNNNNNNNNNNMNMNMNMMMMMMMMmMmMmMmMmMmmmmmmmnmmnmddddddddddsdssdssssssssasaaaaaaapaapappppippiiiiiiiixzxzzzlzzlzllllkkkkkkkkkjjjjjhjhjhhhhwwwwwwqqqqqqqq00009999998888787777666655;;;--==**@+                                              ",
"                                              wjkkllzzxxxcccvcvvvbbvbbbnbnbnnnnmnmnmmmmmmmMmMmMMmMMMMNMMMNNMNNNNNNNNBNNBNBBBBNBBBBBBBBBBVBVBVBBVVVVVBVVVVVVVVVVVVVVCVVCVVVVVCVVCVVVCVVCVVVVCCVCVCVVVCVVVVCVVVCVCVVCVVVCVVVVVVVVVVVVVVVVVVVVVVBVVVBVVBVBBVBVBBVBBBBBBBBBBBBBBBBNBNNBNNBNNNNNNNNNMNMNNMNMMMNMMMMMMMMMMMmMmMmmmmmmmmmnmdfdfdddddsdsdsdssssssasaaaaaaaaapaapppppppppiipiiiiiuzzzzzzzzlllllllklklkkkjjkjjjjjjhhhhhhwhwwwwqwqqqq00000090999888887877776665555;;--==**@@+                                              ",
"                                               jkkklzzzxxxcccvvvvvbbbbbbnbnnnnnnmnnmnmmmmmmmmMmMMMMMMMMMNMNMNMNNNNNNNNBNBNBNBBBBBBBBBBVBBBVBBVVBBVBVVVVVVVVVVVVVVVVVVVVVCVCVVVVVCVCVCVVVCVCVVVVCVVCVVCVCVVVCVVCVVVVVCVVVVCVVVVVVVVVVVVVVVBVBVVVVBVVBVBVVBBBVBBBBBVBBBBBBBBNBNBBNBBNBNNNNNNNNNMNNMNMNMNMNMMMMMMMMMMmmMmMmmmMmmmmmmnmndfdddddddddsdsssssssssassasaaaaaaapapapppppippiiiiuixxxzzzzlzzlzlllklkkkkkkkkjjjjjjhjhhhhwhwwwwqwqqqqqq0q0090999999888877767666655;;;--==**@+                                               ",
"                          Z                     jkklllzxxxccccvvvvbvbbbbbnbbnnnnnnmnmmmmmmMmMmMmMmMMMMMNMMMNMNNNNNNNNBNNNBNBNBNBBBBBBBBBBVBBVBVBVVBVBVBVVVVVVVVVVVVVVVVVVVVVCVCVVVVVVCVCVVCVVCVVVCVVCVVVCVCVVVVVCVCVVVCVVVVVVCVVVVVVVVVVVVVVVBVBVVBVBVBBBVBBBVBBBBBBBBBBBBBNBNBNBNNNNBNNNNNNNNNMNNMNMMMMMMMMMMMmMmMMmmmMmmmmmmmmmmnmfdddddddsdsdssdsssssasasaaaaaaapppapppppppipiiiiiiixzzzzzzzzllllllllklkkkkjjkjkjjjhjhhhhhwhwwwwwqqqqq00q0000999988888877877666555;;;--==**@@                                                ",
"                                                 jkkllzzxxxccccvvvvbvbbbbbnnbnnnnnnmnnmmmmmmmMmmMMMMMMMMNMNMNMNMNNNNNNNBNBNBBNBBBBBBBBBBBBVBBBVBVBVBVBVVVBVVVVVVVVVVVVVVVVVVVVVVVCVCVVVVCVVVVCVCVVCVVVCVVVVVCVCVVVVVVVVVVVVVVVVVVVVVVVVVVVVBVVVVBVBVBVBVBVBVBBBBBBBBBBBBNBNBBBNBNBNBNNBNNNNNNNNNNMNMMNMNMMMMMmMMMMmMmMmmMmmmmmmnmnmnddfdddddddsddssssssssasasaaaaaaaapapappppppiipiiiixzxzxzzzlzzlzlllklkkkkkkkkjjjjjjjhjhhhwhwwwwqqwqqq0q0000090999998887877776665555;---==*@@                                                 ",
"        Z                                        jjklllzzxxcccvcvvvbvbbbbbbbnnnnnnmnnmnmmmmmmmMmMmMMMMMMMMMNMNNNNNNNNNNNNNBNNBBNBBBBBBBBBBBBVBBVBVBVVVBVVVVVVVVVVVVVVVVVVVCVVVVCVVVVVCVVVVCVVVVVVCVVVVVVCVVVVVVVVVCVVVVVVVVVVVVVVVVVVVVBVBVVBVBVBVBVBBVBBBBBBBBBBBBBBBBBBBBNNNBNNNNNNNNNNNNNMNMMMNMNMMNMMMMMMMMmMmMmMmmMmmmmmmmmnmnmdfdddddsdsdsssdssssassaaaaaaaapapapppppppipipiiiixzxzzzzzzzllllllllklkkkkjkjjkjjjhhjhhhhhwwwwwwqqqqqq0q0009099998888878776666655;;;--==**@@                                                 ",
"                                                  jkkllzzzxxxcccvvvvbvbbbbbnbnbnnnnnmnmmmmmmMmmmMmMmMMMMMNMMNMMNMNNNNNNNBNNBBNNBNBNBBBBBBBBBBVBBBVBVBBVBVBBVVBVVVVVVVVVVVVVVVVVVVCVVVVVVCVVVVCVCVVVCVVCVVCVCVVCVVVVVVVVVVVVVVVVVVVVBVBVVVVVBVBVBVBVBVBBBVBVBBVBBBBBBBBNBNBNBBBNNBNBNNNNNNNNNNMNNNMNMNMMMMMMMMMMmMmMmmMmmmmmmmmmnmmnfddddddddsddsdsssssssasasaaaaaaapapapppppipipiiiixxxxzxzzzlzzlzllllklkkkkkkjkjjjjjjhhhhhwwhwwwqqwqqq0q000000999989888877777666555;;--==**@@                                   Z              ",
"                                                   jkkllzzxxxcccvcvvvbvbbbbbbnbnnnnnnmnnmmmmmmMmMmMMMmMMMMMMMNNMNNMNNNNNNNBNNBBNBBBBNBBBBBBBBBBVBBVBVVBVBVVVBVVVVVVVVVVVVVVVVVVVVVVVVVVVVVVVVVVVVVVVVVVVVVVVVVVVVVVVVVVVVVVVVVVVVVVVVVVBVBVVBVBVBVBBVBVBBBBBBBBBBBBBBBBNBNBNNNBNNBNNNNNNNNNMNNNMNMMMMMMMMMMMMmMMmMmMmmmmmmmmmnmmnnnmddddddsddssdssssssasasaaaaaaapapappppppppipiixxxxzzzzzzzzzlllllllklkklkkkjkjjjjjhjhhhhhhwwwwwwwqqqqq000009909998988878776766555;;;--==**@                                                   ",
"                                                   jjkkllzzxxxccccvvvbvbbbbbnbnbnnnnnmnmnmmmmmmmmMmmMMMMMMMNMMMNMMNNNNNNNNNNNNNBNBNBBBBBBBBBBBBBVBBVBBVVBVBVVBVBVVBVVVVVVVVVVVVVVVVVVCVVVVCVVVVVVVVVVVVVVVVVVVVVVVVVVVVVVVVVVVVVVVVVVBVVBVBVVBVVBVBVBBBBVBBBBBBBBBBBNBNBBBNBNBNBNNNNNNNNNMNNNMNMNMNMNMMMMMMmMMMmMmMmmMmmmmmmmmmnmmnnddddddddsdsssssssssasasaaaaaaapapacppppixcxxxxxzxxxxzzzzlzzlzllllllkkkkkjkjkjjjhjhjhhhwwhwwwwqqqqq0q0q0000999998888877776666655;;--==**@@                                   Z               ",
"                                                    jkkllzzzxxcccvcvvvvbbbbbbnbnnnnnnnnmnmnmmmmMmmMmMmMMMMMMMMNMNNMNNNNNNNNBNNBNBNBNNBBBBBBBBBVBBBBBBVBBVBVVBVVVVBVVVVVVVVVVVVVVVVVVVVVVVVVVVVCVVVVVVVVVVVVVVVVVVVVVVVVVVVVVVVVBVVBVBVVBVVBVBVBBVBVBBVBBBBBBBBBBBBBBBBBNNBNBNNNNNNNNNNNNNNNMNMNMMNMMMMMMMMMMMmMMmmmMmmmmmmmnmnmnmnnddddddsddsdsdssssasasaaaaaaaapapapcccccccxcxcxxxxxzzzzzzzzlllllllkkkkkkkkkjjjjjjjhjhhhhhwwwwwqwqqqqq0q0000999998988878777666555;;---=***@                                                    ",
"         Z                                           jkkllzzzxxxcccvvvbvvbbbbbbnbnnnnnnnmnmmmmmmmmmMmMmMMMMMMMMMMNMNMNNNNNNNNNNNNBNBBBBNBBBBBBBBBBVBVBBVBVBVBVBVBVVVBVVBVVVVVVVVVVVVVVVVVVVVVVVVVVVVVVVVVVVVVVVVVVVVVVVVVVVBVBVVBVVVVBVVBVBVBVBVBBBBBBBVBBBBBBBBBBNBNNBBNBNBNBNBNBNNNNNNNNMNMNMNMMMMMMMMMMMmMMmmMMmmMmmmmmmmmmnmnnfddddddddsdssssssssssasasaaapaapappccccccxcxxxxxxxzxzxzzzlzzlzlllllklkkkkkjkkjjjhjhhhhhhwhwwwwqwqqqqq00009009999888878777666655;;;--==**@                                                     ",
"                                                      jkkllzzxxxcccvcvvvbbbbbbnbnbnnnnnmnmnmmmmmmMmmMmMmMMMMMMNMNMNMNNMNNNNNNBNNBNBNNBNBBNBBBBBBBBBBBBVBBVBBVBVBVBVBVVBVVBVBVVVVVVVVVVVVVVVVVVVVVVVVVVVVVVVVVVVVVVVVVVVVVVVVVVVVVBVBVVBVBVBVBBVBBVBVBBVBBBBBBBBBBBBBBBNNBNNBNNNNNNNNNNNMNNNNMNMNMNMMNMMMMMmMMmMMmmmMmmmmmmnmnnmnndddddddsssdssdssssasaasaaaaaaaapapapccccxcxcxcxxxzxzxzzzzzzlllllllkklkkkkjkjjjjjjjhjhhhhwwhwwwwqqqqq00q0000999998988887777666555;;--==**@                                                      ",
"                                                      jkklllzzxxxccccvvvvbvbbbbbbnbnnnnnmnnmnmmmmmMmmMmMMmMMMMMMMMNMNMNNNNNNNNBNNNBNBNBNBBBBBBBBBBBVBBBBBVBVBVBVBVBVVBVVVVVVVVVVVVVVVVVVVVVVVVVVVVVVVVVVVVVVVVVVVVVVVVVVVVBVBVBVBVBVBVBVBVBBVBBVBBBBBBBBBBBBBBBBNBNNBNBBNBNNNBNNNNNNNNNNNMMNMNMMMMMMMMMMmMMMmMmmmMmmmmmmmmmmmnmnmddddddddddsdsssssssassasaaaaapapappccccccxcxxxxxxxzxzzzzzlzzlzlllllkkkkkkkjkjjjjhjhhhhhhhwwwwwqwqqqqq00000909999888887777666655;;;--==**@                                                      ",
"                                                       jkkkzlzzxxcccvcvvvvbbbbbbnbnbnnnnnnmnmmnmmmmmMmmMmMMMMMMMMMMMNMNMNNNNNNNNNBNNBNBBNBBBBBBBBBBBBBBVBBBBVBVBVBVBVVBVBBVBVBVVVVVVVVVVVVVVVVVVVVVVVVVVVVVVVVVVVVBVVBVBVBVVBVVBVVBVBVBVBBVBVBBBBVBBBBBBBBBBBBBBBBBBNBNNBNNBNNNNNNNNNMNMNNNMNMMNMMNMMMMMMMmmMmMmMmmmmmmmmnmnmnmndddddddssdssssssssassaaaaaaaaaapapaccccccxcxxxxxxzxzxzzzzzzlllllllkklkkkkjkjkjjjjjhjhhhhwwwwwwwqwqqq0q0q00099999898887787666655;;;--==**@                                                       ",
"                                                        jkkllzzzxxxcccvvvvvbbbbbbnbnnnnnmnnmnnmmmmmmmmMmMmMmMMMMMMNMNMNMNMNNNNNNNNBNNBNBNBNNBNBBBBBBBBBBBBVBBBBVBVBVBBVBVVBVVBVBVBVBVVBVVBVVVVVVVVVVVVVVVVVVVVVVBVVBVVVVVVBVVBVVBVBVBVBVBVBBBBVBBBVBBBBBBBBBBBNBNNBNBNBNNBNNNNNNNNNNNNNNMMNMMNMMMMMMMMMMMmMMMmMmmmmmmmmmmmmnmnnnddddddsddsdsdsssssssasasaaaaaapaappcccccxccxcxxxxxzxzzzzzlzzlzlllkllkkkkkkjkjjjjjhjhhhhwhhwwwqwqqqqqq000000909998888787777665555;--==**@                                                        ",
"                                                         jkkllzzxxxccccvvvbvbbbbbbbnbnnnnnnnmmnmmmmmmmMmMmMMMMMMMMMMMNMNMNNMNNNNNNNNBNNNBNBBBBBNBBBBBBBBBBBBVBVBBBBVBVBVVBVVBVVBVVVVVBVVBVVBVBVBVBVBVVBVVBVVBVBVVVVVBVBVBVVBVBVBVBVBBVBBBBVBVBBBBBBBBBBBBBBNBNBBBBNBNNNBNNNNNNNNNNNMNMNMNMMNMMNMMMMMMMMmMMmMmMmmMmmMmmmnmnnmnmnmdddddddsdssssssssasasaaaaavvvpapppcccccccxxxxxxxzxzxzzzzzzllllllllkkkkkkjkjkjjjjhjhhhhhhwwwwwwqqqqq0q0q00909999898887877666555;;;--==**                                                         ",
"                                                         wkklllzzxxxccccvvvvvvbbbnbbbnbnnnmnnnmnmmmmmmmmMmMmMmMMMMMNMMMMNNMNNNNNNNNNNNNBNBNBNBNBBBBBBBBBBVBBBBBBVBVBBVBVBVBBVBVVBVBVBVVBVVVVVVVVVVVVBVVBVVBVVVVVBBVBVVBVVBBVBVBVBVBVBBVBVBBBBBVBBBBBBBBBBNBBBBNBNNBNBBNNNBNBNNNNNMNNNNNNMNMMNMMMMMMMMmMMMmMmmmMmmmmmmnmmmmmmnnnndddddsdsdsdsssssssasasaaaavvcvcvccccccccxcxcxxxxzxzzzzzzlzzlzlllklklkkkkkkjjjjjjjhjhhhwwhwwwwqwqqqqq00000099998988887777665655;;--==**@                                                         ",
"                                                          rkkllzzzxxxcccvvvvbbvbbbbbnbnnbnnnnmmnmmmmmmmmmMmMmMMMMMMMMMNMNMNMNNNNNNNNNNBNNNBNBNBBNBBBBBBBBBBBBBBVBBBBVBBVBVBVBVBVBVBVVBVVBVBBVBBVBBVBVVBVVBVVBVBBVVBVVBVBBVVBVBVBBBVBBVBBBBBVBBBBBBBBBBBBNBBNBBBNBBNNNNNBNNNNNNNNNNNMNMMMNMNMMMMMMMMMMMMmmMmMmMmmmmmmmmmnmnnnmnnnnnndddsdssssssssasasaaaaaavcvcvccvccccxxcxxxxxxxxzxzzzzzzllllllllkkkkkkjjjkjjjjhhhhhhhhwhwwwqwqqqq00q000909999988887777666655;;--==***                                                          ",
"                                                           jkkkllzzxxcccccvvvbvbbbbbbnbnnnnnnnmnmnmmmmMmmmMmMmMmMMMMMMMMMNMNMNMNNNNNNNNNBNBNNBNBBNBNBBBBBBBBBBBBBBVBBVBBBBVBVBVBVBVBBVBVVBVVBVVBVVBVVBVVBVVBVBVVVVBVBVBVBVBVBVBBVBBBBBBVBBBBBBBBBBBBBBNBBBNBBNNBNNNBNBNNNNNNNNNNNNNNMNNNMNMMMMMMMMMMmMmMMmMmmmmMmmmmmmmnmnmnnmddnnnsdsdssdsssssssasaaaaaaavvcvcvccccccccxcxxxxxzzxzzzzzlzlzllllklklkkkkkkjjjjjjjjhhhhwhwwwwwqwqqqqq0000009099988887877666555;;;--==*@                                                           ",
"                                                            jkkllzzzxxxcccvvvvvbbbbbnbnbnnnnnnnnmnmnmmmmmmmmMMmMMMMMMMMNMMMNMNMNNNNNNNNNNNNNBNBNNBNBBNBBBBBBBBBBBBBBBBBVBVBBBVBVBVBVVBVBBVVBVBVBVBVVBVBBVBBVBVBBBVBVBVBVBBVBBBVBVBVBVBBBBBBBBBBBBBBBNBBBNBBNNBBNNBBNNNNNNNNNNNNNMNMNMNMMMMNMMNMMMMMmMMmMmMmmMmmmmmmmnmmmnnmnnndnnnddsdsdssssssasasaasaaaaacvvccccccccxxxcxxxxxzxzxzzzzzzlzllllllkkkkkkjkjkjjjjhhhhhhhwwwwwwqwqqqq00q000999999898888777666555;;--==**                                                            ",
"                                                             kkkllzzzxxcccccvvvvvbbbbbbnbbnnnnmnnmnmmmmmMmmMmmMmMmMMMMMMMMNMNMNMNMNNNNNNNNBNBNNBBNBBNBBBBBBBBBBBBBBBVBBBBBBBVBBBVBVBBVBVVBVBVBVBVVBBVBVVBVVBVBVVVBVBVBBVBVBBVBBBBBBBBBBBBBBBBBBBBBNBBBBNBBNBBNBNBNNNBNNNNNNNNNMNNMNMNMMMNMMMMMMMMmMMMmMMmmMmmmmmmmmmmnmnmnnmnddnnnsdsdssdssssssasasaaaaapapapvcvcccxccccxxxxxxxxzzzzzzzlllllllklklkkkkjkjjjjjjjhjhhhwhhwwwqwqqqq0qq000000999988888777766655;;--==**                                                             ",
"               Z                              Z               kklllzzxxxcccvvvvbvbbbbbnbbnnbnnnnnnmnmmmmmmmmmMmMmMMmMMMMMMMMNMNMNNNMNNNNNNNNNNBNNBNNBBNNBBBBBBBBBBBBBBBBVBVBBBVBBBBVBBVBBBBVBVBVBBVVBVBBVBBBVBBBBBVBBVBVBBBVBBVBBBVBBBVBBBBBBBBBBBBBNBNBBNBNNBNNNNBNNNNNNNNNNNNMNNMNMNMNMMMMMMMMMMMmMmMmmMmmMmmmmmmnmmnmnnmnnddnbddsdssssssssassaaaaaaaaavcpccvccccccxxxxxxxxzzzzxzzzzlzlzllllkkkkkkkkjkjjjjjhhjhhhhwhwwwwwqqqqqq0000099999989888777666555;;;--=**                                                              ",
"                                                              rjklllzzxxxccccvvvvbvbbbbbbnbnnnnnnnmnnmnmmmmmmMmmMmMMMMMMMNMMMNMNMNMNNNNNNNNNNNNNBNBBNNBBNNBNBBBBBBBBBBBBBBBVBBBBBVBBVBBBVBVBBBBVBVBBBVBVBBVBVBVBVBBVBBBBBVBBBBBVBBBBBBBBBBBBBBBBBBNBNBBNNBNBNNBNBNNNNNNNNNNNMNMNNMNMNMMMMMMMMMMMMmMMmMmmMmmmmmmmmnmmmnmnmnnnndnndddsdsdssssssssasasaaaaapavcvcccccccxxcxxxxxzxzxzzzzzlzlllllkllklkkkjkjjkjjjhjhhhhhhwwwwwqqwqqqq0q000000999988887777666655;;--==**                                                              ",
"                                                               jkkllzzzxxxccccvvvvbvbbbbnbnbnnnnnnnmnmmmmmmmmmmMmmMmMmMMMMMMMMMMNMNMNMNNNNNNNNNNNNNNBBNBBBBBBNBBBBBBBBBBBBBBBBBVBBBBBBVBBBBVBVBBBVBVBVBBVBVBBBBBBVBBBVBBBBBBBBBBBBBBBBBBBBBBNBBNBNBBBNNBBNBNBNNNNNNNNNNNNNNNNNNMMNMNMMNMMMMMMMMmMMmMMmMmMmmMmmmmmmmnnmnnnnnnnnnbsdsdssssssssaaasaaaaaaavcvccccccccxcxcxxxxxxxzxzzzzzlzllzllllkkkkkkkkjkjjjjjjhhhhhwhwwwwwqwqqqq0q00009999998988877766655;;;--==**                                                               ",
"                                                                jkkllzzzxxxccccvvvvbvbbbbbbbnbnnnnnnnnnnmmmmmmmmMmMmMMMMMMMMMMNMMNMNMNNNNNNNNNBNNNBNNNBNNNNBNBBNBBBBBBBBBBBBBBBBBBBVBBBBBVBBBBBVBBBBBBVBBBBBBVBVBBVBBBVBBBBBBBBBBBBBBBBBBBNBBNBBNBBNNBNBNNNNNNBNNNNNNNNNNNNMNMMNNMMMNMMMMMMMMmMMmMmMmmMmmmmmmmmmmmnmmnmnmnnnnnnndsdssdssssasssaasaaaaavcvvcvcccccccxcxxxxxxzxzzzzzzzzlzlllllkllkkkjkjkjjjjjhhjhhhhhwhwwwqwqqqq0q0000009999988887777666555;--==**                                                                ",
"                                                                 jkkllzzzxxcccvcvvvbvbbbbbnbnbnnnnnmnmmmnmmmmmmMmmmMmMmMMMMMMMMMNMNMNMNMNNNNNNNNNNNNBNNBNBBNBNBBNBNBBBBBBBBBBBBBBBBBBBBBVBBBBVBBBVBVBBBBVBVBBBBBBBBBBBBBBBBBBBBBBBBBBBBBBBBBBBNBBNBNBBNNBNBNBNNNNNNNNNNMNMNMNMNMMNMMMMMMMMMMMMMmMMmMmMmmMmmmmmmnmnmnnnnnnnnnnbndsdssdssssssasasaaaaaapvvcccccccccxcxcxxxxxxxzxzzzzzlzllllllklkkkkkkkjjjkjjjhjhhhhhwhwwwwqwqqqqq000009099998888787766655;;---==*                                                                 ",
"                                                                  jkkllzzxxxxccvcvvvvbvbbbbbbnnbnnnnnnnnmnmmmmmmmmMmmMmMmMMMMMMMMMMNMNMNMNMNNNNNNNNNNBNNBNNBNBNBBNBBBNBBNBBBBBBBBBBBBBBBBBBBBBBBBBBBBBBBBBBVBBBBBBBBBBBBBBBBBBBBBBBBBBBBNBNNBNBBNBNBNBNBNNNNNNNNNNNNNMNNNNNMNNMNMMMNMMMMMMMMMMmMmMmMmmmmmmmmmmmmmmmnmnmnnnnnnnbbdssssssssasasaaaaaaaavcvcvcvcccccxcxxxxxxxzxzzzzzlzlzlllllklkkkkkkjkjkjjjhjjhhhhwhwwwwwwqqqqq00q00000999989888777666555;;--==*                                                                  ",
"                                                                   kkkllzzzxxccccvvvvvbbbbbbnbbnnnnnnnnmnmmmmmmmmMmmMmMmMMmMMMMMMMMMMNMMNNNNMNNNNNNNNNNNNNBNNNBNBNBNNBBNBBNBBBBBBBBBBBBBBBBBBBBBBBBBBVBBBBBBBBBBBBBBBBBBBBBBBBBBBBNBBNBBBBBBNBNNBNNBNNNNNBNNNNNNNNNNNNNMNMMNMMNMMNMMMMMMMMMmMmMmMmMmmMmmmmmmmnmnmnnnnnnnnnnnbnsssdssssssssasaasaaaaapcvcvcccccccxcxxcxxxxzxzzzzzzzzlllzllllklkkkkkjkjjjjjjhhhhhhhwwwwwqwqqqqqq000009999989888777666555;;--==*                                                                   ",
"                                                                    jkkllzzxxxxccccvvvvbvbbbbbbnbbnnnnnnmnnmnmmmmmmmmmMmMmMMMMMMMMMNMMMNMMNMNNNNNNNNNNBNNNNBNBNBNBNBBBNBBNBBBBBBBBBBBBBBBBBBBBBBBBBBBBBBBBBBBBBBBBBBBBBBBBBBBBBBNBBNBBBNNBNNBNBNNBNNNBNBNNNNNNNNNNNNNMNMNNMNNMMNMMMMMMMMMmMMMmMmMmmMmmmmmmmmmmmmnnmnmnnnnnbnnddsdssssssssasasaaaaaavvvcccvcccccxcxcxxxxxxxzzxzzzzzlzlllllklkkkkkkkjjkjjjhjhjhhhhwhwwwwwqwqq0q0q0000009999888877766655;;;--=*                  Z                                                 ",
"                                                                     kklllzzzxxcccvcvvvvbbbbbbnbnnbnnnnnnnmnmnmmmmmmMmmMmMmMmMMMMMMMMNMMNMMNMNMNNNNNNNNNNNNNNNNNBNBNNBNBBBNBNBNBBBBBBBBBBBBBBBBBBBBBBBBBBBBBBBBBBBBBBBBBBBBBBNBNBBNBBNNBBNBBNBNBNBNBNNNNNNNNNNNNNNMNMNNMNMNMMMNMMMMMMMMMMMMmmMmMmMmmmMmmmmmnmnmnmnnnnnnnnnnbnbsdsssssssasaasaaaavvvccvcvccccccxcxxxxxxxzxzxzzzzzllzlllllklkklkkkjkjkjjjjjhjhhhhwhwwwwqqqqqqq0000009999988887777666555;;-===                                                                     ",
"                                                                     jkklllzzxxxcccvcvvvvbvbbbbbbbnnnnnnnnnmnmnmmmmmmMmmmmMmMMMMMMMMMMMNMMNMNMNMNNNNNNNNNNNBNNBNNNNBNNBNNBNBNBBNNBNBNBBNBBNBBBBBBBBBBBBBBBBBBBBBBBBBBBBBBNBNBBBBBNBBNBBNBNNBNNBNNNNNNNNNNNNNNNNNMNNMNNMNMNMMNMMMMMMMMMMMmMmMMmMmmmMmmmmmmmmmmmnmnnmnnnnnndbnsdsssssssassassaaavvvcvvcvcccccccxccxcxxxxxzxzzzzzlzzllzlllllklkkkkkjkjjjjjhjhhhhhhhwwwwqwwqqqq0qq000009999988887766665;;;--=**                                                                     ",
"                                                                      jkklllzzxxxxcccvvvvvbbbbbbnbnbbnnnnnnnmnmmmmmmmmmmMmMmMmMmMMMMMMMMMNMMMNMNNMNNNNNNNNNNNNNNBNBNBNNBNNBNBNBBBNBNBBNBBNBBNBNBNBBNBBNBBNBBNBBNBBNBNBNBNBBNBNNBNBNNBNNBNNBNNBNNBNNNNNNNNNNNNNNNNMNNMMNMNMMNMMMMMMMMMMMmMMmMmMmMmmmmmmmmmmnmnnmnnmnnnnndnsnbsdsdsssssssasaaaavvvvvcvcccvccccccxxcxxxxxzxzzxzzzzzlzlllllklkkkkkjkjkjjjjjjhhhhhwwwwwwwwqqqqq0q00009099998888777666555;;--===                                                                      ",
"                                                                       jjkllzzzxxxcccccvvvvbvbbbbbbnbnnnnnnnnmnnmnmmmmmmmmmMmMmMMmMMMMMMMMMMNMNMMNMMNMNNNNNNNNNNNNNNNBNNBNBNBNNBNBNBNBBNBBNBBNBBBNBBNBBNBBNBBNBBBNBBBBBNBBNBBBBNBNBNBNBNNBNNNNNNNBNNNNNNNNNNNNMNMNNMNNMMMMMMMMMMMMMMMMmMMmMmMmmmMmmmmmmmmmnmmnnmnnnnnnnsddbdssssssssssasaaaavvvvcvcvcvccccccxxcxxxxxxxxzxzzzzzlzllllllklklkkkkkjkjjjjjhjhhhhhhwhwwwqwqqqq0qq0000099999888877766655;;--==*                                                                   Z   ",
"                                                                        kkklllzzxxxcccvvvvvvbbbbbbnbnbnnnnnnnnnmnmnmmmmmmMmmmMmMmMMmMMMMMMMMMMMNMNMNNNNMNNNNNNNNNNNNNNNBNNNBNBNNBNBBNBNBNBBNBBNBNBBNBBNBBNBBNBBNBBNBNNBNBNBNNNNBNBNBNNBNNNNBNNNNNNNNNNNNNNMNMNMNNMMNMMMNMMNMMMMMMMMmMmMMmmMmmMmmmmmmmmmnmnmnnmnnnnnnnnndssdssdbssssasaaaasaavvvcvvccvcccccxcxcxxxxxxzxzxzzzzzlzllzlllllkkkkkkjkjjjjjjhjhhhhhwhwwwwwwqqqqqq00000909998888877766655;;;--=*                                                                        ",
"                                                                         jkklllzzxxxcccccvvvvvvbbbbbbnbbnnnnnnnnmnmnmmmmmmmMmmMmMmMMMMMMMMMMMNMMNMMNMMMNNNMNNNNNNNNNNNNNNBNNNNBNNBNNBNBNBNNBNBNBNBNBNBBNBBNBBNBNBNBNBNBNBNNBBBNNBNNNBNNNBNNNBNNNNNNNNNNNNNNNNMNNMNMMMNMMMMMMMMMMMMMMMMmMmMmMmmMmmmmmmnmmmmnmnnnnnnnnnnbnbdssssssssssasasaaaaavvvvcvccccccccxcxcxxxxxxzzzzzzzzzlzlllllkklkkkkkjkjkjjjjjhjhhhhwhwwwwqqwqqqq0q000009999988877766655;;--===                                                                         ",
"                                                                          jkkllzzzzxxccccvvvvbbvbbbbnbbnnnnnnnnmnnmmnmmmmmmmmmmMmMmmMmMMMMMMMMMMMMNMNNNMMNNNMNNNNNNNNNNNNNNNBNNNBNNBNNNBNNBNNBNBNBNBNBNBNNBNBNBNBNBNBNNBNNBNNNBNNNBNNNNNNNNNNNNNNNNNNNMNMNMNMNMMNMNMNMMMNMMMMMMMmMmMmmMmMmmmmmmmmmmmmmnmnnmnnmnnnnnnnbnnssdssssssasasasaaaaaaacccvcccccccxcxcxxxxxxzxzxzzzzlzlzlllllkllkkkkkkjkjjjjjhhjhhhhwhwwwwwqwqqq00q0000999998888777666555;;--==                                                                          ",
"                                                                           jkklllzzxxxcccccvvvvbvbbbbnbbbnbnnnnnnmnnmnnmmmmmmMmmmmMMmMMmMMMMMMMMNMMMMMMNNMNMNNNNNNNNNNNNNNNNNBNNNBNNNBNNNBNBNBNNBNNBNNBNBNBNBNNBNBNNBNBNNBNNBNNNBNNNNNBNNNNNNNNNNNNNNNNNNMNMNMNMNMMMMMMMMMMMMMmMMMMmMmMmmMmMmmmmmmmmmnmnmnnmnnnnnnnbnnbbdsssssssssasasaaaaaaapapvccvcccxcccxxxxxxzxzxzzzzzzzzllllllklkkkkkjkjkjjjjhjjhhhhhwhwwwwqwqqqqqqq000000099998887776655;;;--==                                                                           ",
"                                                                            jkkllzzzxxxccccvvvvvbvbbbbbnbbnnnnnnnnnmnmmnmmmmmmmmMmmmMmMMmMMMMMMMMMMMNMNMMMMNMNMMNNNNNNNNNNNNNNNNNNNNNNNBNNNNNNNBNNBNNBNNNBNNNBNNBNNBNNNNBNNBNNNBNNNNNNNNNNNNNNNNNMNMNMMNMNMNMNMNMMNMMMMMMMMMMMMMmmMMmMmMmmmmmmmmmmmnmmnmnmnnnnnnnnnnbnbnbbsssssasasasaaaaaapapavcccccccccxxxcxxxxxzxzzzzzzllllllllllklkkkkkjkjjjjjjhhjhhhhwhwwwwwqqqqq0q0000099999888777766655;;--==                                                  Z                         ",
"                                                                             jkklllzzzxxcccccvvvvbvbbbbbnbnbbnnnnnnnnnnmmnmmmmmmmMmMmMmmMmMmMMMMMMMMMMMMNMNMNMNNMMNMNNNNNNNNNNNNNNNNNNNNBNNBNBNNBNNBNNNBNNNBNNBNNNNNNNBNNNNNNNNNNNNNNNNNNNNNNNNMNNNNMNNMNMNMNMMMMMMMMMMMMMMMMmMmMMmmMmmmmMmmmmmmmmnmmnmnmnnnnnnnnnbnbnbssssssssssasaaaaaaaaapacccvccccccxxcxxxxxxzxzxzzzlzzzlzllllklkkkkkkkjjkjjjjjjhhhhwhwwwwwwqwqqq0q0000090999888877666555;;;-==                                                                             ",
"                                                                              jkkllzzzxxxccccvcvvvbvbbbbbbbnnbnnnnnnmnmnnmmnmmmmmmmmmmMMmMmMMmMMMMMMMMMMMMMNMMMNMNNNMNMNNNNNNNNNNNNNNNNNNNNNNNNNNNNNNNNNNNNNNNNNNNNBNNNNNNNNNNNNNNNNNNNNNNNMNNNNMNMMNMMNMNMMMMNMMMMMMMMMMMmMmMMmMmmMmmMmmmmmmmmmmnmnnmnnnnnnnnnnbnbnssbsdsssssaasaaaaaaaaapacvcvccccccxxccxxxxxxzxzzzzzzzzllzllllklkklkkkjkjkjjjjhhhjhhhhwwwwwqqwqqqqq0000009999888877766655;;;-==                                                                              ",
"                                                                               jkkklzzzzxxcccccvvvvbvbbbbnbbbnbbnnnnnnnnmnnmmmmmmmmmMmmmMmMMmMMMMMMMMMMMNMMMNMNMNMMNMNNMNMNNMNNNNNNNNNNNNNNNNNNNNNNNBNNNNBNNNNNNNNNNNNNNNNNNNNNNNNNNNNNNNNNNNMNMNMNNMNMNMMNMNMMMMMMMMMMmMMmMMmMmMmMmmmmmmmmmmmmnmmnmmnnmnnnnnnnnnbnbbdssssbbassasasaaaaapacvvccccccccxccxxxxxxxxzxzzzzzzzlzllllllklkkkkkkjkjjjjjhjjhhhhhwhwwwwwwqqqq0q0q00009998988777666555;;-==                                                                               ",
"                                                                                jkkllzzzxxxcccvcvvvvvbvbbbbbnbnnbnnnnnnmnnmnmnmmmmmmmmmMmmmmMmMmMMMMMMMMMMMMMMMMMMNMMNMNMNNMNNMNNNNNNNNNNNNNNNNNNNNNNNNNNNNNNNNNNNNNNNNNNNNNNNNNNNNNNMNMNMMNMNMNMNMMNMNMMMMMMMMMMMMMMMMMMmMMmMmMmmmmMmmmmmmmmmnmmnmnnnmnnnnnnnbbbnbbsssssssssasaaaaaaaaaavcvccvcccccxcxxxxxxxzxzxzzzzzzllllllllklkkkkkkjkjkjjjjjhjhhhhwwhwwwwqqqqqqqq0000099999888777666555;--==                                                                                ",
"                                                                                 jkkkllzzzxxxccccvvvvvbvbbbbbbbbnbnnnnnnnnmnmnmmnmmmmmmmMmMmMmMmMmMmMMMMMMMMMNMMNMMNMMNMNMMNNMNNMMNNMNNMNNNNNNNNNNNNNNNNNNNNNNNNNNNNNNNNNNNNNNNNNNMNMNNNMNNMNMMNMMNMMMMMNMMMMMMMMMMMMmMmMmMmMmmmMmMmmmmmmmmmnmmnmnnmnnnnnnnnnbnnnbnssbbsssssasasasaaaaapvcvccccccccxccxcxxxxxxxzzxzzzlzzlzllllllklkkkkkjkjjjjjjjhhhhhhhwwwwwqwwqqqq00q0000099988877776655;;;--=                                                                                 ",
"                                                                                  jkklllzzzxxccccvcvvvvbbbbbbbnbnbnbnnnnnnnnnmnmmmmmmmmmmmmmmMmMmMMmMMmMMMMMMMMMMMMMMNMMNMNMNMNMNNNMNNMNNMNNNNNNNNNNNNNNNNNNNNNNNNNNNNNNNMNNMNMMNMNNNMNMNMMNMNMNMMMMNMMMMMMMMMMMMMMMmMMMmMmMmmMmmmmmmmmmmmmmmnmnnmnnnnnnnnnnbnbnbbbbsbsssasasaaaaaaaaapcvccvccccccxcxcxxxxxxzzzzxzzzzzllzlllllklkkkkkkjkjjjjjjhjhhhhhwhwwwwwqwqqqq0q000099999888877666555;;--=                                                                                  ",
"                                                                                   jkklllzzzxxxcccvcvvvvvvbbbbbbbbnnbnnnnnnnnmnnnnmnmmmmmmmMmmmmMmmMmMMMMMMMMMMMMMNMMMMMMNMNMMNMNMNMNMNNMNMNMMNMNNMNNMNNMNNMNNMNNMNMNMNMNNNMNNNMNNMMMNMMNMNMNMMMNMNMMMMMMMMMMMMMMmMmMMmMmMmmMmmMmmmmmmmmmnmnnmnmnnnnnnnnnnbnnbnbbbnbbsssbsasaasaaaaavacvcvcccccccxccxxxxxxxzxxxzzzzzlzzllllllklklkkkjkkjkjjjjhjhjhhhwhwhwwwwqqqqqqq000000999888777766655;;--=                                                                                   ",
"                                                                                    jkklllzzzxxxccccvvvvvbvbbbbbbnbbnbnnnnnnnnnmnmnmmnmmmmmmmmMmmMmMMmmMmMMMMMMMMMMMMMMNMMMMMNMNMMNMNMNMNMNMNNNMNMNNMNNMNNMNNMNNMNNNMNNMNMMNMMNMNMNNMNMNMMMMMNMMMMMMMMMMMMMMMMmMMMmMmMmmMmMmmmMmmmmmmmmmmmnmmnmnnmnnnnnnnbnbnbbbnbbbbsasasasasaaaaavcvvcccvcccccxcxcxxcxxxzxzzzzzzzzzlllzlllklkkkkkkkjjkjjjjjhjhhhhhwhwwwwqqqqqq000q0009999898877666555;;--=                                                                                    ",
"                                                                                      jklllzzzxxxxccccvvvvbvvbbbbbnbbnbbnnnnnnnnnmnmnmmmmmmmmmmmmMmmmMmMmMmMmMMMMMMMMMMMMNMMNMMMNMMNMNMNMNNMNMNMNNMMNNMNNMNNMNNMNNMMNMNMNNMNNMNMMNMMMNMMMNMNMMMMMMMMMMMMMMMMmMMmMmMMmMmMmmmMmmmmmmmmmmmnmnmnnnnnnnnnnnnnbnnbnbnbbbbbsbssasaaaaaaaavvvcvcvccccccxccxxxxxxxxxzxzzzzzlzlzlllllklklkkkkjkkjjjjjhjhhhhhwhwwwwwqwwqqqqqq00000999988877766555;;--                                                                                      ",
"                                                        Z                              kkkllzzzxxxcccccvvvvvbbvbbbbbnbbnnbnnnnnnmnnmnmnnmmmmmmmmmmmMmMmMmMmMMmMmMMMMMMMMMMMMMMMMMMNMMMMMNMMNMMMNMNMNMMNMMNMMNMMNMMNNMNMNMMNMMNMNMMMNMMMNMMMMMMMMMMMMMMMMMmMMMMmMmMmmMmmmmMmmmmmmmmmnmnnmnmnmnmnnnnnnnnbnnbbnbbbbbbbbbsasaasaaaaaavccvcccccccccccxxcxxxxxzzxzzzzzzzzllzllllklkkkkkkkjkjjjjjjjhhhhhhhwwwwwwqwqqqq0q00009999888777766655;;--                                                                                       ",
"                                                                                        jkklllzzxxxccccccvvvvbvbbbbbbbnbbnbnnnnnnnnnnnmmnmnmmmmmmmmmmmmmMmMmMmMMMmMMMMMMMMMMMMMMMMMMMMNMMNMMNMNMNMMNMNMNMNMNMNMNMNMMNMMMNMMNMMMMMNMMMMMMMMMMMMMMMMMMMMMmMMmMmmMmMmMmmMmMmmmmmmmmmmmmmmnmnmnnnnnnnnnnnbnbbnbbbbbbbbbbvasasaaaaaaaacvvcvcvccccccxxcxxxxxxzxxzxzzzzzllzlllllllklkkkkjkjjkjjjjjhjhhhhwwhwwwwwqqqqqqq00000099988887666555;;--                                                                                        ",
"                                                                                         kkkllzzzzxxxcccvcvvvvvbvbbbbbbbnbnnbnnnnnnnmnnnmnmmnmmmmmmmmMmmmMmmMmMmmMMmMmMMMMMMMMMMMMMMMNMMMMMMMMMMMMNMMMMMMMNMMMMMNMMNMMNMMMNMMNMMMMMMNMMMMMMMMMMMMMmMMmMMMmMmMMmMmmmMmmmmmmmmmmmnmmnnmnmnmnnnmnnnnnnnbnbnnbbnbbbbbvbvbsvvaaaaaaapavccccccccccxcxcxxxxxxiuzuuzzzzzlzzlllllklklkkkkkkjkjjjjjhjhhhhhhwhwwwwqqqqqq0000000999988877676655;;--                                                                                         ",
"                                             Z                                            kkklllzzzxxxccccvcvvvvbvbbbbbbbnbbnbnnnnnnnnmnmnmnmnmmmmmmmmMmmmmMmmmMMmMmMMMmMMmMMMMMMMMMMMMMMMMMNMMNMMMMNMNMNMMMNMNMMMMMMMMMMMMMMMMMMMMMMMMMMMMMMMMMmMMMmMMmmMmMmMmmmMmmMmmmmmmmmmmmmnmmnmnnnnnnnnnnnnbnnbnbbbbbbbbbbbbbvbaaaaaaapaapvcvcvccccccxcxxcxxxxuixiuzzzzzlzllllllllkkkkkkkkjkjjjjjhjhjhhhhwhwwwwqwwqqqqqq0000999988877766555;;--                                                                                          ",
"                          Z                                                                jkklllzzxxxxccccvcvvvvbvvbbbbbbbnbnnbnnnnnnnnnnmnmnmmmmmmmmmmmmMmmMmmmMmMmmMmMMMmMMMMMMMMMMMMMMMMMMMMMMMMMMMMMMMMMMMMMMNMMMMMMMMMMMMMMMMMMMMMMMmMMMmMMMmmMMmmMmMmmmmMmmmmmmmmmmmnmmnnmnmnnnnmnnnnnnnnbnnbbnbbnbbbbbbvbvvvaaasaaaaaavcvcccccccccxcxcxxxxxxzxzzzzzzzzlzllllllklklkkkkkjkjjjkjjhjhhhhhhwwwwwwwqwqqqq0q0000999888877766655;;;-                                                                                           ",
"                                                                                            jkkllllzzxxxxcccvcvvvvbbvbbbbnbbbbnbnbnnnnnnnnnmnmnnmnmmmmmmmmmmmmmMmmmMmMmMMmmMMmMmMmMMMMMMMMMMMMMMMMMMMMMMMMMMMMMMMMMMMMMMMMMMMMMMMMMMMMMMmMMMmMMMmmMMmMmMmMmmmMmmmmmmmmmmmmmmmnmnmnnmnmnnnnnnnnnnnbnbnbbbbbbbbbbbvabvsvaaaaavvpapccvcccccccxcxxxxxxxxxzxzzzzzzlzlzlllllklkkkkkjkkjkjjjjjjhjhhhhhwhwwwqwqqqqqq00000999988877666555;;--                                                  Z         Z                               ",
"                                                                                              kkkllzzzzxxxcccccvvvvvvbvbbbbbbnbbnbnbnnnnnnnnnnmnmnmnmmmmmmmmmmmmmMmmmMmmmMMmmMmMMMmMmMMMMMMMMMMMMMMMMMMMMMMMMMMMMMMMMMMMMMMMMMMMMMMmMMmMMmMmMmmMmMmmmmMmmmmMmmmmmmmmmmmmnmnnmnmnmnnnnnnnnnnnbnbbnbnbbbbbbbbbvbvbvbvavavvaavapapacvcccccxcxcxxcxxxxzzxzzzzzzzlzlllllllklkklkkkkjjkjjjjjhhhhhhhwwwwwwwwqqqqq0q0000999988877766655;;-                                                                                              ",
"                                                                                               kkklllzzzxxxxcccccvvvvvbvbbbbbbnbbbnnbnnnnnnmnnnnnmnnmnnmmmmmmmmmmmmMmmmMmmmMMmMmMmMmMmMmMmMmMMMmMMMmMMMmMMMMMMMMMMMMMMMMMMMMMMMmMmMMmMmMmMmMMmMmMmMmMmmmMmmmmmmmmmmmmmnmmmmnmnmnnmnnnnnnnnnnnnnbnbbbnbbbbbvbbvbvbvvvavaaacvccappcccccxcccxxxxxxxxzxxzxzzzzzzlzlzlllllklkkkkkkjkjjjjjjjhjhhhhwhhwwwwqqwqqq0q0000999988877766555;;-                                                                                               ",
"                                                 Z                                              jkklllzzxxxxccccvcvvvvbvbvbbbbbbbnbbnbnnnnnnnnnmnnmnmnmmnmmmmmmmmmmmmmMmmMmmmmMmmMmMmMmMmMMmMmMMMmMMMmMMMmMmMmMmMMMmMmMmMmMmMmMmMMmMMmMmMmMmmMmmMmmmmMmmmmmmmmmmmmmmmnmmnnmnnmnnnnnnnnnnnnbbbbnbbbnbbbbbbbbvbvbvvvvaaavvvacpappppcccccxxxxcxxxxxzxzzzzzzzzlzlllllllklkkkkkkjkjjkjjjjhhjhhhhwhwwwwwqwqqqqq00000999988877766655;;-                                                                                                ",
"                                                                                                 jkkllllzzzxxxccccvcvvvvvvbvbbbbbbnbnbbnbnnnnnnnnnnnnmnnmmnnmmmmmmmmmmmmmmmmMmmMmmMmMmMmMmMmMMmmMmMmMMMmMMmMMMMMmMmMMMmMMmMmMmMmMmMmMmMmMmmMmmMmmmmMmmmmmmmmmmmmmmmnmmnnmnnmnnnnnnnnnnnnnbnnnnbbnbbbbbbbbvbvbvvvvvvvvvvccvvcppppppccxccxcxxxxxxzxxzxzzzzzlzlzlllllklklkkkjkkjkjjjjjjjhhhhhhwhwwwwwqwqqqq0q000099988877766555;;-      Z                                                                                          ",
"                                                                                                   kkkllzzzxxxxxccccvvvvvbvbvbbbbbbbbbnbnbnnnnnnnnnmnnmnnmnmmnnmmmmmmmmmmmmmmmmmmmmMmmMmmMmMmmMmMmMmMmmMmMMmmMmmMMmMmMmMmMmMmMmMmMmmMmmmMmmmmmmmmMmmmmmmmmmmmmmnmnnmnnmmnnmnnnnnnnnnnnbbnbnbbbbbbbbbbbbvvbbvvvbvvvvvcvapappapppppppcxcxxxxxxxxzxzzzzzzzzlzlllllllklkkkkkkkjjkjjjjjhhhhhhhwhwwwwwqwqqqq00q000999988877666555;;                                                                                                   ",
"                                                                                                    kkkllllzzxxxxccccccvvvvvvbvbbbbbbbbbbnbbbnnnnnnnnnnmnnmnnmmnmnmnmmmmmmmmmMmmmMmmmmmMmmmmmMmmMmMmmMMmMmmMmMmMmmMmmMmMmMmMmmMmmmMmmmMmmmMmmMmmmmmmmmmmmmmmmnmmnmnmnmnnnnnnnnnnnnnnnbnnbnbbbbbbbbbbbvbbbvvvbvvvvvvvvcvcpccccccpppipixcxxxxxxxzxzxzzzzzlzlzlllllklklkkkkkjkjjjjjhjjhjhhhwhwhwwwqwqqqqqq0000999888777766555;;                                                                                                    ",
"                                Z                                                                    jkkkllzzzzxxxxccvcvvvvvbvbvbbbbbbbnbbnnnbnnnnnnnnnnnnnnmnnmnmmmnmmmmmmmmmmmmmmmmMmmmMmMmmmMmmMmmmmmmMmmMmmmMmMmMmmmMmmmMmmmMmmmMmmmmmmmmmmmmmmmmmmmnmnmnmnnmnmnnnnmnnnnnnnnnnbbnbnbbbbnbbbbbbbbvbvbvbvbvvvvvvcvcvcvcvpcpccccxcxxxxxxxxzxzxzzzzzzlzzlllllllklkkkkkkjkjkjjjjjjhhhhhhhwhw4wwwqwqqq000000999888877666555;;                                                                                                     ",
"  Z                                                                                                   jkkklllzzzxxxxccccccvvvvvbvbvbbbbbbbbbbnbbbnbnnnnnnmnnnnnmnmnnmmnnmmmmmmmmmmmmmmmmmmmmmMmmMmmmmMmMmmMmmMmMmmmmmmMmmmMmmmMmmmmmmmmmmmmmmmmmmmmmmmmnmmmnmnmmnmnnmnnnnnnnnnnnbnnbnbbnbnbbbbbbbbbvbbvvvvvvvvvvvcvvcvcccccccccxccxxcxxxxxxzxzzzzzzlzzllzlllllklklkkkkkjkjjjjjjhjhjhhhwhwww4wqwqqqqqqq000999988777666555;-                                                                                                      ",
"                                            Z                                                           kkklllzzzxxxxxcccvcvvvvvvvbbvbbbbbbbbbbnnbnnbnnnnnnnnmnnnnmnmnmmnmnnmmmmmmmmmmmmmmmmmmmmmmmmMmmmmmmmmmmmmMmmmmmmmmmmmmmmmmmmmmmmmmmmmmmmmnmnmnnmnnmnmnnnnnnnnnnnnnnnnnbnnbbnbbnbbbbbbbbbvbvbvvvbvvvvvvvcvvccvccvccccccxcxxxcxxxxxzxzxzzzzzzzllzllllllklkkkkkkjkjkjjjjjhjhhhhhhwhwwwwwqwqqqq0000999988887766655;;                                                                                                        ",
"                                                                                                         kkklllzzzzxxxxcccccvcvvvbvvbvbbbbbbbnbbbbnbnbnnnnnnnnnmnnnnnmnnmnmnmnmnmnmmmmmmmmmmmmmmmmmmmmmmmmmmmMmmmmmmmmmmmmmmmmmmmmmmmmmmmmmmmmmmnmmmnmmnmnmnnmnnmnnnnnnnnnnnbnbnbnbbnbbbbbbbbbvbbvvbvbvvvvvvvcvvcvcvccccccccccxcxcxxxxxxxzxzzzzzzzlzlzllllllklklkkkkkjkjjjjjjhjhjhhhhhwwwwwwwqqqqq0009099988877766655;;                                                                                                         ",
"                                                                                                          jkkklllzzzxxxxcccccvvvvvvvbvbvbbbbbbbbnbbnbnbnbnnnnnnnnnnmnnnnnmnmnmnmmmnmnmmmmmmmmmmmmmmmmmmmmmmmmmmmmmmmmmmmmmmmmmmmmmmmmmmmmmnmnnmnmnnnmnnmnnnnmnnnnnnnnnnbnbnbnbnbbnbbbbbbbbbbbvbvbvbvvvvvvvvvcvcvcvcccccccccxcxcxxxxxxxzxzzxzzzzzzzllzlllllkklkkkkkkjjkjjjjjjhjhhhhhhwwwwwwwqqqqq00q00099988877766655;;                                                                                                          ",
"                                                                                                            jkklllzzzzxxxxcccccvcvvvvbvvbvbbbbbbbbbbbnbnbnbnbnnnnnnnnnmnnnnnmnnnnnmnmmnnmnnmmnmmnmmmmmmmmmmmmmmmmmmmmmmmmmmmmmmmmmmmnmnnmnmnmmnmnmnmnnnnmnnnnnnnnnnnnnnnnnbnbnbnbbbbbbbbbbbvbvbvbvvvvvvvvvvvvvcvccvccccccccxcxxcxxxxxzxzxzzzzzzzzlzlllllkllkklkkkkjkkjkjjjjhjhjhhhwhwhwwwwqwqqq0q000999988877666555;                                                                                                            ",
"                                                                                                             jkkklllzzzxxxxccccccvcvvvvvbvbvbbbbbbbnbbbbbnbnnbnnnnnnnnnnnnmnnnmnmnmnnnmmnmmnmmnmmnmnmmmmmmmmmmmmmmmmmmnmmnmmnnmnnmnmmnmmnmnmnnnnmnnnmnnnnnnnnnnnnnnnbbnbbbnbbbbbbbbbbbbvbvbbvbvvvvvvvvvvvcvccvcccvccccccxxxcxxxxxxxxzxzxzzzzzzlzlllllllllkkkkkkkkkjkjjjjjjhjhhhhhhhwwwwwqwqqqq0q000999888777766555;                                                                                                             ",
"                                                                                                               kkklllzzzzxxxxxccccvcvvvvvvvbvbvbbbbbbnbbnbbbbnbbnbnbnnnnnnnnnnnnnnnnmnmnnnnmnnmnnmnmnmnnmnnmnnmnnmnnmnmmnmmnmmnmmnmnnmnnnnmnnnmnnmnnnnnnnnnnnnnnnbnbnnbbnbbbnbbbbbbbbbbbbbvvbvvbvvvvvvvcvcvcvcvccccccccxccxxcxxxxxxxzxzzzzzzzzlzlzlllllklklkkkkkkjkjjjjjjhjhjhhhhwwhwwwwqqqq0q0000999888877666555                                                                                                               ",
"                                                                        Z                                       jkkklllzzzzxxxcccccvccvvvvvvbvbvbbbbbbbbbbnbnbnnbnnnbnnnnnnnnnnnnnmnnnnnmnnnmnmnmnnmnnmmnmmnmmnmmnmmnmnnmnnmnnmnnnnmnmnnmnnnmnnnnnnnnnnnnnnnbnbnbnbnbbnbnbbbbbbbbbbbvbvvvvbvvvvvvvvvvvcvvcvccccccccccxccxxcxxxxxxzzxzzzzzzzzlzllllllllklkkkkkkkjjkjjjjjjhjhhhhhhwhwwwwwqqqqq0000999988877766655;                                                                                                                ",
"    Z                                                                                                            jjkkklllzzzxxxxxcccvcvcvvvvvvvbvbvbvbbbbbbbbbbbnbbbnnbbnnnnnnnnnnnnnmnnnnnmnnnnnnnmnmnnnnnnnnnnnnnnnmnmnmnnmnnnnmnnnnnnnnnnnnnnnnnnnnnnnnnbnnnbnnbbnbbbbbbbbbbbbbvbbvbvbvvbvvvvvvvvcvvcvcccvcccccccxcxxcxxxxxxxzxxzxzzzzzzzzllzlllllklklkkkkkjkjjkjjjjhjhjhhhwhwwwwwwqwqq0q000099988877766555;                                                                                                                 ",
"                                                                                                                   jkkklllzzzzxxxcxcccccvcvvvvvvvvbbbvbbbbbbbbbbbbnbnbnnbbnbnnnnnnnnnnnnnnnnnnnmnnnnnnnmnmnmnmnmnmnnmnnnnnmnnmnnnnnnmnnnnnnnnnnnnnnnnnnbbnbnbbbbnbbnbbbbbbbbbbbbvbbvvbvvvbvvvvvvvvcvvccvccvccccccxcxcxcxxxxxxxzxzxzzzzzzzllllzlllllklkklkkkkjkjkjjjjjjhjhhhhhhwhwwwwqqqqq0q000999888877666555                                                                                                                   ",
"                                               Z                                                                    jkkkllllzzzzxxxcxccccvcvvvvvvvvvvbbvbvbbbbbbbbbbbbbbnbnbnbbnbnnnnnnnnnnnnnnnnnnnmnnnnnnnnnnnnnnnnnnmnnnnnnnnnnnnnnnnnnnnnnnnnnnbbnbnnbnbnbnbbbbbbbbbbbbbbbvbvbvbvvbvvvvvvvvvcvvcvcvcccccccccxccxcxxxxxxxxxzxzzzzzzzzzzlzllllllklklkkkkkkjkjjjjjjjjhjhhhhwhwwwwwwqqq0q0000999988777666555                                                                                                                    ",
"                                                                                                                      jkkklllzzzzxxxxxccccccvvvvvvvbvvbvbbvbbbbbbbbbbnbbbnbbnbnbnnbbnbnnnnnnnnnnnnnnnnnnnnnnnnnnnnnnnnnnnnnnnnnnnnnnnnnnnnnnbnbnbbnbnbnbbbbnbbbbbbbbbbbbbbbvvbbvbvbvvvvvvvvvvvcvvccvcccccccccccxcxxcxxxxxxxzzxzzxzzzzzzllllllllllklkkkkkkkjjkjjjjjjhhhjhhhhwhwwwwwqqqqqq000999988787766655                       Z                                                                                              ",
"                                                                                                                       jjkkklllzzzzzxxxxcccccccvvvvvvvvvbvbvbvbbbbbbbbbbbbnbbnbnbbnnbnnbbnbbnnnnnnnnnnnnnnnnnnnnnnnnnnnnnnnnnnnnnnnnnnnnbbnbnnnbnnbnbnbbbnbbbnbbbbbbbbbbvbvbbvvbvvvvvvvvvvvvvcvcvcvccvccccccccxcxcxxxxxxxxzxxzxzzzzzzzlzlzlllllkklklkkkkkjkkjkjjjjhjjhhhhhhhwwwwwqqqqq0009099888877666555                                                                                                                       ",
"                                Z  Z                                                                                     jkkkllllzzzxxxxxxccccvccvcvvvvbvvbvbvbvbbbbbbbbbbbbbbbbbnbbbbbnnbnnbnbbnbbnbnnnnnnnnnnnnnnnnnnnnnnnnnnbnbbnbbnbnnbnbbbbbbbbbbbnbbbbbbbbbbbvbvbvbvbvvbvvvvvvvvvvcvcvcvcvcccccccccccxxxcxxxxxxxxxzxzxzzzzzzzzlllzllllllkllkkkkkkjkkjjjjjjjhjhhhhhhwwwwwwqqqqq0000909988877766655                                                                                                                         ",
"                                      Z                                                                                    jkkkllllzzzzxxxxxccccccvcvvvvvvvvvbvbvbvbvbbbbbbbbbbbbbbbnbnbbbbnbbnnbnbnbnbnbbnbbnbbnbbnbbnbbnbbnbbnbnnbnnbnbbbnbnbnbnbnbbbbbbbbbbbbbbvbbvbvbvvbvvvvvvvvvvcvvvcvcvcccvccccccccxcccxxcxxxxxxxzxzzzzzzzzzlzzlllllllklkkkkkkjkkjjkjjjjjjhjhhhhhwhwwwwwqqqq000009998887776665                                                                   Z                                                       ",
"                                                                                                                            jjkkklllzzzzxxxxxxcccccvccvvvvvvvvvvvvbvbvbvbbbbbbbbbbbbbbbbbnbbbnbbbnbbnbbnbnbnnbnnbnnbnnbnnbnnbnbnbbbbbbbbnbnbbbbbbbbbbbbbbbbbvbbvvbbvbvvbvvvvvvvvvvvvvcvcvcvccccvccccccccxxcxxxxxxxxxzxzzxzzxzzzzlzlllllllllklklkkkkkkkjjkjjjjjjhjhhhhhwwwwwwwqqqq0000099988887766655                                                                                                                            ",
"                                                                                                                              jkkkkllllzzzxxxxxxcccccvcvcvvvvvvvbvvbvbvbbvvbvbbbbbbbbbbbbbbbbbbbbbnbbnbbbnbbbbbbbbbbbbbbbbbbbbbbbnbnbnbbbbbbbbbbbbbbbbbbbbbvbbvbbvbvvbvvvvvvvvvvvvvcvvcvccvcvccccccccccxcxcxxxxxxxxxxzzxzzzzzzlzzlzlzlllllllkkkkkkkkkjkjjjjjjhjhhhhhhhwhwwwqqqqq0q0009988887776655                                                                                                                              ",
"                                                                                                                                jkkkkllllzzzxxxxxcxccccccvcvvvvvvvvvvvvbvbbvbbvbbbbbbbbbbbbbbbbbbbbbbbbbbbnbnbnbnbnbnbnbnbnbbnbbbbbbbbbbbbbbbbbbbbbbbbbvvbvbvvbvvbvvbvvvvvvvvvvvcvcvccvcvccccccccccxcxxcxxxxxxxxxzxzzxzzzzzzzzzllzllllllklkkklkkkkkjjjkjjjjjhjhhjhhhwwwwwwqqqq000009999887776666                                                                                                                Z               ",
"                                                                                                                                Zjjkkklllzlzzzxxxxcxxcccccccvcvvvvvvvvvvvvvbvvbvvvvbvbvbbbbbbbbbbbbbbbbbbbbbbbbbbbbbbbbbbbbbbbbbbbbbbbbbbbbbbbbbbbbvvbvbvbvbvbvvvvvvvvvvvvvvvcvcvvvcvcvcccccccccccxcxcxxxcxxxxxxzxzxzzzzzzzzzllzllllllllkklkkkkkkjkjkjjjjjjjhjhhhhwwhwwwqqqqq0q0099998887776665                                                                                                                                 ",
"                                                                                                                                   jjkkkllllzzzzzxxxxcxccccvcvccvvvvvvvvvvvvvbvbvbbvbvbbvvbbbbbbbbbbbbbbbbbbbbbbbbbbbbbbbbbbbbbbbbbbbbbbvbbvbvvbvvvbbvvbvvvvbvvvvvvvvvvvvvcvvvcvcccvcccccccccccxxcxcxxcxxxxxxxzxzxzzzzzzzzlzllzllllllklklkkkkkkkjkjjjjjjjhhjhhhhwhwwwwwqqqqq00009998888777666                                                                                                                                   ",
"                                                                                                                           Z         jjkkklllllzzzzxxxxxxccccccvccvcvvvvvvvvvvvvvvvbvbvvbbvvbvvbvbvbbvbbbbbbbbbbbbbbbbbbbbbbbbbbbbbbbvbvbbvbvbbvbbvvvbvvvbvvvvvvvvvvvvvvcvvccvcvcvccccccccccccxccxcxxxxxxxxxzxzxzzzzzzzzzlzlzllyyylklklkkkkkkkkjkjjkjjjjjjhhhhhhhwwwwqqqqq00009999888777666                                                                                                                                     ",
"                                                                                                                                       jjkkkkllzlzzzzxxxxxxxcccccccvcvcvvvvvvvvvbvvvvvvbvvbvvbbvbvbvbbvbvvbvvbvvbvvbvvbvvbvvbvvbvvbvvbvbvvbvbvvvvvvbvvvvbvvvvvvvvvcvcvccvccvcccccccccccccccxcxxcxxxxxxxxxxzxzzxzzzzzzzzlzlzyyyylylklklkkkkkkjkjkjjjjjjhjhhhhhhwwwwwqqqqq00000999888877666                                                                                                                                       ",
"                                                                                                                                         jkkklkllllzzzzxxxxxxxcccccccccvcvcvvvvvvvvvvvvvvvvbvvbvvvbvvvbvbbvbbvbbvbbvbbvbbvbbvbbvbbvvbvvbvbvvvvvvbvvvvvvvvvvvvvvvvcvvvcvcvcvcvcvccccccccccxcxxcxxxxxxxxxxxzxzxzzzzzzzzulzuyylllllllklkkkkkkjkkjkjjjjjjjjhhhhhwwwwwwqwqq0q000999988877766                                                                                                                                         ",
"                                                                                                                                          jjkjkklllllzzzzxxxxxxxccccccvccvcvcvvvvvvvvvvvvvvvvvvvvbvvbvvvvvvvvvvvvvvvvvvvvvvvvvvvvvvbvvbvvvvvvbvvvvvvvvvvvcvvcvccvvcccvcvccccccccccccccxcxcxxcxxxxxxxxxzzzxzzxzzzzzzluyyylllllllkklkkkkkkkkkjjkjjjjjjhhhhhhwhwwwwqqqqq0q000999888777666                                                                                                                                          ",
"                                                                                                                                            jjkkkkllllllzzzzxxxxxxxcccccccccvccccvcvvvvvvvvvvvvvvvvvvvvvvbvvbvbvbvbvbvbvbvbvbvbvvvvvvvvvvvvvvvvvvvvvvvvcvvcvvcvvccvcvccccvccccccccccxcxxcxxxxxxxxxxxxzxxzzzzzzzzzzuyyulllllllkllkklkkkkkkjjkjjjjjjjhhhhhwhwwwwqwqqq00000999888877666                                                                                                                                            ",
"                                                                                                                                              jjjkkkkllllzzzzzxxxxxxxcxcccccccvvcvvccvvcvvvvvvvvvvvvvvvvvvvvvvvvvvvvvvvvvvvvvvvvvvvvvvvvvvvvvvvvvvcvccvvcvcvcvccvccvccccccccccccxccxcxcxxxxxxxxxxzxzzzxzzzzzzzzuyuyuyyylllllklkkkkkkkkjkjkjjjjjjhjhhhhhwhwwwwqqqq00000999888877766                                                                           Z                                                                  ",
"                                                                                                                                                jjjkkkklllllzzzzzzxxxxcxxcccccccccccvccvvccvcvcvvcvvvvvvvvvvvvvvvvvvvvvvvvvvvvvvvvvvvvvvvvvvvcvccvvcvvcvccvcccvcccccccccccccccxccxxcxxxxxxxxxxxzxzxzxzzzzzuzzuuyulllllllllkklklkkkkkkkjkjjjjjjhjhhhhhhwwwwwqqqqq0000999988877766                                                                                                                                                ",
"                                                                                                                                                  jjjkkkkllllllzzzzzxzxxxxxxcxccccccccvccvcvcvvcvvcvcvcvvvvvvvvvvvvvvvvvvvvvvvvvvcvcvcvccvcccvcvvccvccvccvccccccccccccccccxxcxcxxcxxxxxxxxxxxzxzxzxzzzzzuuzuyuylllzlllllklklkkkkkkkjkjkjjjjjjhjhhhhwwwwwqqqqqq0000099988887776                                                                    Z                                                                             ",
"                                                                                                                                                     jkjkkkklllllzzzzzzxxxxxxxcxccccccccccccvccvccvcvcvvccvccvccvccvccvccvccvccvcvvvcvcvcvcvvcvcccvccccvcccccccccccccccxcxccxxxxxxxxxxxxxxxxzxzxzzzzzzzzzzzuyllzlllllllklklkkkkkkkjkjjjjjjjjhhhhhwhwwwwwqqqq000009998888776                                                                                                       Z                                             ",
"                                                                                                                                                       jjkkkkklllllzzzzzzzxxxxxxxxcxccccccccccccvcvcvcvccvcvcvcvcvvcvvcvvcvvcvcvccccvcvcvccccvccvccccccccccccccccccxcxcxcxxxxcxxcxxxxxxzxzzzxzzzzzzzzzzlzyuyllzllllklklkkkkkkkkkjjkjjjjjhhhhhhhhwwwwwqqqqq000099998888776                                                                                                                                                       ",
"                       Z                                 Z                                                                                               jjjkkkkkllllzlzzzzzzzxxxxxxxcxxcccccccccccccccccvccccvcvccvccvccvccccvccvcvcccccvcvcccccccccccccccccccxcxxcxxcxxcxxxxxxxxxxxxxzxzxzzxzzzuuuzzlzuyyyyyllllkllkklkkkkkkkjkjjjjjjhjhhhhhwwwwwwqqqq000009999888777                                              Z                                                                                                          ",
"                                                                                                                                                           jjjjkkkkklllllzzzzzzzxxxxxxxxxxcxccccccccccccccccvcccccvccccccccvccccvcccccccccccccccccccccccccxccxcxcxcxxcxxxxxxxxxxzxzzzzzxzzzzzzzzzuyulyuyyyuyylllkllkkklkkkkjkjjjjjjjhjhhhhhwwwwwwqqqq0q00099999887777                                                                                       Z                                                                   ",
"            Z          Z                                                                                                                                      jjkjkkkkklllllzzzzzzzzzxxxxxxxxxxxxcxccccccccccccccccccvccvccccccccccccccccccccccccccccccxcxcxxcxcxxxxxxxxxxxxxxxxxzxxzxzzxzzzzzzzyuuylyyyyyyyyllklkkkkkkjkkjkjjjjjjhjhhhhhwhwwwwwqqqq00000999888877                                                                                                                                                              ",
"                 Z                                                               Z                                                                              jjjjkkkkkklllllzlzzzzzzxzxxxxxxxcxcxxcxcccccccccccccccccccccccccccccccccccccccxccxcxxxxcxxcxcxxxxxxxxxxxxxxzxzzzzxzzzzzzzzuuzzluyuylyuyyyyytlkklkkkkkkkkjjkjjjjjhhjhhhhwwwwwqqqqq000009999988877                                                                                                                                                                ",
"                                                                                                                                                                  jjjjjkkkkklklllllzzzzzzzzzxzxxxxxxxxxxcxxxcxxccxccxcxccxccccccccccxccccxxcxxcxxcxcxcxxcxxxxxxxxxxxxxxxzxzxzxzxzzxzzzzzzzzzyuyuyyyyyyyyyytykkkkkkkkkkjjjjjjjjjhhhhhhwwwwwwqqqqq00009099888877                                                                                                                                                                  ",
"                                                                                                                                                   Z                 jjjjjkkkkkklllllllzzzzzzzzzzxzxxxxxxxxxxxcxxcxxcxcxcxcxxcxxxxxcxcxxxcxxcxcxcxxxiiiiiiixxxxxxxxxzxzxzxzxzzxzzzzzzzzzlulzlyyyyllyyytyttkkkkkkkkjjjjjjjjhjhhhhhhwwwwwwqqqqq00000099988887                                                                                                                                                                     ",
"                                                                                                                                                                        jjjjjkkkkkkkllllllzlzzzzzzzzzxzxzxxxxxxxxxxxxxxxxxxxxxxcxcxxxxxcxxcxxxxxxxxixxxxxxxxxxxxxzixzxzxzzzzzzzzzzzuuzlzlzlyyyllllytytyttkkkkkkkjkjkjjjjjjhhhhhhwwwwwwqqqq0q000099998888                                                                                          Z                                                                             ",
"                                                                                                                                                                          hjjjjjkkkkkkklllllllzlzzzzzzzzzxzzzxzxzxxxxxxxxxxxxxxxxxxxxxxxxxxxxxxxxxxxxxxxiuiiuiuiuuuuuuuuuuzzzzzzuylzllyyllllyyyyytytttttkkkkkjjjjjjjjhjhhhhhwhwwwwwqqqqq00000099998887                                                                                                                                                                          ",
"                                                                                                                                                                             hjjjjkjkkkkkklklllllllzlzzzzzzzzzzzzxzzxzxzxiuixiiiiixxxxxixxxxxxxxzxxzxzuiuiuuiuuuiuiuuuuuuuuuuyuyuyuyyyyyyyyyyytyttttttkkkjkjjjjjjjhjhhhhhwhwwwwwqqqqq0q00009999<888                                                                                                                                                                             ",
"                                                                                                                                                                                hhjjjjjkkkkkkkklllllllllllzzzzzzzzzzzzzzzxzxzzxzzxzuiuiuiuzuizzzxzzxzzzzuuuuuuuuuuuuuuuuyuyyyuyyyyyyyyyyyttyttttttttkkjjjjjjjjjjhhjhhhhwwwwwwqwqqqq000000999<<<<                                                                                                                                                                                ",
"                                                                                                                                                                                   hhjjjjjjjkkkkkkklklllllllllllzlzyuuuuuuuuuuuuuuuuuuuuuuuuuuuuuuuuuuuuuuuuuuuuuyuyyuyyuyuyyyyyyyyyytyttyttttttjkkjjjkjjjjjhjhhhhhwhwwwwwwqqqq0q000009111<<<                                                                                                                                                                                   ",
"                                                                           Z                                                                                                          hhhjjjjjjkjkkkkkkkklkllllllyyyyyyyuyuyuuyyuuuuuuuuuuuuuuuuuuuuuyuuyuyuyuyyyuyyuyyyyyyyyyyykltttttttttkkjkjkjjjjjjjjhhhhhhhhwwwwwwwqqqqqq000009911<<<                                        Z                                                                                                                                             ",
"                                                                                                                                                                                          hjhjjjjjjjkjkkkkkkkkkltyyyyyyyyyyyyyuyyyyyyyyyyyyyyyyyyyyyuyyyuyyyyyyyyyyyyyyytytyttttkkkkkkkkkjkjkjjjjjjjhjhhhhhhhhwwwwwwwqqqqqq0000011111<                                                                                                                                                                                          ",
"                                                                                                                                                                                             hhhjjjjjjjjkjkkkkkkkkktttytytyyyytyyyyyyyyyyyyyyyyyyyyyyyyyyyyyyyyytytyttttyttkkkttttkkjkjjjjjjjjjjhjhhhhhhhwhwwwwwwqqqqqq02222211111<                                                                                                                                                                                             ",
"                                                                                                                                                                                                 hhhhjjjjjjjjjrtrttttttttttttttytytyytyyyyyyytyytytytytyttyttttttttttttttkktjkkjkjjjtrjjjjjhjhhhhhhhhe4wwwwwqwqq333322222211111                                                                                                                                                                                                 ",
"                                                                                                                                                                                                     hhhhhhjjjjjjjjjrrtrttrtttttttttttttttttttttttttttttttttttttttttrttrrtrrrjjjjjjjjhjhjhhhhhhhe4444wwwwq33333232222221111                                                                                                                                                                                                     ",
"                                                                            Z                                                                                                                            hhhhhhhjhjerjjjjjjrrrrrtrrtrtrtrtrtrttttttttttrtrtrtrtrtrrrrrrrrrrrrjjjhjhheeehhhhhe44444wwqwqqqqq33222222111                                      Z                                                                                                                                                                   ",
"                                                                                                                          Z                                                                                   4hhhhhhhhhjhjhjjjjrrrrrrrrrrrrrrrrrrrrrrrrrrrrrrrrrrrrrrrrereeeeeeehhhhhwhwwwwwwwqwqqq33323222222211                                                                          Z                                                                                                                                   ",
"                                                                                                                                                                                                                    whhhhhhhhhhhherererererrrrrrerrerrerrrrerereeeeeeeeeeeeeeee4e4w4444444343333333232222221                                                                                                                                                                                                                    ",
"                                                                                                                          Z                                                                                               wwhwhhhhhhhhheeeeeeeeeeeeeeeeeeeeeeeeeeeeeee4e444444444444343333333332222222                                                                                                                                                                                                                          ",
"                                                                                                                                                                                                                                 4wwwwwwwhwwhww4e4e4e4e4444e44444444444444444343333333332322222                                                                                                                                                                                                                                 ",
"                                                                                                                                                                                                                                          w444444444444444443444434334333333333232322                                                                                                                                                                                                                                           ",
"                                                                                                                                                                                                                                                                                                                                                                                                                                                                                                                                ",
"                                                             Z                                                   Z                                                                                                                                                  Z                                                                                                                                                                                                                                                           ",
"                                                                       Z                                                                                                                                                                                                                                                                                                                                                                                                                                                        "
};
